;FLAVOR:Marlin
;TIME:2587
;Filament used: 0.915694m
;Layer height: 0.13125
;MINX:43.45
;MINY:47.2
;MINZ:0.263
;MAXX:76.55
;MAXY:72.8
;MAXZ:35.895
;Generated with Cura_SteamEngine mb-master-20191108
M140 S65
M105
M190 S65
M104 S205
M105
M109 S205
M82 ;absolute extrusion mode
G21;(metric values)
G90;(absolute positioning)
M82;(set extruder to absolute mode)
M107;(start with the fan off)
G28;(Home the printer)
G92 E0;(Reset the extruder to 0)
G0 Z5 E5 F500;(Move up and prime the nozzle)
G0 X-1 Z0;(Move outside the printable area)
G1 Y60 E8 F500;(Draw a priming/wiping line to the rear)
G1 X-1;(Move a little closer to the print area)
G1 Y10 E16 F500;(draw more priming/wiping)
G1 E15 F250;(Small retract)
G92 E0;(Zero the extruder)
G92 E0
G92 E0
G1 F2400 E-2.5
;LAYER_COUNT:273
;LAYER:0
M107
;MESH:MiniMax_Z_endstop_Screw_v2.stl
G0 F4320 X52.496 Y53.899 Z0.263
;TYPE:WALL-INNER
G1 F2400 E0
G1 F1800 X52.637 Y53 E0.03483
G1 X52.503 Y52.142 E0.06806
G1 X52.091 Y51.306 E0.10373
G1 X51.447 Y50.663 E0.13855
G1 X50.669 Y50.266 E0.17198
G1 X49.722 Y50.116 E0.20867
G1 X48.856 Y50.253 E0.24223
G1 X48.082 Y50.648 E0.27548
G1 X47.416 Y51.298 E0.3111
G1 X47.019 Y52.076 E0.34452
G1 X46.866 Y52.96 E0.37886
G1 X47.001 Y53.888 E0.41475
G1 X47.413 Y54.697 E0.44949
G1 X48.028 Y55.313 E0.4828
G1 X48.821 Y55.731 E0.51711
G1 X49.745 Y55.889 E0.55298
G1 X50.608 Y55.752 E0.58642
G1 X51.443 Y55.341 E0.62204
G1 X52.063 Y54.722 E0.65557
G1 X52.173 Y54.513 E0.66461
G0 F1620 X52.496 Y53.899
G1 F2400 E-1.83539
G0 F4320 X52.198 Y54.822
G0 X55.208 Y54.825
G0 X55.215 Y57.968
G0 X55.108 Y58.125
G1 F2400 E0.66461
G1 F1800 X50.875 Y64.992 E0.97333
G1 X50.875 Y72.125 E1.2463
G1 X48.625 Y72.125 E1.33241
G1 X48.625 Y64.992 E1.60539
G1 X44.392 Y58.125 E1.91411
G1 X44.139 Y58.125 E1.92379
G1 X44.126 Y49.05 E2.27109
G1 X44.126 Y48.875 E2.27779
G1 X44.301 Y48.875 E2.27946
G1 X55.2 Y48.875 E2.69657
G1 X55.375 Y48.875 E2.70326
G1 X55.375 Y49.05 E2.70494
G1 X55.372 Y58.125 E3.05224
G1 X55.127 Y58.125 E3.06161
G0 F1620 X55.108 Y58.125
G0 F4320 X55.303 Y58.475
G1 F1800 X51.225 Y65.091 E3.35904
G1 X51.225 Y72.475 E3.64163
G1 X48.275 Y72.475 E3.75452
G1 X48.275 Y65.091 E4.03711
G1 X44.197 Y58.475 E4.33454
G1 X43.79 Y58.475 E4.35011
G1 X43.775 Y48.7 E4.7242
G1 X43.775 Y48.525 E4.7309
G1 X43.95 Y48.525 E4.73257
G1 X55.55 Y48.525 E5.17651
G1 X55.725 Y48.525 E5.1832
G1 X55.725 Y48.7 E5.18488
G1 X55.722 Y58.475 E5.55897
G1 X55.333 Y58.475 E5.57385
G0 F1620 X55.303 Y58.475
G1 F2400 E3.07385
G0 F4320 X55.209 Y51.516
G0 X52.662 Y52.092
G0 X51.803 Y51.513
G1 F2400 E5.57385
G1 F1800 X51.239 Y50.95 E5.60435
G1 X50.559 Y50.603 E5.63357
G1 X49.722 Y50.47 E5.666
G1 X48.966 Y50.59 E5.69529
G1 X48.288 Y50.936 E5.72443
G1 X47.702 Y51.508 E5.75576
G1 X47.355 Y52.188 E5.78498
G1 X47.22 Y52.965 E5.81516
G1 X47.339 Y53.78 E5.84668
G1 X47.7 Y54.489 E5.87713
G1 X48.238 Y55.028 E5.90627
G1 X48.935 Y55.395 E5.93642
G1 X49.747 Y55.534 E5.96795
G1 X50.501 Y55.415 E5.99716
G1 X51.237 Y55.053 E6.02855
G1 X51.778 Y54.512 E6.05783
G1 X52.159 Y53.787 E6.08917
G1 X52.283 Y53 E6.11966
G1 X52.165 Y52.249 E6.14876
G1 X52.109 Y52.135 E6.15362
G0 F1620 X51.803 Y51.513
G0 F4320 X52.059 Y52.283
G0 X52.171 Y53
G0 X52.051 Y53.751
G0 X51.238 Y54.979
G0 X51.045 Y54.785
;TYPE:WALL-OUTER
G1 F1800 X51.513 Y54.317 E6.17895
G1 X51.846 Y53.683 E6.20635
G1 X51.954 Y53 E6.23282
G1 X51.852 Y52.348 E6.25807
G1 X51.535 Y51.705 E6.28551
G1 X51.046 Y51.216 E6.31197
G1 X50.457 Y50.916 E6.33727
G1 X49.722 Y50.799 E6.36575
G1 X49.068 Y50.903 E6.39109
G1 X48.48 Y51.203 E6.41636
G1 X47.967 Y51.703 E6.44377
G1 X47.667 Y52.292 E6.46907
G1 X47.549 Y52.969 E6.49537
G1 X47.653 Y53.68 E6.52287
G1 X47.966 Y54.296 E6.54931
G1 X48.433 Y54.763 E6.57459
G1 X49.041 Y55.083 E6.60088
G1 X49.749 Y55.205 E6.62837
G1 X50.402 Y55.102 E6.65367
G1 X50.422 Y55.092 E6.65453
G0 F1620 X51.045 Y54.785
G0 F4320 X51.186 Y54.644
G1 F2400 E4.15453
G0 F4320 X51.379 Y54.839
G0 X55.207 Y55.041
G0 X55.484 Y58.525
G0 X55.484 Y58.8
G1 F2400 E6.65453
G1 F1800 X51.55 Y65.183 E6.94147
G1 X51.55 Y72.8 E7.23298
G1 X47.95 Y72.8 E7.37075
G1 X47.95 Y65.183 E7.66225
G1 X44.016 Y58.8 E7.9492
G1 X43.465 Y58.8 E7.97028
G1 X43.45 Y48.375 E8.36925
G1 X43.45 Y48.2 E8.37594
G1 X43.625 Y48.2 E8.37762
G1 X55.875 Y48.2 E8.84643
G1 X56.05 Y48.2 E8.85312
G1 X56.05 Y48.375 E8.8548
G1 X56.047 Y58.8 E9.25376
G1 X55.525 Y58.8 E9.27374
G0 F1620 X55.484 Y58.8
G0 F4320 X55.38 Y58.97
G0 X55.146 Y58.825
G0 X55.032 Y58.04
G0 X55.032 Y57.785
;TYPE:SKIN
G1 F1800 X54.918 Y57.785 E9.2781
G1 X50.535 Y64.895 E9.59775
G1 X50.535 Y71.785 E9.86143
G1 X48.965 Y71.785 E9.92151
G1 X48.965 Y64.895 E10.18519
G1 X44.582 Y57.785 E10.50484
G1 X44.479 Y57.785 E10.50878
G1 X44.466 Y49.215 E10.83675
G1 X55.035 Y49.215 E11.24123
G1 X55.032 Y57.091 E11.54264
G0 F1620 X55.032 Y57.785
G1 F2400 E9.04264
G0 F4320 X55.052 Y58.053
G0 X55.207 Y55.414
G0 X52.198 Y54.822
G0 X51.494 Y55.411
G0 X51.643 Y55.621
G1 F2400 E11.54264
G1 F1800 X52.339 Y54.926 E11.58028
G1 X52.823 Y54.008 E11.62
G1 X52.981 Y53 E11.65905
G1 X52.831 Y52.039 E11.69627
G1 X52.371 Y51.106 E11.73608
G1 X51.649 Y50.385 E11.77513
G1 X50.776 Y49.938 E11.81266
G1 X49.722 Y49.772 E11.8535
G1 X48.749 Y49.925 E11.89119
G1 X47.882 Y50.368 E11.92845
G1 X47.138 Y51.094 E11.96823
G1 X46.693 Y51.967 E12.00573
G1 X46.522 Y52.956 E12.04414
G1 X46.673 Y53.993 E12.08425
G1 X47.135 Y54.899 E12.12317
G1 X47.824 Y55.589 E12.16049
G1 X48.71 Y56.057 E12.19883
G1 X49.743 Y56.233 E12.23894
G1 X50.713 Y56.08 E12.27652
G1 X51.021 Y55.928 E12.28966
G0 F1620 X51.643 Y55.621
G1 F2400 E9.78966
G0 F4320 X51.494 Y55.411
G0 X52.662 Y52.092
G0 X55.208 Y52.094
G0 X55.289 Y49.433
G0 X54.877 Y49.432
G1 F2400 E12.28966
G1 F1800 X54.816 Y49.371 E12.29296
G0 F4320 X54.321 Y49.371
G1 F1800 X54.877 Y49.927 E12.32305
G0 F4320 X54.877 Y50.422
G1 F1800 X53.826 Y49.371 E12.37994
G0 F4320 X53.331 Y49.371
G1 F1800 X54.877 Y50.917 E12.46361
G0 F4320 X54.877 Y51.412
G1 F1800 X52.836 Y49.371 E12.57407
G0 F4320 X52.341 Y49.371
G1 F1800 X54.877 Y51.907 E12.71132
G0 F4320 X54.876 Y52.401
G1 F1800 X51.846 Y49.371 E12.87531
G0 F4320 X51.351 Y49.371
G1 F1800 X54.876 Y52.896 E13.06609
G0 F4320 X54.876 Y53.391
G1 F1800 X52.499 Y51.014 E13.19474
G1 X52.437 Y50.952
G0 F4320 X51.74 Y50.255
G1 F1800 X50.856 Y49.371 E13.24258
G0 F4320 X50.768 Y49.778
G1 F1800 X50.361 Y49.371 E13.26461
G0 F4320 X50.179 Y49.684
G1 F1800 X49.866 Y49.371 E13.28155
G0 F4320 X49.626 Y49.626
G1 F1800 X49.371 Y49.371 E13.29535
G0 F4320 X49.199 Y49.694
G1 F1800 X48.876 Y49.371 E13.31283
G0 F4320 X48.771 Y49.761
G1 F1800 X48.381 Y49.371 E13.33394
G0 F4320 X47.886 Y49.371
G1 F1800 X48.426 Y49.911 E13.36317
G0 F4320 X48.098 Y50.078
G1 F1800 X47.391 Y49.371 E13.40143
G0 F4320 X46.896 Y49.371
G1 F1800 X47.775 Y50.25 E13.449
G0 F4320 X47.525 Y50.495
G1 F1800 X46.401 Y49.371 E13.50984
G0 F4320 X45.906 Y49.371
G1 F1800 X47.275 Y50.739 E13.5839
G0 F4320 X47.024 Y50.984
G1 F1800 X45.411 Y49.371 E13.6712
G0 F4320 X44.916 Y49.371
G1 F1800 X46.852 Y51.307 E13.77598
G0 F4320 X46.686 Y51.635
G1 F1800 X44.622 Y49.572 E13.88766
G0 F4320 X44.623 Y50.068
G1 F1800 X46.532 Y51.977 E13.99098
G0 F4320 X46.459 Y52.399
G1 F1800 X44.624 Y50.563 E14.09032
G0 F4320 X44.624 Y51.059
G1 F1800 X46.386 Y52.82 E14.18566
G0 F4320 X46.421 Y53.351
G1 F1800 X44.626 Y51.555 E14.28283
G0 F4320 X44.626 Y52.051
G1 F1800 X46.506 Y53.931 E14.38458
G1 X46.568 Y53.993
G0 F4320 X46.937 Y54.857
G1 F1800 X44.627 Y52.547 E14.5096
G0 F4320 X44.628 Y53.042
G1 F1800 X52.687 Y61.102 E14.9458
G0 F4320 X52.499 Y61.408
G1 F1800 X44.629 Y53.538 E15.37174
G0 F4320 X44.629 Y54.034
G1 F1800 X52.31 Y61.714 E15.78742
G0 F4320 X52.121 Y62.021
G1 F1800 X44.63 Y54.529 E16.19288
G0 F4320 X44.631 Y55.026
G1 F1800 X51.932 Y62.327 E16.58802
G0 F4320 X51.743 Y62.633
G1 F1800 X44.632 Y55.522 E16.97288
G0 F4320 X44.633 Y56.017
G1 F1800 X51.555 Y62.939 E17.34751
G0 F4320 X51.366 Y63.245
G1 F1800 X44.633 Y56.513 E17.71189
G0 F4320 X44.634 Y57.009
G1 F1800 X51.177 Y63.551 E18.06598
G0 F4320 X50.988 Y63.858
G1 F1800 X44.635 Y57.504 E18.40984
G1 X44.573 Y57.442
G0 F4320 X44.223 Y57.442
G0 X44.974 Y58.907
G0 X45.327 Y58.691
G1 F1800 X50.799 Y64.164 E18.70602
G0 F4320 X50.611 Y64.47
G1 F1800 X46.123 Y59.982 E18.94892
G1 X46.061 Y59.92
G0 F4320 X45.725 Y60.126
G0 X46.565 Y61.488
G0 X46.917 Y61.272
G1 F1800 X50.422 Y64.776 E19.13859
G0 F4320 X50.377 Y65.227
G1 F1800 X47.713 Y62.562 E19.2828
G1 X47.651 Y62.5
G0 F4320 X47.315 Y62.706
G0 X48.155 Y64.068
G0 X48.508 Y63.852
G1 F1800 X50.377 Y65.722 E19.38398
G0 F4320 X50.377 Y66.217
G1 F1800 X49.122 Y64.961 E19.45193
G0 F4320 X49.122 Y65.456
G1 F1800 X50.377 Y66.711 E19.51986
G0 F4320 X50.377 Y67.206
G1 F1800 X49.122 Y65.951 E19.58778
G0 F4320 X49.122 Y66.446
G1 F1800 X50.377 Y67.701 E19.6557
G0 F4320 X50.377 Y68.196
G1 F1800 X49.122 Y66.941 E19.72362
G0 F4320 X49.122 Y67.436
G1 F1800 X50.377 Y68.691 E19.79155
G0 F4320 X50.377 Y69.186
G1 F1800 X49.122 Y67.931 E19.85947
G0 F4320 X49.122 Y68.426
G1 F1800 X50.377 Y69.681 E19.92739
G0 F4320 X50.377 Y70.176
G1 F1800 X49.122 Y68.92 E19.99534
G0 F4320 X49.122 Y69.415
G1 F1800 X50.377 Y70.671 E20.06329
G0 F4320 X50.377 Y71.166
G1 F1800 X49.122 Y69.91 E20.13124
G0 F4320 X49.122 Y70.405
G1 F1800 X50.343 Y71.627 E20.19735
G0 F4320 X49.848 Y71.627
G1 F1800 X49.122 Y70.9 E20.23667
G0 F4320 X49.122 Y71.395
G1 F1800 X49.353 Y71.627 E20.2492
G0 F4320 X49.353 Y72.04
G0 X50.718 Y71.968
G0 X51.337 Y65.123
G0 X53.228 Y61.013
G0 X52.876 Y60.796
G1 F1800 X47.869 Y55.789 E20.52019
G1 X47.807 Y55.727
G0 F4320 X47.986 Y55.388
G0 X48.876 Y55.827
G0 X48.807 Y56.231
G1 F1800 X53.065 Y60.49 E20.75067
G0 F4320 X53.253 Y60.183
G1 F1800 X49.404 Y56.333 E20.95901
G0 F4320 X49.928 Y56.362
G1 F1800 X53.442 Y59.877 E21.14922
G0 F4320 X53.631 Y59.57
G1 F1800 X50.355 Y56.295 E21.3265
G0 F4320 X50.778 Y56.223
G1 F1800 X53.82 Y59.264 E21.49111
G0 F4320 X54.008 Y58.958
G1 F1800 X51.109 Y56.059 E21.64801
G0 F4320 X51.441 Y55.896
G1 F1800 X54.197 Y58.652 E21.79717
G0 F4320 X54.386 Y58.346
G1 F1800 X51.763 Y55.722 E21.93916
G0 F4320 X52.01 Y55.475
G1 F1800 X54.575 Y58.04 E22.07798
G0 F4320 X54.764 Y57.733
G1 F1800 X52.258 Y55.227 E22.21361
G0 F4320 X52.493 Y54.968
G1 F1800 X54.875 Y57.35 E22.34253
G0 F4320 X54.875 Y56.855
G1 F1800 X52.664 Y54.644 E22.46219
G0 F4320 X52.835 Y54.319
G1 F1800 X54.875 Y56.36 E22.57263
G0 F4320 X54.875 Y55.865
G1 F1800 X52.986 Y53.976 E22.67486
G0 F4320 X53.052 Y53.547
G1 F1800 X54.875 Y55.37 E22.77353
G0 F4320 X54.875 Y54.875
G1 F1800 X53.119 Y53.119 E22.86856
G0 F4320 X53.072 Y52.577
G1 F1800 X54.876 Y54.381 E22.9662
G0 F4320 X54.876 Y53.886
G1 F1800 X52.981 Y51.991 E23.06876
G1 X52.919 Y51.929
G0 F4320 X52.354 Y52.19
G1 F2400 E20.56876
G0 F4320 X51.019 Y52.614
G0 X64.122 Y49.44
G0 X64.974 Y50.07
G0 X67.631 Y48.86
G0 X68.465 Y48.609
G0 X70.319 Y48.326
;TYPE:WALL-INNER
G1 F2400 E23.06876
G1 F1800 X70.863 Y48.406 E23.0898
G1 X71.412 Y48.543 E23.11146
G1 X71.929 Y48.727 E23.13246
G1 X72.437 Y48.969 E23.15399
G1 X72.918 Y49.256 E23.17543
G1 X73.371 Y49.593 E23.19704
G1 X73.784 Y49.966 E23.21834
G1 X74.157 Y50.379 E23.23963
G1 X74.494 Y50.832 E23.26124
G1 X74.78 Y51.309 E23.28252
G1 X75.047 Y51.893 E23.3071
G1 X75.206 Y52.333 E23.325
G1 X75.344 Y52.887 E23.34685
G1 X75.424 Y53.431 E23.3679
G1 X75.453 Y54 E23.3897
G1 X75.424 Y54.569 E23.4115
G1 X75.344 Y55.113 E23.43255
G1 X75.206 Y55.665 E23.45432
G1 X75.025 Y56.174 E23.475
G1 X74.781 Y56.687 E23.49674
G1 X74.494 Y57.168 E23.51817
G1 X74.157 Y57.621 E23.53978
G1 X73.784 Y58.034 E23.56108
G1 X73.371 Y58.407 E23.58237
G1 X72.918 Y58.744 E23.60398
G1 X72.437 Y59.031 E23.62542
G1 X71.929 Y59.273 E23.64695
G1 X71.412 Y59.457 E23.66795
G1 X70.863 Y59.594 E23.68961
G1 X70.319 Y59.674 E23.71065
G1 X69.75 Y59.703 E23.73245
G1 X69.181 Y59.674 E23.75426
G1 X68.637 Y59.594 E23.7753
G1 X68.088 Y59.457 E23.79695
G1 X67.571 Y59.273 E23.81796
G1 X67.063 Y59.031 E23.83949
G1 X66.582 Y58.744 E23.86093
G1 X66.129 Y58.407 E23.88253
G1 X65.716 Y58.034 E23.90383
G1 X65.343 Y57.621 E23.92513
G1 X65.006 Y57.168 E23.94674
G1 X64.719 Y56.687 E23.96817
G1 X64.475 Y56.174 E23.98991
G1 X64.294 Y55.665 E24.01059
G1 X64.156 Y55.113 E24.03236
G1 X64.076 Y54.569 E24.0534
G1 X64.047 Y54 E24.07521
G1 X64.076 Y53.431 E24.09701
G1 X64.156 Y52.887 E24.11805
G1 X64.294 Y52.334 E24.13987
G1 X64.476 Y51.823 E24.16063
G1 X64.719 Y51.313 E24.18225
G1 X65.006 Y50.832 E24.20368
G1 X65.343 Y50.379 E24.22529
G1 X65.716 Y49.966 E24.24659
G1 X66.129 Y49.593 E24.26788
G1 X66.582 Y49.256 E24.28949
G1 X67.063 Y48.969 E24.31093
G1 X67.571 Y48.727 E24.33246
G1 X68.088 Y48.543 E24.35346
G1 X68.637 Y48.406 E24.37512
G1 X69.181 Y48.326 E24.39616
G1 X69.625 Y48.303 E24.41317
G0 F1620 X69.75 Y48.297
G0 X70.319 Y48.326
G1 F2400 E21.91317
G0 F4320 X70.316 Y49.616
G0 X73.662 Y51.996
G0 X74.128 Y56.292
G1 F2400 E24.41317
G1 F1800 X74.128 Y51.708 E24.5886
G1 X69.75 Y49.519 E24.77593
G1 X65.373 Y51.708 E24.96321
G1 X65.373 Y56.292 E25.13864
G1 X69.75 Y58.48 E25.32591
G1 X73.508 Y56.602 E25.48669
G0 F1620 X74.128 Y56.292
G0 F4320 X73.778 Y56.076
G1 F1800 X73.778 Y51.924 E25.64559
G1 X69.75 Y49.91 E25.81793
G1 X65.723 Y51.924 E25.99025
G1 X65.723 Y56.076 E26.14914
G1 X69.75 Y58.089 E26.32144
G1 X73.158 Y56.386 E26.46724
G0 F1620 X73.778 Y56.076
G1 F2400 E23.96724
G0 F4320 X73.662 Y51.996
G0 X69.75 Y49.332
G0 X69.797 Y48.465
G0 X70.346 Y47.976
G1 F2400 E26.46724
G1 F1800 X70.939 Y48.064 E26.49018
G1 X71.513 Y48.207 E26.51282
G1 X72.057 Y48.401 E26.53492
G1 X72.603 Y48.66 E26.55805
G1 X73.116 Y48.967 E26.58093
G1 X73.596 Y49.324 E26.60382
G1 X74.032 Y49.718 E26.62631
G1 X74.426 Y50.154 E26.6488
G1 X74.783 Y50.634 E26.67169
G1 X75.09 Y51.146 E26.69454
G1 X75.371 Y51.76 E26.72038
G1 X75.543 Y52.237 E26.73979
G1 X75.686 Y52.811 E26.76243
G1 X75.774 Y53.404 E26.78537
G1 X75.804 Y54 E26.80821
G1 X75.774 Y54.596 E26.83104
G1 X75.686 Y55.189 E26.85399
G1 X75.543 Y55.763 E26.87663
G1 X75.35 Y56.305 E26.89864
G1 X75.09 Y56.853 E26.92186
G1 X74.783 Y57.366 E26.94474
G1 X74.426 Y57.846 E26.96763
G1 X74.032 Y58.282 E26.99012
G1 X73.596 Y58.676 E27.01261
G1 X73.116 Y59.033 E27.0355
G1 X72.603 Y59.34 E27.05838
G1 X72.057 Y59.599 E27.08151
G1 X71.513 Y59.793 E27.10361
G1 X70.939 Y59.936 E27.12625
G1 X70.346 Y60.024 E27.14919
G1 X69.75 Y60.054 E27.17203
G1 X69.154 Y60.024 E27.19487
G1 X68.561 Y59.936 E27.21781
G1 X67.987 Y59.793 E27.24045
G1 X67.443 Y59.599 E27.26255
G1 X66.897 Y59.34 E27.28568
G1 X66.384 Y59.033 E27.30856
G1 X65.904 Y58.676 E27.33145
G1 X65.468 Y58.282 E27.35394
G1 X65.074 Y57.846 E27.37643
G1 X64.717 Y57.366 E27.39932
G1 X64.41 Y56.853 E27.4222
G1 X64.15 Y56.305 E27.44541
G1 X63.957 Y55.763 E27.46743
G1 X63.814 Y55.189 E27.49007
G1 X63.726 Y54.596 E27.51301
G1 X63.696 Y54 E27.53585
G1 X63.726 Y53.404 E27.55869
G1 X63.814 Y52.811 E27.58163
G1 X63.958 Y52.233 E27.60443
G1 X64.15 Y51.695 E27.62629
G1 X64.41 Y51.147 E27.6495
G1 X64.717 Y50.634 E27.67238
G1 X65.074 Y50.154 E27.69527
G1 X65.468 Y49.718 E27.71776
G1 X65.904 Y49.324 E27.74025
G1 X66.384 Y48.967 E27.76315
G1 X66.897 Y48.66 E27.78603
G1 X67.443 Y48.401 E27.80915
G1 X67.987 Y48.207 E27.83126
G1 X68.561 Y48.064 E27.85389
G1 X69.154 Y47.976 E27.87684
G1 X69.652 Y47.95 E27.89592
G0 F1620 X69.75 Y47.946
G0 X70.346 Y47.976
G0 F4320 X70.378 Y47.652
;TYPE:WALL-OUTER
G1 F1800 X70.996 Y47.743 E27.91983
G1 X71.608 Y47.896 E27.94397
G1 X72.185 Y48.102 E27.96742
G1 X72.756 Y48.373 E27.9916
G1 X73.297 Y48.697 E28.01574
G1 X73.801 Y49.071 E28.03976
G1 X74.262 Y49.488 E28.06355
G1 X74.679 Y49.949 E28.08733
G1 X75.053 Y50.453 E28.11135
G1 X75.376 Y50.992 E28.1354
G1 X75.674 Y51.64 E28.1627
G1 X75.853 Y52.138 E28.18295
G1 X76.007 Y52.754 E28.20725
G1 X76.098 Y53.372 E28.23115
G1 X76.13 Y54 E28.25522
G1 X76.098 Y54.628 E28.27928
G1 X76.007 Y55.246 E28.30319
G1 X75.854 Y55.858 E28.32733
G1 X75.649 Y56.433 E28.35069
G1 X75.377 Y57.006 E28.37497
G1 X75.053 Y57.547 E28.3991
G1 X74.679 Y58.051 E28.42312
G1 X74.262 Y58.512 E28.44691
G1 X73.801 Y58.929 E28.4707
G1 X73.297 Y59.303 E28.49472
G1 X72.756 Y59.627 E28.51885
G1 X72.185 Y59.898 E28.54304
G1 X71.608 Y60.104 E28.56648
G1 X70.996 Y60.257 E28.59063
