;FLAVOR:Marlin
;TIME:1920
;Filament used: 4.03219m
;Layer height: 0.2625
;MINX:4.858
;MINY:4.859
;MINZ:0.263
;MAXX:115.142
;MAXY:115.141
;MAXZ:27.878
;Generated with Cura_SteamEngine 4.4.0
M140 S65
M105
M190 S65
M104 S205
M105
M109 S205
M82 ;absolute extrusion mode
G21;(metric values)
G90;(absolute positioning)
M82;(set extruder to absolute mode)
M107;(start with the fan off)
G28;(Home the printer)
G92 E0;(Reset the extruder to 0)
G0 Z5 E5 F500;(Move up and prime the nozzle)
G0 X-1 Z0;(Move outside the printable area)
G1 Y60 E8 F500;(Draw a priming/wiping line to the rear)
G1 X-1;(Move a little closer to the print area)
G1 Y10 E16 F500;(draw more priming/wiping)
G1 E15 F250;(Small retract)
G92 E0;(Zero the extruder)
G92 E0
G92 E0
G1 F2400 E-2.5
;LAYER_COUNT:106
;LAYER:0
M107
;MESH:pt-2u-ac-socket.stl
G0 F4320 X43.844 Y43.45 Z0.263
;TYPE:WALL-INNER
G1 F2400 E0
G1 F3600 X114.086 Y113.693 E3.80166
G1 X114.105 Y113.74 E3.8036
G1 X114.101 Y113.76 E3.80438
G1 X113.891 Y113.983 E3.8161
G1 X113.808 Y114.071 E3.82073
G1 X113.738 Y114.111 E3.82381
G1 X113.698 Y114.093 E3.82549
G1 X113.612 Y114.007 E3.83015
G1 X76.156 Y76.55 E5.85736
G1 X5.914 Y6.307 E9.65902
G1 X5.895 Y6.259 E9.66099
G1 X5.899 Y6.239 E9.66177
G1 X6.128 Y5.999 E9.67447
G1 X6.222 Y5.901 E9.67967
G1 X6.265 Y5.894 E9.68133
G1 X6.306 Y5.911 E9.68303
G1 X6.402 Y6.007 E9.68823
G1 X43.354 Y42.96 E11.68817
G0 F3240 X43.844 Y43.45
G0 F4320 X44.074 Y43.22
;TYPE:WALL-OUTER
G1 F3600 X114.363 Y113.51 E15.49237
G1 X114.443 Y113.713 E15.50072
G1 X114.402 Y113.915 E15.5086
G1 X114.012 Y114.33 E15.5304
G1 X113.831 Y114.431 E15.53833
G1 X113.676 Y114.44 E15.54427
G1 X113.511 Y114.366 E15.55119
G1 X75.926 Y76.78 E17.58539
G1 X5.637 Y6.49 E21.38959
G1 X5.557 Y6.287 E21.39794
G1 X5.598 Y6.085 E21.40583
G1 X5.995 Y5.662 E21.42803
G1 X6.098 Y5.591 E21.43282
G1 X6.305 Y5.559 E21.44083
G1 X6.491 Y5.636 E21.44854
G1 X43.584 Y42.73 E23.45611
G0 F3240 X44.074 Y43.22
G0 F4320 X44.215 Y43.361
G0 X44.02 Y43.555
G0 X6.185 Y6.185
M104 S200
;TYPE:SKIN
G1 F3600 X113.813 Y113.813 E26.36862
G0 F4320 X113.794 Y113.795
;MESH:NONMESH
G0 F600 X113.794 Y113.795 Z0.526
G0 F4320 X113.99 Y113.895
;TIME_ELAPSED:40.783927
;LAYER:1
M140 S60
M106 S255
;TYPE:WALL-INNER
;MESH:pt-2u-ac-socket.stl
G1 F4800 X113.8 Y114.083 E26.37885
G1 X113.759 Y114.11 E26.38073
G1 X113.72 Y114.107 E26.38223
G1 X113.677 Y114.08 E26.38417
G1 X58.851 Y59.253 E29.35148
G1 X5.991 Y6.394 E32.21234
G1 X5.923 Y6.326 E32.21602
G1 X5.893 Y6.274 E32.21832
G1 X5.89 Y6.247 E32.21936
G1 X5.943 Y6.171 E32.2229
G1 X6.011 Y6.103 E32.22658
G1 X6.2 Y5.916 E32.23676
G1 X6.244 Y5.889 E32.23873
G1 X6.29 Y5.892 E32.2405
G1 X61.149 Y60.747 E35.20946
G1 X113.779 Y113.376 E38.05787
G0 F4320 X114.008 Y113.605
G0 X114.077 Y113.674
G0 X114.107 Y113.726
G0 X114.11 Y113.753
G0 X114.059 Y113.827
G0 X113.99 Y113.895
G0 F5760 X61.396 Y60.5
G1 F4800 X114.356 Y113.459 E40.92413
G1 X114.447 Y113.613 E40.93098
G1 X114.467 Y113.79 E40.9378
G1 X114.437 Y113.898 E40.94209
G1 X114.329 Y114.052 E40.94928
G1 X114.02 Y114.358 E40.96593
G1 X113.907 Y114.433 E40.97112
G1 X113.772 Y114.469 E40.97646
G1 X113.598 Y114.442 E40.9832
G1 X113.462 Y114.359 E40.9893
G1 X58.604 Y59.5 E43.95835
G1 X5.644 Y6.541 E46.82461
G1 X5.553 Y6.387 E46.83146
G1 X5.533 Y6.21 E46.83828
G1 X5.563 Y6.102 E46.84256
G1 X5.671 Y5.948 E46.84976
G1 X5.98 Y5.642 E46.86641
G1 X6.136 Y5.544 E46.87346
G1 X6.324 Y5.534 E46.88066
G1 X6.45 Y5.577 E46.88576
G1 X6.529 Y5.632 E46.88944
G1 X60.906 Y60.01 E49.83245
G0 F4320 X61.396 Y60.5
G0 F5760 X61.626 Y60.27
;TYPE:WALL-OUTER
G1 F4050 X114.615 Y113.258 E52.70029
G1 X114.762 Y113.508 E52.71139
G1 X114.797 Y113.816 E52.72325
G1 X114.735 Y114.038 E52.73207
G1 X114.576 Y114.265 E52.74268
G1 X114.226 Y114.612 E52.76154
G1 X114.044 Y114.733 E52.7699
G1 X113.788 Y114.8 E52.78003
G1 X113.485 Y114.753 E52.79177
G1 X113.257 Y114.614 E52.80198
G1 X58.374 Y59.73 E55.77238
G1 X5.385 Y6.742 E58.64022
G1 X5.238 Y6.492 E58.65132
G1 X5.203 Y6.184 E58.66318
G1 X5.265 Y5.962 E58.672
G1 X5.424 Y5.735 E58.68261
G1 X5.774 Y5.388 E58.70147
G1 X5.965 Y5.261 E58.71025
G1 X6.068 Y5.223 E58.71445
G1 X6.37 Y5.206 E58.72603
G1 X6.599 Y5.285 E58.7353
G1 X6.74 Y5.383 E58.74187
G1 X61.136 Y59.78 E61.68591
G0 F3645 X61.626 Y60.27
G0 F5760 X61.767 Y60.411
G0 X61.573 Y60.604
G0 X113.737 Y113.456
G0 X113.686 Y113.506
;TYPE:SKIN
G1 F3000 X113.506 Y113.686 E61.69565
G0 F5760 X113.259 Y113.439
G1 F3000 X113.439 Y113.259 E61.70539
G0 F5760 X113.191 Y113.011
G1 F3000 X113.011 Y113.191 E61.71513
G0 F5760 X112.764 Y112.944
G1 F3000 X112.944 Y112.764 E61.72488
G0 F5760 X112.696 Y112.516
G1 F3000 X112.516 Y112.696 E61.73462
G0 F5760 X112.269 Y112.449
G1 F3000 X112.449 Y112.269 E61.74436
G0 F5760 X112.201 Y112.021
G1 F3000 X112.021 Y112.201 E61.7541
G0 F5760 X111.774 Y111.954
G1 F3000 X111.954 Y111.774 E61.76384
G0 F5760 X111.706 Y111.527
G1 F3000 X111.527 Y111.706 E61.77353
G0 F5760 X111.279 Y111.459
G1 F3000 X111.459 Y111.279 E61.78327
G0 F5760 X111.211 Y111.032
G1 F3000 X111.032 Y111.211 E61.79296
G0 F5760 X110.784 Y110.964
G1 F3000 X110.964 Y110.784 E61.8027
G0 F5760 X110.716 Y110.537
G1 F3000 X110.537 Y110.716 E61.81239
G0 F5760 X110.289 Y110.469
G1 F3000 X110.469 Y110.289 E61.82213
G0 F5760 X110.221 Y110.042
G1 F3000 X110.042 Y110.221 E61.83182
G0 F5760 X109.794 Y109.974
G1 F3000 X109.974 Y109.794 E61.84156
G0 F5760 X109.726 Y109.547
G1 F3000 X109.547 Y109.726 E61.85125
G0 F5760 X109.299 Y109.479
G1 F3000 X109.479 Y109.299 E61.86099
G0 F5760 X109.231 Y109.052
G1 F3000 X109.052 Y109.231 E61.87068
G0 F5760 X108.804 Y108.984
G1 F3000 X108.984 Y108.804 E61.88042
G0 F5760 X108.736 Y108.557
G1 F3000 X108.557 Y108.736 E61.89011
G0 F5760 X108.309 Y108.489
G1 F3000 X108.489 Y108.309 E61.89985
G0 F5760 X108.241 Y108.062
G1 F3000 X108.062 Y108.241 E61.90954
G0 F5760 X107.814 Y107.994
G1 F3000 X107.994 Y107.814 E61.91928
G0 F5760 X107.746 Y107.567
G1 F3000 X107.567 Y107.746 E61.92897
G0 F5760 X107.319 Y107.499
G1 F3000 X107.499 Y107.319 E61.93871
G0 F5760 X107.251 Y107.072
G1 F3000 X107.072 Y107.251 E61.9484
G0 F5760 X106.824 Y107.004
G1 F3000 X107.004 Y106.824 E61.95814
G0 F5760 X106.756 Y106.577
G1 F3000 X106.577 Y106.756 E61.96783
G0 F5760 X106.329 Y106.509
G1 F3000 X106.509 Y106.329 E61.97757
G0 F5760 X106.261 Y106.082
G1 F3000 X106.082 Y106.261 E61.98726
G0 F5760 X105.834 Y106.014
G1 F3000 X106.014 Y105.834 E61.997
G0 F5760 X105.766 Y105.587
G1 F3000 X105.587 Y105.766 E62.00669
G0 F5760 X105.339 Y105.519
G1 F3000 X105.519 Y105.339 E62.01643
G0 F5760 X105.271 Y105.092
G1 F3000 X105.092 Y105.271 E62.02612
G0 F5760 X104.844 Y105.024
G1 F3000 X105.024 Y104.844 E62.03586
G0 F5760 X104.776 Y104.597
G1 F3000 X104.597 Y104.776 E62.04555
G0 F5760 X104.349 Y104.529
G1 F3000 X104.529 Y104.349 E62.05529
G0 F5760 X104.281 Y104.102
G1 F3000 X104.102 Y104.281 E62.06498
G0 F5760 X103.854 Y104.034
G1 F3000 X104.034 Y103.854 E62.07472
G0 F5760 X103.787 Y103.607
G1 F3000 X103.607 Y103.787 E62.08446
G0 F5760 X103.359 Y103.539
G1 F3000 X103.539 Y103.359 E62.0942
G0 F5760 X103.292 Y103.112
G1 F3000 X103.112 Y103.292 E62.10395
G0 F5760 X102.864 Y103.044
G1 F3000 X103.044 Y102.864 E62.11369
G0 F5760 X102.797 Y102.617
G1 F3000 X102.617 Y102.797 E62.12343
G0 F5760 X102.369 Y102.549
G1 F3000 X102.549 Y102.369 E62.13317
G0 F5760 X102.302 Y102.122
G1 F3000 X102.122 Y102.302 E62.14291
G0 F5760 X101.874 Y102.054
G1 F3000 X102.054 Y101.874 E62.15266
G0 F5760 X101.807 Y101.627
G1 F3000 X101.627 Y101.807 E62.1624
G0 F5760 X101.38 Y101.559
G1 F3000 X101.559 Y101.38 E62.17208
G0 F5760 X101.312 Y101.132
G1 F3000 X101.132 Y101.312 E62.18183
G0 F5760 X100.885 Y101.064
G1 F3000 X101.064 Y100.885 E62.19151
G0 F5760 X100.817 Y100.637
G1 F3000 X100.637 Y100.817 E62.20126
G0 F5760 X100.39 Y100.569
G1 F3000 X100.569 Y100.39 E62.21094
G0 F5760 X100.322 Y100.142
G1 F3000 X100.142 Y100.322 E62.22069
G0 F5760 X99.895 Y100.074
G1 F3000 X100.074 Y99.895 E62.23037
G0 F5760 X99.827 Y99.647
G1 F3000 X99.647 Y99.827 E62.24012
G0 F5760 X99.4 Y99.579
G1 F3000 X99.579 Y99.4 E62.2498
G0 F5760 X99.332 Y99.152
G1 F3000 X99.152 Y99.332 E62.25955
G0 F5760 X98.905 Y99.084
G1 F3000 X99.084 Y98.905 E62.26923
G0 F5760 X98.837 Y98.657
G1 F3000 X98.657 Y98.837 E62.27898
G0 F5760 X98.41 Y98.589
G1 F3000 X98.589 Y98.41 E62.28866
G0 F5760 X98.342 Y98.162
G1 F3000 X98.162 Y98.342 E62.29841
G0 F5760 X97.915 Y98.094
G1 F3000 X98.094 Y97.915 E62.30809
G0 F5760 X97.847 Y97.667
G1 F3000 X97.667 Y97.847 E62.31784
G0 F5760 X97.42 Y97.599
G1 F3000 X97.599 Y97.42 E62.32752
G0 F5760 X97.352 Y97.172
G1 F3000 X97.172 Y97.352 E62.33726
G0 F5760 X96.925 Y97.104
G1 F3000 X97.104 Y96.925 E62.34695
G0 F5760 X96.857 Y96.677
G1 F3000 X96.677 Y96.857 E62.35669
G0 F5760 X96.43 Y96.609
G1 F3000 X96.609 Y96.43 E62.36638
G0 F5760 X96.362 Y96.182
G1 F3000 X96.182 Y96.362 E62.37612
G0 F5760 X95.935 Y96.114
G1 F3000 X96.114 Y95.935 E62.38581
G0 F5760 X95.867 Y95.687
G1 F3000 X95.687 Y95.867 E62.39555
G0 F5760 X95.44 Y95.619
G1 F3000 X95.619 Y95.44 E62.40524
G0 F5760 X95.372 Y95.192
G1 F3000 X95.192 Y95.372 E62.41498
G0 F5760 X94.945 Y95.124
G1 F3000 X95.124 Y94.945 E62.42467
G0 F5760 X94.877 Y94.697
G1 F3000 X94.697 Y94.877 E62.43441
G0 F5760 X94.45 Y94.629
G1 F3000 X94.629 Y94.45 E62.4441
G0 F5760 X94.382 Y94.202
G1 F3000 X94.202 Y94.382 E62.45384
G0 F5760 X93.955 Y94.135
G1 F3000 X94.135 Y93.955 E62.46359
G0 F5760 X93.887 Y93.707
G1 F3000 X93.707 Y93.887 E62.47333
G0 F5760 X93.46 Y93.64
G1 F3000 X93.64 Y93.46 E62.48307
G0 F5760 X93.392 Y93.212
G1 F3000 X93.212 Y93.392 E62.49281
G0 F5760 X92.965 Y93.145
G1 F3000 X93.145 Y92.965 E62.50255
G0 F5760 X92.897 Y92.717
G1 F3000 X92.717 Y92.897 E62.5123
G0 F5760 X92.47 Y92.65
G1 F3000 X92.65 Y92.47 E62.52204
G0 F5760 X92.402 Y92.222
G1 F3000 X92.222 Y92.402 E62.53178
G0 F5760 X91.975 Y92.155
G1 F3000 X92.155 Y91.975 E62.54152
G0 F5760 X91.907 Y91.728
G1 F3000 X91.728 Y91.907 E62.55121
G0 F5760 X91.48 Y91.66
G1 F3000 X91.66 Y91.48 E62.56095
G0 F5760 X91.412 Y91.233
G1 F3000 X91.233 Y91.412 E62.57064
G0 F5760 X90.985 Y91.165
G1 F3000 X91.165 Y90.985 E62.58038
G0 F5760 X90.917 Y90.738
G1 F3000 X90.738 Y90.917 E62.59007
G0 F5760 X90.49 Y90.67
G1 F3000 X90.67 Y90.49 E62.59981
G0 F5760 X90.422 Y90.243
G1 F3000 X90.243 Y90.422 E62.6095
G0 F5760 X89.995 Y90.175
G1 F3000 X90.175 Y89.995 E62.61924
G0 F5760 X89.927 Y89.748
G1 F3000 X89.748 Y89.927 E62.62893
G0 F5760 X89.5 Y89.68
G1 F3000 X89.68 Y89.5 E62.63867
G0 F5760 X89.432 Y89.253
G1 F3000 X89.253 Y89.432 E62.64836
G0 F5760 X89.005 Y89.185
G1 F3000 X89.185 Y89.005 E62.6581
G0 F5760 X88.937 Y88.758
G1 F3000 X88.758 Y88.937 E62.66779
G0 F5760 X88.51 Y88.69
G1 F3000 X88.69 Y88.51 E62.67753
G0 F5760 X88.442 Y88.263
G1 F3000 X88.263 Y88.442 E62.68722
G0 F5760 X88.015 Y88.195
G1 F3000 X88.195 Y88.015 E62.69696
G0 F5760 X87.947 Y87.768
G1 F3000 X87.768 Y87.947 E62.70665
G0 F5760 X87.52 Y87.7
G1 F3000 X87.7 Y87.52 E62.71639
G0 F5760 X87.452 Y87.273
G1 F3000 X87.273 Y87.452 E62.72608
G0 F5760 X87.025 Y87.205
G1 F3000 X87.205 Y87.025 E62.73582
G0 F5760 X86.957 Y86.778
G1 F3000 X86.778 Y86.957 E62.74551
G0 F5760 X86.53 Y86.71
G1 F3000 X86.71 Y86.53 E62.75525
G0 F5760 X86.462 Y86.283
G1 F3000 X86.283 Y86.462 E62.76494
G0 F5760 X86.035 Y86.215
G1 F3000 X86.215 Y86.035 E62.77468
G0 F5760 X85.967 Y85.788
G1 F3000 X85.788 Y85.967 E62.78437
G0 F5760 X85.54 Y85.72
G1 F3000 X85.72 Y85.54 E62.79411
G0 F5760 X85.472 Y85.293
G1 F3000 X85.293 Y85.472 E62.8038
G0 F5760 X85.045 Y85.225
G1 F3000 X85.225 Y85.045 E62.81354
G0 F5760 X84.977 Y84.798
G1 F3000 X84.798 Y84.977 E62.82323
G0 F5760 X84.55 Y84.73
G1 F3000 X84.73 Y84.55 E62.83297
G0 F5760 X84.482 Y84.303
G1 F3000 X84.303 Y84.482 E62.84265
G0 F5760 X84.055 Y84.235
G1 F3000 X84.235 Y84.055 E62.8524
G0 F5760 X83.988 Y83.808
G1 F3000 X83.808 Y83.988 E62.86214
G0 F5760 X83.56 Y83.74
G1 F3000 X83.74 Y83.56 E62.87188
G0 F5760 X83.493 Y83.313
G1 F3000 X83.313 Y83.493 E62.88162
G0 F5760 X83.065 Y83.245
G1 F3000 X83.245 Y83.065 E62.89136
G0 F5760 X82.998 Y82.818
G1 F3000 X82.818 Y82.998 E62.90111
G0 F5760 X82.57 Y82.75
G1 F3000 X82.75 Y82.57 E62.91085
G0 F5760 X82.503 Y82.323
G1 F3000 X82.323 Y82.503 E62.92059
G0 F5760 X82.076 Y82.255
G1 F3000 X82.255 Y82.076 E62.93028
G0 F5760 X82.008 Y81.828
G1 F3000 X81.828 Y82.008 E62.94002
G0 F5760 X81.581 Y81.76
G1 F3000 X81.76 Y81.581 E62.94971
G0 F5760 X81.513 Y81.333
G1 F3000 X81.333 Y81.513 E62.95945
G0 F5760 X81.086 Y81.265
G1 F3000 X81.265 Y81.086 E62.96914
G0 F5760 X81.018 Y80.838
G1 F3000 X80.838 Y81.018 E62.97888
G0 F5760 X80.591 Y80.77
G1 F3000 X80.77 Y80.591 E62.98857
G0 F5760 X80.523 Y80.343
G1 F3000 X80.343 Y80.523 E62.99831
G0 F5760 X80.096 Y80.275
G1 F3000 X80.275 Y80.096 E63.008
G0 F5760 X80.028 Y79.848
G1 F3000 X79.848 Y80.028 E63.01774
G0 F5760 X79.601 Y79.78
G1 F3000 X79.78 Y79.601 E63.02743
G0 F5760 X79.533 Y79.353
G1 F3000 X79.353 Y79.533 E63.03717
G0 F5760 X79.106 Y79.285
G1 F3000 X79.285 Y79.106 E63.04686
G0 F5760 X79.038 Y78.858
G1 F3000 X78.858 Y79.038 E63.0566
G0 F5760 X78.611 Y78.79
G1 F3000 X78.79 Y78.611 E63.06629
G0 F5760 X78.543 Y78.363
G1 F3000 X78.363 Y78.543 E63.07603
G0 F5760 X78.116 Y78.295
G1 F3000 X78.295 Y78.116 E63.08572
G0 F5760 X78.048 Y77.868
G1 F3000 X77.868 Y78.048 E63.09546
G0 F5760 X77.621 Y77.8
G1 F3000 X77.8 Y77.621 E63.10515
G0 F5760 X77.553 Y77.373
G1 F3000 X77.373 Y77.553 E63.11489
G0 F5760 X77.126 Y77.305
G1 F3000 X77.305 Y77.126 E63.12458
G0 F5760 X77.058 Y76.878
G1 F3000 X76.878 Y77.058 E63.13432
G0 F5760 X76.631 Y76.81
G1 F3000 X76.81 Y76.631 E63.14401
G0 F5760 X76.563 Y76.383
G1 F3000 X76.383 Y76.563 E63.15375
G0 F5760 X76.136 Y76.315
G1 F3000 X76.315 Y76.136 E63.16344
G0 F5760 X76.068 Y75.888
G1 F3000 X75.888 Y76.068 E63.17318
G0 F5760 X75.641 Y75.82
G1 F3000 X75.82 Y75.641 E63.18287
G0 F5760 X75.573 Y75.393
G1 F3000 X75.393 Y75.573 E63.19261
G0 F5760 X75.146 Y75.325
G1 F3000 X75.325 Y75.146 E63.20229
G0 F5760 X75.078 Y74.898
G1 F3000 X74.898 Y75.078 E63.21204
G0 F5760 X74.651 Y74.83
G1 F3000 X74.83 Y74.651 E63.22172
G0 F5760 X74.583 Y74.403
G1 F3000 X74.403 Y74.583 E63.23147
G0 F5760 X74.156 Y74.336
G1 F3000 X74.336 Y74.156 E63.24121
G0 F5760 X74.088 Y73.908
G1 F3000 X73.908 Y74.088 E63.25095
G0 F5760 X73.661 Y73.841
G1 F3000 X73.841 Y73.661 E63.26069
G0 F5760 X73.593 Y73.413
G1 F3000 X73.413 Y73.593 E63.27043
G0 F5760 X73.166 Y73.346
G1 F3000 X73.346 Y73.166 E63.28018
G0 F5760 X73.098 Y72.918
G1 F3000 X72.918 Y73.098 E63.28992
G0 F5760 X72.671 Y72.851
G1 F3000 X72.851 Y72.671 E63.29966
G0 F5760 X72.603 Y72.423
G1 F3000 X72.423 Y72.603 E63.3094
G0 F5760 X72.176 Y72.356
G1 F3000 X72.356 Y72.176 E63.31914
G0 F5760 X72.108 Y71.929
G1 F3000 X71.929 Y72.108 E63.32883
G0 F5760 X71.681 Y71.861
G1 F3000 X71.861 Y71.681 E63.33857
G0 F5760 X71.613 Y71.434
G1 F3000 X71.434 Y71.613 E63.34826
G0 F5760 X71.186 Y71.366
G1 F3000 X71.366 Y71.186 E63.358
G0 F5760 X71.118 Y70.939
G1 F3000 X70.939 Y71.118 E63.36769
G0 F5760 X70.691 Y70.871
G1 F3000 X70.871 Y70.691 E63.37743
G0 F5760 X70.623 Y70.444
G1 F3000 X70.444 Y70.623 E63.38712
G0 F5760 X70.196 Y70.376
G1 F3000 X70.376 Y70.196 E63.39686
G0 F5760 X70.128 Y69.949
G1 F3000 X69.949 Y70.128 E63.40655
G0 F5760 X69.701 Y69.881
G1 F3000 X69.881 Y69.701 E63.41629
G0 F5760 X69.633 Y69.454
G1 F3000 X69.454 Y69.633 E63.42598
G0 F5760 X69.206 Y69.386
G1 F3000 X69.386 Y69.206 E63.43572
G0 F5760 X69.138 Y68.959
G1 F3000 X68.959 Y69.138 E63.44541
G0 F5760 X68.711 Y68.891
G1 F3000 X68.891 Y68.711 E63.45515
G0 F5760 X68.643 Y68.464
G1 F3000 X68.464 Y68.643 E63.46484
G0 F5760 X68.216 Y68.396
G1 F3000 X68.396 Y68.216 E63.47458
G0 F5760 X68.148 Y67.969
G1 F3000 X67.969 Y68.148 E63.48427
G0 F5760 X67.721 Y67.901
G1 F3000 X67.901 Y67.721 E63.49401
G0 F5760 X67.653 Y67.474
G1 F3000 X67.474 Y67.653 E63.5037
G0 F5760 X67.226 Y67.406
G1 F3000 X67.406 Y67.226 E63.51344
G0 F5760 X67.158 Y66.979
G1 F3000 X66.979 Y67.158 E63.52313
G0 F5760 X66.731 Y66.911
G1 F3000 X66.911 Y66.731 E63.53287
G0 F5760 X66.663 Y66.484
G1 F3000 X66.484 Y66.663 E63.54256
G0 F5760 X66.236 Y66.416
G1 F3000 X66.416 Y66.236 E63.5523
G0 F5760 X66.168 Y65.989
G1 F3000 X65.989 Y66.168 E63.56199
