;FLAVOR:Marlin
;TIME:613
;Filament used: 0.245936m
;Layer height: 0.13125
;MINX:55.2
;MINY:55.2
;MINZ:0.263
;MAXX:64.8
;MAXY:64.8
;MAXZ:9.957
;Generated with Cura_SteamEngine mb-master-20191108
M140 S65
M105
M190 S65
M104 S205
M105
M109 S205
M82 ;absolute extrusion mode
G21;(metric values)
G90;(absolute positioning)
M82;(set extruder to absolute mode)
M107;(start with the fan off)
G28;(Home the printer)
G92 E0;(Reset the extruder to 0)
G0 Z5 E5 F500;(Move up and prime the nozzle)
G0 X-1 Z0;(Move outside the printable area)
G1 Y60 E8 F500;(Draw a priming/wiping line to the rear)
G1 X-1;(Move a little closer to the print area)
G1 Y10 E16 F500;(draw more priming/wiping)
G1 E15 F250;(Small retract)
G92 E0;(Zero the extruder)
G92 E0
G92 E0
G1 F2400 E-2.5
;LAYER_COUNT:75
;LAYER:0
M107
;MESH:xyzCalibration_cube.stl
G0 F4320 X64.125 Y64.125 Z0.263
;TYPE:WALL-INNER
G1 F2400 E0
G1 F1800 X55.875 Y64.125 E0.31573
G1 X55.875 Y55.875 E0.63145
G1 X64.125 Y55.875 E0.94718
G1 X64.125 Y63.431 E1.23635
G0 F1620 X64.125 Y64.125
G0 F4320 X64.475 Y64.475
G1 F1800 X55.525 Y64.475 E1.57886
G1 X55.525 Y55.525 E1.92138
G1 X64.475 Y55.525 E2.2639
G1 X64.475 Y63.781 E2.57985
G0 F1620 X64.475 Y64.475
G0 F4320 X64.8 Y64.8
;TYPE:WALL-OUTER
G1 F1800 X55.2 Y64.8 E2.94724
G1 X55.2 Y55.2 E3.31464
G1 X64.8 Y55.2 E3.68203
G1 X64.8 Y64.106 E4.02286
G0 F1620 X64.8 Y64.8
G0 F4320 X64.6 Y64.8
G0 X64.6 Y64.525
G0 X64.04 Y63.785
G0 X63.785 Y63.785
;TYPE:SKIN
G1 F1800 X56.215 Y63.785 E4.31256
G1 X56.215 Y56.215 E4.60227
G1 X63.785 Y56.215 E4.89197
G1 X63.785 Y63.091 E5.15511
G0 F1620 X63.785 Y63.785
G0 F4320 X64.04 Y63.785
G0 X64.04 Y56.697
G0 X63.627 Y56.697
G1 F1800 X63.301 Y56.371 E5.17276
G0 F4320 X62.806 Y56.371
G1 F1800 X63.627 Y57.192 E5.21719
G0 F4320 X63.627 Y57.687
G1 F1800 X62.311 Y56.371 E5.28842
G0 F4320 X61.816 Y56.371
G1 F1800 X63.627 Y58.182 E5.38643
G0 F4320 X63.627 Y58.677
G1 F1800 X61.321 Y56.371 E5.51124
G0 F4320 X60.826 Y56.371
G1 F1800 X63.627 Y59.172 E5.66283
G0 F4320 X63.627 Y59.667
G1 F1800 X60.331 Y56.371 E5.84122
G0 F4320 X59.836 Y56.371
G1 F1800 X63.627 Y60.162 E6.04639
G0 F4320 X63.627 Y60.657
G1 F1800 X59.341 Y56.371 E6.27836
G0 F4320 X58.846 Y56.371
G1 F1800 X63.627 Y61.152 E6.53712
G0 F4320 X63.627 Y61.647
G1 F1800 X58.351 Y56.371 E6.82266
G0 F4320 X57.856 Y56.371
G1 F1800 X63.627 Y62.142 E7.135
G0 F4320 X63.627 Y62.637
G1 F1800 X57.361 Y56.371 E7.47413
G0 F4320 X56.866 Y56.371
G1 F1800 X63.627 Y63.132 E7.84005
G0 F4320 X63.627 Y63.627
G1 F1800 X56.371 Y56.371 E8.23275
G0 F4320 X56.371 Y56.866
G1 F1800 X63.131 Y63.626 E8.59862
G0 F4320 X62.636 Y63.626
G1 F1800 X56.371 Y57.361 E8.93769
G0 F4320 X56.371 Y57.856
G1 F1800 X62.141 Y63.626 E9.24998
G0 F4320 X61.646 Y63.626
G1 F1800 X56.371 Y58.351 E9.53547
G0 F4320 X56.371 Y58.846
G1 F1800 X61.152 Y63.626 E9.7942
G0 F4320 X60.657 Y63.626
M104 S200
G1 F1800 X56.371 Y59.341 E10.02614
G0 F4320 X56.371 Y59.836
G1 F1800 X60.162 Y63.626 E10.23129
G0 F4320 X59.667 Y63.626
G1 F1800 X56.371 Y60.331 E10.40964
G0 F4320 X56.371 Y60.826
G1 F1800 X59.172 Y63.626 E10.56121
G0 F4320 X58.677 Y63.626
G1 F1800 X56.371 Y61.321 E10.68599
G0 F4320 X56.371 Y61.816
G1 F1800 X58.182 Y63.626 E10.78398
G0 F4320 X57.687 Y63.626
G1 F1800 X56.371 Y62.311 E10.85518
G0 F4320 X56.371 Y62.806
G1 F1800 X57.192 Y63.626 E10.89958
G0 F4320 X56.697 Y63.626
G1 F1800 X56.371 Y63.301 E10.9172
G0 F4320 X55.725 Y63.301
;MESH:NONMESH
G0 F600 X55.725 Y63.301 Z0.394
G0 F4320 X56.032 Y63.968
G0 X64.125 Y64.125
;TIME_ELAPSED:38.343768
;LAYER:1
M140 S60
M106 S255
;TYPE:WALL-INNER
;MESH:xyzCalibration_cube.stl
G1 F2400 X55.875 Y64.125 E11.07446
G1 X55.875 Y55.875 E11.23173
G1 X64.125 Y55.875 E11.38899
G1 X64.125 Y62.731 E11.51968
G0 F2160 X64.125 Y64.125
G0 F5760 X64.475 Y64.475
G1 F2400 X55.525 Y64.475 E11.69029
G1 X55.525 Y55.525 E11.86089
G1 X64.475 Y55.525 E12.0315
G1 X64.475 Y63.081 E12.17553
G0 F2160 X64.475 Y64.475
G0 F5760 X64.8 Y64.8
;TYPE:WALL-OUTER
G1 F2025 X55.2 Y64.8 E12.35853
G1 X55.2 Y55.2 E12.54153
G1 X64.8 Y55.2 E12.72453
G1 X64.8 Y63.406 E12.88095
G0 F1822.5 X64.8 Y64.8
G0 F5760 X64.6 Y64.8
G0 X64.6 Y64.525
G0 X64.04 Y63.785
G0 X63.785 Y63.785
;TYPE:SKIN
G1 F1500 X56.215 Y63.785 E13.02525
G1 X56.215 Y56.215 E13.16955
G1 X63.785 Y56.215 E13.31385
G1 X63.785 Y62.391 E13.43158
G0 F1350 X63.785 Y63.785
G0 F5760 X63.626 Y63.086
G1 F1500 X63.085 Y63.627 E13.44617
G0 F5760 X62.59 Y63.627
G1 F1500 X63.626 Y62.591 E13.47409
G0 F5760 X63.626 Y62.096
G1 F1500 X62.095 Y63.627 E13.51537
G0 F5760 X61.601 Y63.627
G1 F1500 X63.626 Y61.601 E13.56997
G0 F5760 X63.626 Y61.106
G1 F1500 X61.106 Y63.627 E13.63792
G0 F5760 X60.611 Y63.627
G1 F1500 X63.626 Y60.611 E13.71921
G0 F5760 X63.626 Y60.116
G1 F1500 X60.116 Y63.627 E13.81385
G0 F5760 X59.621 Y63.627
G1 F1500 X63.626 Y59.621 E13.92183
G0 F5760 X63.626 Y59.126
G1 F1500 X59.126 Y63.627 E14.04315
G0 F5760 X58.631 Y63.627
G1 F1500 X63.626 Y58.631 E14.17782
G0 F5760 X63.626 Y58.136
G1 F1500 X58.136 Y63.627 E14.32583
G0 F5760 X57.641 Y63.627
G1 F1500 X63.626 Y57.641 E14.48719
G0 F5760 X63.626 Y57.146
G1 F1500 X57.146 Y63.627 E14.66189
G0 F5760 X56.651 Y63.627
G1 F1500 X63.626 Y56.651 E14.84994
G0 F5760 X63.411 Y56.371
G1 F1500 X56.371 Y63.411 E15.03972
G0 F5760 X56.371 Y62.916
G1 F1500 X62.916 Y56.371 E15.21616
G0 F5760 X62.421 Y56.371
G1 F1500 X56.371 Y62.421 E15.37926
G0 F5760 X56.371 Y61.926
G1 F1500 X61.926 Y56.371 E15.52901
G0 F5760 X61.432 Y56.371
G1 F1500 X56.371 Y61.432 E15.66545
G0 F5760 X56.371 Y60.937
G1 F1500 X60.937 Y56.371 E15.78854
G0 F5760 X60.442 Y56.371
G1 F1500 X56.371 Y60.442 E15.89828
G0 F5760 X56.371 Y59.947
G1 F1500 X59.947 Y56.371 E15.99469
G0 F5760 X59.452 Y56.371
G1 F1500 X56.371 Y59.452 E16.07774
G0 F5760 X56.371 Y58.957
G1 F1500 X58.957 Y56.371 E16.14746
G0 F5760 X58.462 Y56.371
G1 F1500 X56.371 Y58.462 E16.20383
G0 F5760 X56.371 Y57.967
G1 F1500 X57.967 Y56.371 E16.24685
G0 F5760 X57.472 Y56.371
G1 F1500 X56.371 Y57.472 E16.27653
G0 F5760 X56.371 Y56.977
G1 F1500 X56.977 Y56.371 E16.29287
G0 F5760 X56.482 Y56.371
G1 F1500 X56.371 Y56.482 E16.29586
G0 F5760 X55.725 Y56.482
;MESH:NONMESH
G0 F600 X55.725 Y56.482 Z0.525
G0 F5760 X56.032 Y63.968
G0 X64.125 Y64.125
;TIME_ELAPSED:50.524151
;LAYER:2
;TYPE:WALL-INNER
;MESH:xyzCalibration_cube.stl
G1 F3000 X55.875 Y64.125 E16.45312
G1 X55.875 Y55.875 E16.61039
G1 X64.125 Y55.875 E16.76765
G1 X64.125 Y62.731 E16.89834
G0 F2700 X64.125 Y64.125
G0 F7200 X64.475 Y64.475
G1 F3000 X55.525 Y64.475 E17.06895
G1 X55.525 Y55.525 E17.23955
G1 X64.475 Y55.525 E17.41016
G1 X64.475 Y63.081 E17.5542
G0 F2700 X64.475 Y64.475
G0 F7200 X64.8 Y64.8
;TYPE:WALL-OUTER
G1 F2250 X55.2 Y64.8 E17.73719
G1 X55.2 Y55.2 E17.92019
G1 X64.8 Y55.2 E18.10319
G1 X64.8 Y63.406 E18.25961
G0 F2025 X64.8 Y64.8
G0 F7200 X64.6 Y64.8
G0 X64.6 Y64.525
G0 X64.04 Y63.785
G0 X63.785 Y63.785
;TYPE:SKIN
G1 F1200 X56.215 Y63.785 E18.40391
G1 X56.215 Y56.215 E18.54821
G1 X63.785 Y56.215 E18.69251
G1 X63.785 Y62.391 E18.81024
G0 F1080 X63.785 Y63.785
G0 F7200 X64.04 Y63.785
G0 X64.04 Y56.697
G0 X63.627 Y56.697
G1 F1200 X63.301 Y56.371 E18.81903
G0 F7200 X62.806 Y56.371
G1 F1200 X63.627 Y57.192 E18.84116
G0 F7200 X63.627 Y57.687
G1 F1200 X62.311 Y56.371 E18.87664
G0 F7200 X61.816 Y56.371
G1 F1200 X63.627 Y58.182 E18.92546
G0 F7200 X63.627 Y58.677
G1 F1200 X61.321 Y56.371 E18.98763
G0 F7200 X60.826 Y56.371
G1 F1200 X63.627 Y59.172 E19.06314
G0 F7200 X63.627 Y59.667
G1 F1200 X60.331 Y56.371 E19.15199
G0 F7200 X59.836 Y56.371
G1 F1200 X63.627 Y60.162 E19.25419
G0 F7200 X63.627 Y60.657
G1 F1200 X59.341 Y56.371 E19.36973
G0 F7200 X58.846 Y56.371
G1 F1200 X63.627 Y61.152 E19.49862
G0 F7200 X63.627 Y61.647
G1 F1200 X58.351 Y56.371 E19.64085
G0 F7200 X57.856 Y56.371
G1 F1200 X63.627 Y62.142 E19.79642
G0 F7200 X63.627 Y62.637
G1 F1200 X57.361 Y56.371 E19.96534
G0 F7200 X56.866 Y56.371
G1 F1200 X63.627 Y63.132 E20.1476
G0 F7200 X63.627 Y63.627
G1 F1200 X56.371 Y56.371 E20.34321
G0 F7200 X56.371 Y56.866
G1 F1200 X63.131 Y63.626 E20.52545
G0 F7200 X62.636 Y63.626
G1 F1200 X56.371 Y57.361 E20.69434
G0 F7200 X56.371 Y57.856
G1 F1200 X62.141 Y63.626 E20.84989
G0 F7200 X61.646 Y63.626
G1 F1200 X56.371 Y58.351 E20.99209
G0 F7200 X56.371 Y58.846
G1 F1200 X61.152 Y63.626 E21.12097
G0 F7200 X60.657 Y63.626
G1 F1200 X56.371 Y59.341 E21.23649
G0 F7200 X56.371 Y59.836
G1 F1200 X60.162 Y63.626 E21.33868
G0 F7200 X59.667 Y63.626
G1 F1200 X56.371 Y60.331 E21.42752
G0 F7200 X56.371 Y60.826
G1 F1200 X59.172 Y63.626 E21.50301
G0 F7200 X58.677 Y63.626
G1 F1200 X56.371 Y61.321 E21.56517
G0 F7200 X56.371 Y61.816
G1 F1200 X58.182 Y63.626 E21.61397
G0 F7200 X57.687 Y63.626
G1 F1200 X56.371 Y62.311 E21.64944
G0 F7200 X56.371 Y62.806
G1 F1200 X57.192 Y63.626 E21.67156
G0 F7200 X56.697 Y63.626
G1 F1200 X56.371 Y63.301 E21.68033
G0 F7200 X55.725 Y63.301
;MESH:NONMESH
G0 F600 X55.725 Y63.301 Z0.656
G0 F7200 X56.032 Y63.968
G0 X64.125 Y64.125
;TIME_ELAPSED:64.197145
;LAYER:3
;TYPE:WALL-INNER
;MESH:xyzCalibration_cube.stl
G1 F3000 X55.875 Y64.125 E21.83759
G1 X55.875 Y55.875 E21.99486
G1 X64.125 Y55.875 E22.15212
G1 X64.125 Y62.731 E22.28281
G0 F2700 X64.125 Y64.125
G0 F7200 X64.475 Y64.475
G1 F3000 X55.525 Y64.475 E22.45342
G1 X55.525 Y55.525 E22.62403
G1 X64.475 Y55.525 E22.79463
G1 X64.475 Y63.081 E22.93867
G0 F2700 X64.475 Y64.475
G0 F7200 X64.8 Y64.8
;TYPE:WALL-OUTER
G1 F2250 X55.2 Y64.8 E23.12166
G1 X55.2 Y55.2 E23.30466
G1 X64.8 Y55.2 E23.48766
G1 X64.8 Y63.406 E23.64408
G0 F2025 X64.8 Y64.8
G0 F7200 X64.6 Y64.8
G0 X64.6 Y64.525
G0 X64.04 Y63.785
G0 X63.785 Y63.785
;TYPE:SKIN
G1 F1200 X56.215 Y63.785 E23.78838
G1 X56.215 Y56.215 E23.93268
G1 X63.785 Y56.215 E24.07699
G1 X63.785 Y62.391 E24.19471
G0 F1080 X63.785 Y63.785
G0 F7200 X63.626 Y63.086
G1 F1200 X63.085 Y63.627 E24.2093
G0 F7200 X62.59 Y63.627
G1 F1200 X63.626 Y62.591 E24.23723
G0 F7200 X63.626 Y62.096
G1 F1200 X62.095 Y63.627 E24.2785
G0 F7200 X61.601 Y63.627
G1 F1200 X63.626 Y61.601 E24.3331
G0 F7200 X63.626 Y61.106
G1 F1200 X61.106 Y63.627 E24.40105
G0 F7200 X60.611 Y63.627
G1 F1200 X63.626 Y60.611 E24.48234
G0 F7200 X63.626 Y60.116
G1 F1200 X60.116 Y63.627 E24.57698
G0 F7200 X59.621 Y63.627
G1 F1200 X63.626 Y59.621 E24.68496
G0 F7200 X63.626 Y59.126
G1 F1200 X59.126 Y63.627 E24.80628
G0 F7200 X58.631 Y63.627
G1 F1200 X63.626 Y58.631 E24.94095
G0 F7200 X63.626 Y58.136
G1 F1200 X58.136 Y63.627 E25.08897
G0 F7200 X57.641 Y63.627
G1 F1200 X63.626 Y57.641 E25.25032
G0 F7200 X63.626 Y57.146
G1 F1200 X57.146 Y63.627 E25.42502
G0 F7200 X56.651 Y63.627
G1 F1200 X63.626 Y56.651 E25.61307
G0 F7200 X63.411 Y56.371
G1 F1200 X56.371 Y63.411 E25.80286
G0 F7200 X56.371 Y62.916
G1 F1200 X62.916 Y56.371 E25.9793
G0 F7200 X62.421 Y56.371
G1 F1200 X56.371 Y62.421 E26.14239
G0 F7200 X56.371 Y61.926
G1 F1200 X61.926 Y56.371 E26.29214
G0 F7200 X61.432 Y56.371
G1 F1200 X56.371 Y61.432 E26.42858
G0 F7200 X56.371 Y60.937
G1 F1200 X60.937 Y56.371 E26.55167
G0 F7200 X60.442 Y56.371
G1 F1200 X56.371 Y60.442 E26.66141
G0 F7200 X56.371 Y59.947
G1 F1200 X59.947 Y56.371 E26.75782
G0 F7200 X59.452 Y56.371
G1 F1200 X56.371 Y59.452 E26.84087
G0 F7200 X56.371 Y58.957
G1 F1200 X58.957 Y56.371 E26.91059
G0 F7200 X58.462 Y56.371
G1 F1200 X56.371 Y58.462 E26.96696
G0 F7200 X56.371 Y57.967
G1 F1200 X57.967 Y56.371 E27.00998
G0 F7200 X57.472 Y56.371
G1 F1200 X56.371 Y57.472 E27.03966
G0 F7200 X56.371 Y56.977
G1 F1200 X56.977 Y56.371 E27.056
G0 F7200 X56.482 Y56.371
G1 F1200 X56.371 Y56.482 E27.05899
G0 F7200 X55.725 Y56.482
;MESH:NONMESH
G0 F600 X55.725 Y56.482 Z0.787
G0 F7200 X56.032 Y63.968
G0 X64.125 Y64.125
;TIME_ELAPSED:77.827565
;LAYER:4
;TYPE:WALL-INNER
;MESH:xyzCalibration_cube.stl
G1 F3000 X55.875 Y64.125 E27.21626
G1 X55.875 Y55.875 E27.37352
G1 X64.125 Y55.875 E27.53078
G1 X64.125 Y62.731 E27.66147
G0 F2700 X64.125 Y64.125
G0 F7200 X64.475 Y64.475
G1 F3000 X55.525 Y64.475 E27.83208
G1 X55.525 Y55.525 E28.00269
G1 X64.475 Y55.525 E28.17329
G1 X64.475 Y63.081 E28.31733
G0 F2700 X64.475 Y64.475
G0 F7200 X64.8 Y64.8
;TYPE:WALL-OUTER
G1 F2250 X55.2 Y64.8 E28.50032
G1 X55.2 Y55.2 E28.68332
G1 X64.8 Y55.2 E28.86632
G1 X64.8 Y63.406 E29.02274
G0 F2025 X64.8 Y64.8
G0 F7200 X64.6 Y64.8
G0 X64.6 Y64.525
G0 X64.04 Y63.785
G0 X63.785 Y63.785
;TYPE:SKIN
G1 F1200 X56.215 Y63.785 E29.16704
G1 X56.215 Y56.215 E29.31135
G1 X63.785 Y56.215 E29.45565
G1 X63.785 Y62.391 E29.57337
G0 F1080 X63.785 Y63.785
G0 F7200 X64.04 Y63.785
G0 X64.04 Y56.697
G0 X63.627 Y56.697
G1 F1200 X63.301 Y56.371 E29.58216
G0 F7200 X62.806 Y56.371
G1 F1200 X63.627 Y57.192 E29.6043
G0 F7200 X63.627 Y57.687
G1 F1200 X62.311 Y56.371 E29.63977
G0 F7200 X61.816 Y56.371
G1 F1200 X63.627 Y58.182 E29.68859
G0 F7200 X63.627 Y58.677
G1 F1200 X61.321 Y56.371 E29.75076
G0 F7200 X60.826 Y56.371
G1 F1200 X63.627 Y59.172 E29.82627
G0 F7200 X63.627 Y59.667
G1 F1200 X60.331 Y56.371 E29.91512
G0 F7200 X59.836 Y56.371
G1 F1200 X63.627 Y60.162 E30.01732
G0 F7200 X63.627 Y60.657
G1 F1200 X59.341 Y56.371 E30.13286
G0 F7200 X58.846 Y56.371
G1 F1200 X63.627 Y61.152 E30.26175
G0 F7200 X63.627 Y61.647
G1 F1200 X58.351 Y56.371 E30.40398
G0 F7200 X57.856 Y56.371
G1 F1200 X63.627 Y62.142 E30.55955
G0 F7200 X63.627 Y62.637
G1 F1200 X57.361 Y56.371 E30.72847
G0 F7200 X56.866 Y56.371
G1 F1200 X63.627 Y63.132 E30.91074
G0 F7200 X63.627 Y63.627
G1 F1200 X56.371 Y56.371 E31.10634
G0 F7200 X56.371 Y56.866
G1 F1200 X63.131 Y63.626 E31.28858
G0 F7200 X62.636 Y63.626
G1 F1200 X56.371 Y57.361 E31.45747
G0 F7200 X56.371 Y57.856
G1 F1200 X62.141 Y63.626 E31.61302
G0 F7200 X61.646 Y63.626
G1 F1200 X56.371 Y58.351 E31.75522
G0 F7200 X56.371 Y58.846
G1 F1200 X61.152 Y63.626 E31.8841
G0 F7200 X60.657 Y63.626
G1 F1200 X56.371 Y59.341 E31.99963
G0 F7200 X56.371 Y59.836
G1 F1200 X60.162 Y63.626 E32.10181
G0 F7200 X59.667 Y63.626
G1 F1200 X56.371 Y60.331 E32.19065
G0 F7200 X56.371 Y60.826
G1 F1200 X59.172 Y63.626 E32.26615
G0 F7200 X58.677 Y63.626
G1 F1200 X56.371 Y61.321 E32.3283
G0 F7200 X56.371 Y61.816
G1 F1200 X58.182 Y63.626 E32.37711
G0 F7200 X57.687 Y63.626
G1 F1200 X56.371 Y62.311 E32.41257
G0 F7200 X56.371 Y62.806
G1 F1200 X57.192 Y63.626 E32.43469
G0 F7200 X56.697 Y63.626
G1 F1200 X56.371 Y63.301 E32.44346
G0 F7200 X55.725 Y63.301
;MESH:NONMESH
G0 F600 X55.725 Y63.301 Z0.918
G0 F7200 X56.032 Y63.968
G0 X64.125 Y64.125
;TIME_ELAPSED:91.500560
;LAYER:5
;TYPE:WALL-INNER
;MESH:xyzCalibration_cube.stl
G1 F3000 X55.875 Y64.125 E32.60073
G1 X55.875 Y55.875 E32.75799
G1 X64.125 Y55.875 E32.91525
G1 X64.125 Y62.731 E33.04594
G0 F2700 X64.125 Y64.125
G0 F7200 X64.475 Y64.475
G1 F3000 X55.525 Y64.475 E33.21655
G1 X55.525 Y55.525 E33.38716
G1 X64.475 Y55.525 E33.55776
G1 X64.475 Y63.081 E33.7018
G0 F2700 X64.475 Y64.475
G0 F7200 X64.8 Y64.8
;TYPE:WALL-OUTER
G1 F2250 X55.2 Y64.8 E33.88479
G1 X55.2 Y55.2 E34.06779
G1 X64.8 Y55.2 E34.25079
G1 X64.8 Y63.406 E34.40721
G0 F2025 X64.8 Y64.8
G0 F7200 X64.6 Y64.8
G0 X64.6 Y64.525
G0 X64.04 Y63.785
G0 X63.785 Y63.785
;TYPE:SKIN
G1 F1200 X56.215 Y63.785 E34.55151
G1 X56.215 Y56.215 E34.69582
G1 X63.785 Y56.215 E34.84012
G1 X63.785 Y62.391 E34.95784
G0 F1080 X63.785 Y63.785
G0 F7200 X63.626 Y63.086
G1 F1200 X63.085 Y63.627 E34.97243
G0 F7200 X62.59 Y63.627
G1 F1200 X63.626 Y62.591 E35.00036
G0 F7200 X63.626 Y62.096
G1 F1200 X62.095 Y63.627 E35.04163
G0 F7200 X61.601 Y63.627
G1 F1200 X63.626 Y61.601 E35.09623
G0 F7200 X63.626 Y61.106
G1 F1200 X61.106 Y63.627 E35.16418
G0 F7200 X60.611 Y63.627
G1 F1200 X63.626 Y60.611 E35.24547
G0 F7200 X63.626 Y60.116
G1 F1200 X60.116 Y63.627 E35.34011
G0 F7200 X59.621 Y63.627
G1 F1200 X63.626 Y59.621 E35.44809
G0 F7200 X63.626 Y59.126
G1 F1200 X59.126 Y63.627 E35.56941
G0 F7200 X58.631 Y63.627
G1 F1200 X63.626 Y58.631 E35.70408
G0 F7200 X63.626 Y58.136
G1 F1200 X58.136 Y63.627 E35.8521
G0 F7200 X57.641 Y63.627
G1 F1200 X63.626 Y57.641 E36.01345
G0 F7200 X63.626 Y57.146
G1 F1200 X57.146 Y63.627 E36.18816
G0 F7200 X56.651 Y63.627
G1 F1200 X63.626 Y56.651 E36.3762
G0 F7200 X63.411 Y56.371
G1 F1200 X56.371 Y63.411 E36.56599
G0 F7200 X56.371 Y62.916
G1 F1200 X62.916 Y56.371 E36.74243
G0 F7200 X62.421 Y56.371
G1 F1200 X56.371 Y62.421 E36.90552
G0 F7200 X56.371 Y61.926
