;FLAVOR:Marlin
;TIME:910
;Filament used: 1.09365m
;Layer height: 0.35
;MINX:45.454
;MINY:45.452
;MINZ:0.35
;MAXX:74.546
;MAXY:74.548
;MAXZ:19.95
;Generated with Cura_SteamEngine mb-master-20191108
M140 S65
M105
M190 S65
M104 S205
M105
M109 S205
M82 ;absolute extrusion mode
G21;(metric values)
G90;(absolute positioning)
M82;(set extruder to absolute mode)
M107;(start with the fan off)
G28;(Home the printer)
G92 E0;(Reset the extruder to 0)
G0 Z5 E5 F500;(Move up and prime the nozzle)
G0 X-1 Z0;(Move outside the printable area)
G1 Y60 E8 F500;(Draw a priming/wiping line to the rear)
G1 X-1;(Move a little closer to the print area)
G1 Y10 E16 F500;(draw more priming/wiping)
G1 E15 F250;(Small retract)
G92 E0;(Zero the extruder)
G92 E0
G92 E0
G1 F2400 E-2.5
;LAYER_COUNT:57
;LAYER:0
M107
;MESH:sign-post.stl
G0 F4320 X61.535 Y73.789 Z0.35
;TYPE:WALL-INNER
G1 F2400 E0
G1 F1800 X60.661 Y73.858 E0.04465
G1 X59.789 Y73.873 E0.08907
G1 X58.887 Y73.829 E0.13506
G1 X58.023 Y73.733 E0.17934
G1 X57.137 Y73.577 E0.22515
G1 X56.297 Y73.374 E0.26917
G1 X55.463 Y73.115 E0.31364
G1 X54.635 Y72.797 E0.35881
G1 X53.825 Y72.427 E0.40417
G1 X53.061 Y72.017 E0.44833
G1 X52.309 Y71.55 E0.49341
G1 X51.585 Y71.035 E0.53866
G1 X50.914 Y70.489 E0.58272
G1 X50.254 Y69.88 E0.62845
G1 X49.674 Y69.271 E0.67129
G1 X49.111 Y68.601 E0.71586
G1 X48.563 Y67.858 E0.76288
G1 X48.105 Y67.149 E0.80586
G1 X47.667 Y66.361 E0.85178
G1 X47.299 Y65.59 E0.89529
G1 X46.96 Y64.745 E0.94166
G1 X46.694 Y63.936 E0.98503
G1 X46.466 Y63.061 E1.03108
G1 X46.295 Y62.181 E1.07674
G1 X46.187 Y61.339 E1.11997
G1 X46.131 Y60.459 E1.16488
G1 X46.129 Y59.559 E1.21072
G1 X46.182 Y58.692 E1.25496
G1 X46.288 Y57.851 E1.29813
G1 X46.456 Y56.974 E1.34361
G1 X46.682 Y56.101 E1.38953
G1 X46.955 Y55.264 E1.43437
G1 X47.277 Y54.457 E1.47862
G1 X47.66 Y53.653 E1.52398
G1 X48.076 Y52.9 E1.56779
G1 X48.574 Y52.124 E1.61475
G1 X49.079 Y51.435 E1.65826
G1 X49.632 Y50.777 E1.70203
G1 X50.254 Y50.123 E1.748
G1 X50.913 Y49.513 E1.79373
G1 X51.597 Y48.956 E1.83866
G1 X52.311 Y48.448 E1.88329
G1 X53.061 Y47.983 E1.92823
G1 X53.825 Y47.573 E1.97239
G1 X54.635 Y47.203 E2.01774
G1 X55.462 Y46.886 E2.06285
G1 X56.298 Y46.626 E2.10744
G1 X57.137 Y46.423 E2.1514
G1 X58.023 Y46.267 E2.19722
G1 X58.887 Y46.171 E2.24149
G1 X59.789 Y46.127 E2.28749
G1 X60.661 Y46.142 E2.3319
G1 X61.535 Y46.211 E2.37655
G1 X62.395 Y46.334 E2.4208
G1 X63.285 Y46.521 E2.46712
G1 X64.109 Y46.748 E2.51065
G1 X64.949 Y47.039 E2.55592
G1 X65.747 Y47.374 E2.6
G1 X66.563 Y47.779 E2.64639
G1 X67.3 Y48.204 E2.68972
G1 X68.039 Y48.696 E2.73494
G1 X68.746 Y49.233 E2.78015
G1 X69.41 Y49.808 E2.82489
G1 X70.046 Y50.434 E2.87034
G1 X70.609 Y51.064 E2.91337
G1 X71.155 Y51.757 E2.9583
G1 X71.659 Y52.486 E3.00344
G1 X72.104 Y53.226 E3.04742
G1 X72.519 Y54.029 E3.09345
G1 X72.867 Y54.822 E3.13756
G1 X73.166 Y55.64 E3.18191
G1 X73.428 Y56.527 E3.22902
G1 X73.614 Y57.352 E3.27209
G1 X73.758 Y58.243 E3.31805
G1 X73.839 Y59.075 E3.36063
G1 X73.869 Y59.977 E3.40659
G1 X73.844 Y60.869 E3.45204
G1 X73.763 Y61.729 E3.49603
G1 X73.622 Y62.619 E3.54193
G1 X73.432 Y63.466 E3.58613
G1 X73.189 Y64.299 E3.63033
G1 X72.884 Y65.14 E3.67589
G1 X72.532 Y65.948 E3.72078
G1 X72.134 Y66.722 E3.7651
G1 X71.678 Y67.483 E3.81028
G1 X71.183 Y68.207 E3.85495
G1 X70.629 Y68.912 E3.90062
G1 X70.049 Y69.563 E3.94502
G1 X69.401 Y70.201 E3.99134
G1 X68.761 Y70.756 E4.03448
G1 X68.039 Y71.304 E4.08064
G1 X67.302 Y71.795 E4.12574
G1 X66.563 Y72.221 E4.16919
G1 X65.755 Y72.622 E4.21513
G1 X64.944 Y72.963 E4.25993
G1 X64.108 Y73.252 E4.30498
G1 X63.285 Y73.479 E4.34846
G1 X62.395 Y73.666 E4.39478
G1 X62.05 Y73.716 E4.41253
G0 F1620 X61.535 Y73.789
G0 F4320 X64.059 Y73.115
G0 X65.699 Y72.487
G0 X67.22 Y71.674
G0 X68.667 Y70.646
G0 X69.947 Y69.458
G0 X71.062 Y68.126
G0 X72.003 Y66.656
G0 X72.751 Y65.08
G0 X73.292 Y63.423
G0 X73.619 Y61.705
G0 X73.724 Y59.972
G0 X73.614 Y58.268
G0 X73.286 Y56.558
G0 X72.727 Y54.907
G0 X71.979 Y53.302
G0 X71.035 Y51.839
G0 X69.944 Y50.539
G0 X68.65 Y49.342
G0 X67.218 Y48.325
G0 X65.691 Y47.509
G0 X64.767 Y47.157
G0 X60.679 Y45.792
G1 F1800 X61.565 Y45.862 E4.4578
G1 X62.467 Y45.991 E4.5042
G1 X63.357 Y46.178 E4.55052
G1 X64.224 Y46.417 E4.59632
G1 X65.069 Y46.71 E4.64187
G1 X65.903 Y47.06 E4.68794
G1 X66.719 Y47.465 E4.73433
G1 X67.482 Y47.905 E4.77919
G1 X68.251 Y48.417 E4.82624
G1 X68.965 Y48.959 E4.8719
G1 X69.645 Y49.548 E4.91771
G1 X70.298 Y50.191 E4.96439
G1 X70.884 Y50.847 E5.00919
G1 X71.435 Y51.546 E5.05452
G1 X71.951 Y52.293 E5.10076
G1 X72.415 Y53.065 E5.14663
G1 X72.83 Y53.868 E5.19266
G1 X73.196 Y54.702 E5.23905
G1 X73.499 Y55.531 E5.284
G1 X73.764 Y56.428 E5.33164
G1 X73.96 Y57.296 E5.37696
G1 X74.104 Y58.187 E5.42292
G1 X74.189 Y59.064 E5.4678
G1 X74.219 Y59.977 E5.51432
G1 X74.194 Y60.881 E5.56038
G1 X74.109 Y61.784 E5.60657
G1 X73.966 Y62.685 E5.65303
G1 X73.773 Y63.548 E5.69807
G1 X73.522 Y64.406 E5.7436
G1 X73.205 Y65.28 E5.79095
G1 X72.851 Y66.092 E5.83607
G1 X72.439 Y66.894 E5.88199
G1 X71.967 Y67.681 E5.92872
G1 X71.471 Y68.406 E5.97346
G1 X70.896 Y69.139 E6.02091
G1 X70.301 Y69.806 E6.06643
G1 X69.645 Y70.452 E6.11332
G1 X68.973 Y71.035 E6.15863
G1 X68.251 Y71.583 E6.20479
G1 X67.484 Y72.094 E6.25173
G1 X66.719 Y72.535 E6.2967
G1 X65.903 Y72.94 E6.3431
G1 X65.07 Y73.29 E6.38912
G1 X64.224 Y73.583 E6.43471
G1 X63.357 Y73.822 E6.48052
G1 X62.467 Y74.009 E6.52683
G1 X61.565 Y74.138 E6.57324
G1 X60.679 Y74.208 E6.6185
G1 X59.778 Y74.223 E6.6644
G1 X58.863 Y74.179 E6.71105
G1 X57.971 Y74.08 E6.75676
G1 X57.076 Y73.922 E6.80305
G1 X56.203 Y73.711 E6.84879
G1 X55.344 Y73.444 E6.8946
G1 X54.51 Y73.124 E6.9401
G1 X53.664 Y72.738 E6.98745
G1 X52.895 Y72.325 E7.03191
G1 X52.108 Y71.837 E7.07907
G1 X51.376 Y71.316 E7.12483
G1 X50.686 Y70.754 E7.17015
G1 X50.011 Y70.131 E7.21694
G1 X49.408 Y69.498 E7.26146
G1 X48.831 Y68.812 E7.30711
G1 X48.281 Y68.066 E7.35432
G1 X47.805 Y67.329 E7.399
G1 X47.354 Y66.519 E7.44622
G1 X46.979 Y65.733 E7.49057
G1 X46.635 Y64.875 E7.53765
G1 X46.356 Y64.028 E7.58307
G1 X46.123 Y63.135 E7.63007
G1 X45.951 Y62.248 E7.67609
G1 X45.839 Y61.376 E7.72086
G1 X45.781 Y60.466 E7.7673
G1 X45.779 Y59.56 E7.81344
G1 X45.834 Y58.657 E7.85952
G1 X45.944 Y57.785 E7.90428
G1 X46.114 Y56.898 E7.95028
G1 X46.346 Y56 E7.99751
G1 X46.622 Y55.155 E8.04279
G1 X46.952 Y54.327 E8.08818
G1 X47.35 Y53.489 E8.13543
G1 X47.781 Y52.711 E8.18073
G1 X48.279 Y51.935 E8.22769
G1 X48.805 Y51.218 E8.27298
G1 X49.373 Y50.541 E8.31798
G1 X50.009 Y49.872 E8.36499
G1 X50.685 Y49.246 E8.41192
G1 X51.376 Y48.684 E8.45728
G1 X52.108 Y48.163 E8.50304
G1 X52.895 Y47.675 E8.5502
G1 X53.664 Y47.262 E8.59466
G1 X54.51 Y46.876 E8.64202
G1 X55.344 Y46.556 E8.68751
G1 X56.204 Y46.289 E8.73337
G1 X57.076 Y46.078 E8.77906
G1 X57.971 Y45.92 E8.82535
G1 X58.863 Y45.821 E8.87106
G1 X59.778 Y45.777 E8.91771
G1 X60.159 Y45.784 E8.93712
G0 F1620 X60.679 Y45.792
G0 F4320 X64.894 Y47.174
G0 X66.499 Y47.91
G0 X67.959 Y48.818
G0 X69.307 Y49.911
G0 X70.501 Y51.162
G0 X71.533 Y52.56
G0 X72.391 Y54.097
G0 X73.029 Y55.692
G0 X73.461 Y57.407
G0 X73.693 Y59.079
G0 X73.698 Y60.864
G0 X73.48 Y62.586
G0 X73.049 Y64.259
G0 X72.403 Y65.88
G0 X71.553 Y67.407
G0 X70.521 Y68.814
G0 X69.83 Y69.539
G0 X66.734 Y72.584
G0 X66.869 Y72.824
;TYPE:WALL-OUTER
G1 F1800 X66.035 Y73.238 E8.98454
G1 X65.195 Y73.59 E9.03093
G1 X64.323 Y73.892 E9.07793
G1 X63.428 Y74.139 E9.12521
G1 X62.519 Y74.33 E9.17252
G1 X61.604 Y74.461 E9.21959
G1 X60.695 Y74.533 E9.26603
G1 X59.768 Y74.548 E9.31325
G1 X58.843 Y74.504 E9.36041
G1 X57.924 Y74.402 E9.40751
G1 X57.01 Y74.24 E9.45478
G1 X56.124 Y74.026 E9.5012
G1 X55.239 Y73.751 E9.5484
G1 X54.375 Y73.42 E9.59552
G1 X53.529 Y73.034 E9.64288
G1 X52.727 Y72.604 E9.68923
G1 X51.932 Y72.11 E9.7369
G1 X51.18 Y71.575 E9.7839
G1 X50.473 Y71 E9.83031
G1 X49.785 Y70.365 E9.87799
G1 X49.161 Y69.71 E9.92407
G1 X48.572 Y69.009 E9.9707
G1 X48.019 Y68.259 E10.01816
G1 X47.525 Y67.494 E10.06454
G1 X47.07 Y66.677 E10.11216
G1 X46.677 Y65.855 E10.15857
G1 X46.329 Y64.986 E10.20624
G1 X46.043 Y64.119 E10.25274
G1 X45.808 Y63.217 E10.30021
G1 X45.632 Y62.31 E10.34726
G1 X45.516 Y61.406 E10.39368
G1 X45.456 Y60.472 E10.44135
G1 X45.454 Y59.561 E10.48774
G1 X45.511 Y58.627 E10.5354
G1 X45.625 Y57.724 E10.58176
G1 X45.799 Y56.817 E10.62879
G1 X46.033 Y55.911 E10.67645
G1 X46.316 Y55.046 E10.7228
G1 X46.658 Y54.188 E10.76984
G1 X47.059 Y53.343 E10.81748
G1 X47.507 Y52.535 E10.86453
G1 X48.005 Y51.759 E10.91149
G1 X48.552 Y51.014 E10.95856
G1 X49.137 Y50.317 E11.0049
G1 X49.773 Y49.648 E11.05192
G1 X50.473 Y49 E11.1005
G1 X51.18 Y48.425 E11.14691
G1 X51.932 Y47.89 E11.19391
G1 X52.727 Y47.396 E11.24158
G1 X53.529 Y46.966 E11.28793
G1 X54.375 Y46.58 E11.33529
G1 X55.239 Y46.249 E11.38241
G1 X56.125 Y45.974 E11.42966
G1 X57.01 Y45.76 E11.47603
G1 X57.924 Y45.598 E11.5233
G1 X58.843 Y45.496 E11.57039
G1 X59.768 Y45.452 E11.61756
G1 X60.695 Y45.467 E11.66478
G1 X61.604 Y45.539 E11.71122
G1 X62.519 Y45.67 E11.75829
G1 X63.428 Y45.861 E11.8056
G1 X64.323 Y46.108 E11.85288
G1 X65.195 Y46.41 E11.89988
G1 X66.035 Y46.762 E11.94627
G1 X66.869 Y47.176 E11.99369
G1 X67.662 Y47.634 E12.04033
G1 X68.441 Y48.152 E12.08797
G1 X69.17 Y48.706 E12.1346
G1 X69.864 Y49.308 E12.18139
G1 X70.531 Y49.964 E12.22904
G1 X71.126 Y50.63 E12.27452
G1 X71.698 Y51.355 E12.32156
G1 X72.23 Y52.126 E12.36926
G1 X72.699 Y52.906 E12.41562
G1 X73.128 Y53.737 E12.46325
G1 X73.494 Y54.571 E12.50963
G1 X73.811 Y55.439 E12.55669
G1 X74.076 Y56.336 E12.60433
G1 X74.28 Y57.236 E12.65133
G1 X74.425 Y58.135 E12.69771
G1 X74.514 Y59.053 E12.74468
G1 X74.544 Y59.977 E12.79176
G1 X74.518 Y60.911 E12.83935
G1 X74.433 Y61.819 E12.8858
G1 X74.286 Y62.743 E12.93345
G1 X74.087 Y63.631 E12.97979
G1 X73.828 Y64.517 E13.02681
G1 X73.51 Y65.395 E13.07436
G1 X73.145 Y66.232 E13.12087
G1 X72.723 Y67.052 E13.16784
G1 X72.242 Y67.856 E13.21555
G1 X71.727 Y68.607 E13.26193
G1 X71.149 Y69.343 E13.30959
G1 X70.535 Y70.032 E13.35659
G1 X69.873 Y70.684 E13.40392
G1 X69.17 Y71.294 E13.45132
G1 X68.441 Y71.848 E13.49795
G1 X67.662 Y72.366 E13.5456
G1 X67.319 Y72.564 E13.56577
G0 F1620 X66.869 Y72.824
G0 F4320 X66.69 Y72.912
G0 X66.569 Y72.666
G0 X66.412 Y71.916
;TYPE:SKIN
G1 F1800 X65.607 Y72.316 E13.61155
G1 X64.825 Y72.645 E13.65476
G1 X64.011 Y72.926 E13.69861
G1 X63.194 Y73.151 E13.74177
G1 X62.337 Y73.332 E13.78638
G1 X61.492 Y73.453 E13.82986
G1 X60.655 Y73.518 E13.87261
G1 X59.8 Y73.533 E13.91616
G1 X58.908 Y73.489 E13.96165
G1 X58.071 Y73.396 E14.00454
G1 X57.206 Y73.244 E14.04927
G1 X56.393 Y73.047 E14.09187
G1 X55.567 Y72.791 E14.13591
G1 X54.773 Y72.486 E14.17923
G1 X53.972 Y72.12 E14.22408
G1 X53.236 Y71.726 E14.2666
G1 X52.496 Y71.267 E14.31095
G1 X51.787 Y70.762 E14.35528
G1 X51.137 Y70.232 E14.398
G1 X50.493 Y69.637 E14.44265
G1 X49.921 Y69.036 E14.48491
G1 X49.378 Y68.39 E14.52789
G1 X48.843 Y67.664 E14.57382
G1 X48.391 Y66.964 E14.61625
G1 X47.969 Y66.205 E14.66048
G1 X47.606 Y65.444 E14.70342
G1 X47.283 Y64.638 E14.74765
G1 X47.017 Y63.829 E14.79102
G1 X46.798 Y62.986 E14.83538
G1 X46.633 Y62.136 E14.87947
G1 X46.525 Y61.296 E14.92261
G1 X46.471 Y60.438 E14.96639
G1 X46.469 Y59.58 E15.01009
G1 X46.52 Y58.735 E15.0532
G1 X46.626 Y57.894 E15.09637
G1 X46.788 Y57.048 E15.14024
G1 X47.005 Y56.206 E15.18453
G1 X47.268 Y55.4 E15.22771
G1 X47.589 Y54.593 E15.27194
G1 X47.962 Y53.809 E15.31616
G1 X48.362 Y53.084 E15.35833
G1 X48.854 Y52.317 E15.40474
G1 X49.346 Y51.646 E15.44711
G1 X49.879 Y51.012 E15.4893
G1 X50.501 Y50.358 E15.53526
G1 X51.128 Y49.777 E15.5788
G1 X51.812 Y49.22 E15.62372
G1 X52.498 Y48.731 E15.66663
G1 X53.24 Y48.272 E15.71106
G1 X53.972 Y47.88 E15.75335
G1 X54.777 Y47.512 E15.79843
G1 X55.566 Y47.21 E15.84146
G1 X56.394 Y46.953 E15.88561
G1 X57.207 Y46.755 E15.92823
G1 X58.071 Y46.604 E15.9729
G1 X58.908 Y46.511 E16.01579
G1 X59.8 Y46.467 E16.06127
G1 X60.655 Y46.482 E16.10482
G1 X61.492 Y46.547 E16.14758
G1 X62.337 Y46.668 E16.19106
G1 X63.195 Y46.849 E16.23572
G1 X64.012 Y47.074 E16.27887
G1 X64.83 Y47.357 E16.32296
G1 X65.599 Y47.68 E16.36544
G1 X66.412 Y48.084 E16.41167
G1 X67.121 Y48.493 E16.45336
G1 X67.842 Y48.973 E16.49747
G1 X68.523 Y49.49 E16.54102
G1 X69.171 Y50.051 E16.58467
G1 X69.807 Y50.677 E16.63012
G1 X70.349 Y51.283 E16.67153
G1 X70.875 Y51.951 E16.71483
G1 X71.379 Y52.68 E16.75996
G1 X71.807 Y53.392 E16.80227
G1 X72.212 Y54.175 E16.84717
G1 X72.548 Y54.939 E16.88968
G1 X72.843 Y55.747 E16.93349
G1 X73.099 Y56.613 E16.97948
G1 X73.278 Y57.406 E17.02088
G1 X73.422 Y58.297 E17.06685
G1 X73.499 Y59.087 E17.10727
G1 X73.529 Y59.967 E17.15212
G1 X73.504 Y60.858 E17.19751
G1 X73.427 Y61.676 E17.23936
G1 X73.29 Y62.545 E17.28416
G1 X73.101 Y63.389 E17.32821
G1 X72.869 Y64.183 E17.37034
G1 X72.562 Y65.031 E17.41627
G1 X72.229 Y65.793 E17.45862
G1 X71.836 Y66.557 E17.50238
G1 X71.387 Y67.306 E17.54686
G1 X70.915 Y67.997 E17.58947
G1 X70.363 Y68.7 E17.635
G1 X69.81 Y69.32 E17.67731
G1 X69.163 Y69.957 E17.72355
G1 X68.548 Y70.491 E17.76503
G1 X67.842 Y71.026 E17.81014
G1 X67.126 Y71.504 E17.85399
G1 X66.862 Y71.656 E17.8695
G0 F1620 X66.412 Y71.916
G0 F4320 X66.539 Y72.137
G0 X64.059 Y73.115
G0 X62.367 Y73.523
G0 X60.659 Y73.712
G0 X58.897 Y73.683
G0 X57.171 Y73.436
G0 X55.508 Y72.976
G0 X53.89 Y72.296
G0 X53.04 Y71.805
G0 X51.318 Y70.708
G0 X51.579 Y70.388
G1 F1800 X49.602 Y68.411 E18.0119
G1 X49.54 Y68.349
G0 F4320 X49.23 Y68.609
G0 X48.112 Y66.985
G0 X48.472 Y66.786
G1 F1800 X53.211 Y71.525 E18.35323
G1 X53.273 Y71.587
G0 F4320 X53.067 Y71.92
G0 X54.085 Y72.451
G0 X54.257 Y72.076
G1 F1800 X47.922 Y65.741 E18.80951
G1 X47.86 Y65.679
G0 F4320 X47.544 Y64.868
G1 F1800 X55.13 Y72.455 E19.35593
G1 X55.192 Y72.517
G0 F4320 X55.899 Y72.728
G1 F1800 X47.271 Y64.1 E19.97736
G1 X47.209 Y64.038
G0 F4320 X47.067 Y63.401
G1 F1800 X56.599 Y72.933 E20.66391
G0 F4320 X57.253 Y73.092
G1 F1800 X46.911 Y62.75 E21.40879
G0 F4320 X46.792 Y62.137
G1 F1800 X57.854 Y73.198 E22.2055
G0 F4320 X58.427 Y73.276
G1 F1800 X46.717 Y61.567 E23.04888
G0 F4320 X46.664 Y61.019
G1 F1800 X58.979 Y73.334 E23.93587
G0 F4320 X59.5 Y73.359
G1 F1800 X46.631 Y60.49 E24.86277
G0 F4320 X46.626 Y59.99
G1 F1800 X60.007 Y73.371 E25.82654
G0 F4320 X60.492 Y73.362
G1 F1800 X46.631 Y59.5 E26.82491
G0 F4320 X46.658 Y59.032
G1 F1800 X60.961 Y73.336 E27.85513
G0 F4320 X61.421 Y73.3
G1 F1800 X46.697 Y58.576 E28.91563
G0 F4320 X46.753 Y58.137
G1 F1800 X61.856 Y73.241 E30.00346
G0 F4320 X62.29 Y73.179
G1 F1800 X46.82 Y57.709 E31.11769
G0 F4320 X46.899 Y57.294
G1 F1800 X62.699 Y73.093 E32.25566
G0 F4320 X63.107 Y73.007
G1 F1800 X46.99 Y56.889 E33.41653
G0 F4320 X47.091 Y56.495
G1 F1800 X63.498 Y72.902 E34.59825
G0 F4320 X63.886 Y72.795
G1 F1800 X47.2 Y56.11 E35.80002
G0 F4320 X47.321 Y55.736
G1 F1800 X64.259 Y72.673 E37.01995
G0 F4320 X64.626 Y72.546
G1 F1800 X47.448 Y55.367 E38.25724
G0 F4320 X47.589 Y55.014
G1 F1800 X64.982 Y72.407 E39.50998
G0 F4320 X65.331 Y72.26
G1 F1800 X47.73 Y54.66 E40.77766
G0 F4320 X47.889 Y54.324
G1 F1800 X65.672 Y72.107 E42.05848
G0 F4320 X66.003 Y71.943
G1 F1800 X48.049 Y53.989 E43.35162
G0 F4320 X48.22 Y53.665
G1 F1800 X66.333 Y71.778 E44.65622
G0 F4320 X66.647 Y71.597
G1 F1800 X48.396 Y53.346 E45.97075
G0 F4320 X48.579 Y53.034
G1 F1800 X66.961 Y71.416 E47.29472
G0 F4320 X67.262 Y71.222
G1 F1800 X48.772 Y52.732 E48.62647
G0 F4320 X48.965 Y52.43
G1 F1800 X67.559 Y71.024 E49.96571
G0 F4320 X67.851 Y70.82
G1 F1800 X49.174 Y52.144 E51.31089
G0 F4320 X49.383 Y51.858
G1 F1800 X68.133 Y70.608 E52.66136
G0 F4320 X68.414 Y70.394
G1 F1800 X49.603 Y51.583 E54.01623
G0 F4320 X49.829 Y51.314
G1 F1800 X68.681 Y70.166 E55.37405
G0 F4320 X68.946 Y69.936
G1 F1800 X50.059 Y51.049 E56.73439
G0 F4320 X50.3 Y50.795
G1 F1800 X69.201 Y69.696 E58.09575
G0 F4320 X69.451 Y69.451
G1 F1800 X50.541 Y50.541 E59.45774
G0 F4320 X50.795 Y50.3
G1 F1800 X69.7 Y69.205 E60.81938
G0 F4320 X69.934 Y68.944
G1 F1800 X51.051 Y50.061 E62.17944
G0 F4320 X51.313 Y49.828
G1 F1800 X70.168 Y68.683 E63.53747
G0 F4320 X70.39 Y68.41
G1 F1800 X51.586 Y49.606 E64.89184
G0 F4320 X51.859 Y49.384
G1 F1800 X70.608 Y68.133 E66.24224
G0 F4320 X70.822 Y67.852
