;FLAVOR:Marlin
;TIME:927
;Filament used: 1.12776m
;Layer height: 0.35
;MINX:45.204
;MINY:45.202
;MINZ:0.35
;MAXX:74.796
;MAXY:74.798
;MAXZ:19.95
;Generated with Cura_SteamEngine mb-master-20191108
M140 S65
M105
M190 S65
M104 S205
M105
M109 S205
M82 ;absolute extrusion mode
G21;(metric values)
G90;(absolute positioning)
M82;(set extruder to absolute mode)
M107;(start with the fan off)
G28;(Home the printer)
G92 E0;(Reset the extruder to 0)
G0 Z5 E5 F500;(Move up and prime the nozzle)
G0 X-1 Z0;(Move outside the printable area)
G1 Y60 E8 F500;(Draw a priming/wiping line to the rear)
G1 X-1;(Move a little closer to the print area)
G1 Y10 E16 F500;(draw more priming/wiping)
G1 E15 F250;(Small retract)
G92 E0;(Zero the extruder)
G92 E0
G92 E0
G1 F2400 E-2.5
;LAYER_COUNT:57
;LAYER:0
M107
;MESH:sign-post.stl
G0 F4320 X49.871 Y50.161 Z0.35
;TYPE:WALL-INNER
G1 F2400 E0
G1 F1800 X49.871 Y49.875 E0.01457
G1 X50.159 Y49.87 E0.02924
G1 X50.76 Y49.314 E0.07093
G1 X51.438 Y48.764 E0.1154
G1 X52.182 Y48.234 E0.16192
G1 X52.932 Y47.769 E0.20686
G1 X53.719 Y47.347 E0.25234
G1 X54.538 Y46.973 E0.2982
G1 X55.381 Y46.649 E0.34419
G1 X56.231 Y46.385 E0.38952
G1 X57.089 Y46.178 E0.43447
G1 X57.985 Y46.02 E0.48081
G1 X58.867 Y45.922 E0.52601
G1 X59.786 Y45.877 E0.57287
G1 X60.674 Y45.892 E0.6181
G1 X61.559 Y45.962 E0.66331
G1 X62.44 Y46.089 E0.70865
G1 X63.34 Y46.277 E0.75547
G1 X64.195 Y46.514 E0.80066
G1 X65.033 Y46.804 E0.84582
G1 X65.865 Y47.153 E0.89177
G1 X66.669 Y47.551 E0.93746
G1 X67.432 Y47.991 E0.98232
G1 X68.195 Y48.498 E1.02898
G1 X68.889 Y49.027 E1.07342
G1 X69.84 Y49.848 E1.1374
G1 X70.121 Y49.855 E1.15172
G1 X70.121 Y50.123 E1.16537
G1 X70.8 Y50.902 E1.218
G1 X71.357 Y51.608 E1.2638
G1 X71.868 Y52.348 E1.3096
G1 X72.327 Y53.114 E1.35508
G1 X72.744 Y53.921 E1.40134
G1 X73.099 Y54.729 E1.44629
G1 X73.407 Y55.571 E1.49195
G1 X73.669 Y56.463 E1.5393
G1 X73.859 Y57.304 E1.58321
G1 X74.005 Y58.211 E1.63
G1 X74.088 Y59.061 E1.67349
G1 X74.119 Y59.977 E1.72017
G1 X74.094 Y60.879 E1.76613
G1 X74.01 Y61.761 E1.81125
G1 X73.867 Y62.664 E1.85781
G1 X73.672 Y63.532 E1.90312
G1 X73.426 Y64.378 E1.94799
G1 X73.116 Y65.232 E1.99426
G1 X72.757 Y66.055 E2.03999
G1 X72.345 Y66.856 E2.08587
G1 X71.896 Y67.611 E2.13061
G1 X71.38 Y68.36 E2.17693
G1 X70.82 Y69.074 E2.22314
G1 X70.136 Y69.84 E2.27544
G1 X70.132 Y70.126 E2.29001
G1 X69.86 Y70.13 E2.30387
G1 X68.903 Y70.963 E2.36848
G1 X68.195 Y71.502 E2.4138
G1 X67.434 Y72.008 E2.46034
G1 X66.669 Y72.449 E2.50532
G1 X65.865 Y72.847 E2.55101
G1 X65.034 Y73.196 E2.59691
G1 X64.195 Y73.486 E2.64212
G1 X63.34 Y73.723 E2.68731
G1 X62.44 Y73.911 E2.73413
G1 X61.559 Y74.038 E2.77946
G1 X60.674 Y74.108 E2.82468
G1 X59.786 Y74.123 E2.86991
G1 X58.867 Y74.078 E2.91677
G1 X57.985 Y73.98 E2.96197
G1 X57.089 Y73.822 E3.0083
G1 X56.235 Y73.616 E3.05304
G1 X55.377 Y73.349 E3.09881
G1 X54.538 Y73.027 E3.14458
G1 X53.712 Y72.65 E3.19082
G1 X52.925 Y72.228 E3.2363
G1 X52.191 Y71.772 E3.28031
G1 X51.436 Y71.235 E3.3275
G1 X50.735 Y70.665 E3.37351
G1 X50.128 Y70.125 E3.41489
G1 X49.871 Y70.125 E3.42798
G1 X49.871 Y69.884 E3.44025
G1 X48.917 Y68.76 E3.51533
G1 X48.357 Y68 E3.56341
G1 X47.89 Y67.277 E3.60725
G1 X47.445 Y66.476 E3.65392
G1 X47.07 Y65.69 E3.69827
G1 X46.725 Y64.83 E3.74546
G1 X46.451 Y63.998 E3.79007
G1 X46.223 Y63.126 E3.83598
G1 X46.048 Y62.221 E3.88292
G1 X45.938 Y61.364 E3.92693
G1 X45.881 Y60.469 E3.9726
G1 X45.879 Y59.552 E4.0193
G1 X45.933 Y58.669 E4.06436
G1 X46.041 Y57.813 E4.1083
G1 X46.212 Y56.919 E4.15466
G1 X46.442 Y56.031 E4.20138
G1 X46.72 Y55.179 E4.24702
G1 X47.045 Y54.364 E4.2917
G1 X47.441 Y53.532 E4.33863
G1 X47.865 Y52.765 E4.38327
G1 X48.368 Y51.981 E4.43071
G1 X48.882 Y51.281 E4.47494
G1 X49.445 Y50.61 E4.51955
G1 X49.513 Y50.538 E4.52459
G0 F1620 X49.871 Y50.161
G0 F4320 X49.521 Y50.021
G1 F1800 X49.521 Y49.531 E4.54955
G1 X50.019 Y49.522 E4.57491
G1 X50.533 Y49.047 E4.61056
G1 X51.217 Y48.492 E4.65542
G1 X51.992 Y47.94 E4.70388
G1 X52.752 Y47.469 E4.74941
G1 X53.558 Y47.036 E4.79601
G1 X54.413 Y46.646 E4.84387
G1 X55.262 Y46.32 E4.89019
G1 X56.137 Y46.048 E4.93686
G1 X57.028 Y45.833 E4.98354
G1 X57.932 Y45.673 E5.03029
G1 X58.843 Y45.572 E5.07697
G1 X59.775 Y45.527 E5.1245
G1 X60.692 Y45.542 E5.1712
G1 X61.59 Y45.613 E5.21708
G1 X62.512 Y45.746 E5.26453
G1 X63.412 Y45.934 E5.31135
G1 X64.302 Y46.181 E5.35839
G1 X65.158 Y46.477 E5.40452
G1 X66.012 Y46.835 E5.45168
G1 X66.831 Y47.24 E5.49821
G1 X67.614 Y47.692 E5.54426
G1 X68.396 Y48.212 E5.59209
G1 X69.118 Y48.762 E5.63831
G1 X69.974 Y49.501 E5.69591
G1 X70.471 Y49.513 E5.72123
G1 X70.471 Y49.992 E5.74562
G1 X71.075 Y50.685 E5.79244
G1 X71.636 Y51.397 E5.83861
G1 X72.161 Y52.156 E5.88561
G1 X72.638 Y52.953 E5.93291
G1 X73.055 Y53.76 E5.97918
G1 X73.428 Y54.609 E6.0264
G1 X73.74 Y55.463 E6.07271
G1 X74.005 Y56.364 E6.12054
G1 X74.205 Y57.248 E6.1667
G1 X74.351 Y58.155 E6.21349
G1 X74.438 Y59.049 E6.25923
G1 X74.469 Y59.977 E6.30652
G1 X74.444 Y60.892 E6.35314
G1 X74.356 Y61.816 E6.40041
G1 X74.211 Y62.733 E6.4477
G1 X74.014 Y63.611 E6.49352
G1 X73.759 Y64.485 E6.53989
G1 X73.437 Y65.372 E6.58795
G1 X73.076 Y66.199 E6.63391
G1 X72.646 Y67.035 E6.68179
G1 X72.192 Y67.798 E6.727
G1 X71.656 Y68.576 E6.77512
G1 X71.095 Y69.292 E6.82145
G1 X70.484 Y69.976 E6.86816
G1 X70.477 Y70.47 E6.89332
G1 X69.993 Y70.478 E6.91797
G1 X69.13 Y71.229 E6.97624
G1 X68.396 Y71.788 E7.02323
G1 X67.616 Y72.307 E7.07094
G1 X66.831 Y72.76 E7.1171
G1 X66.012 Y73.165 E7.16363
G1 X65.159 Y73.523 E7.21075
G1 X64.302 Y73.819 E7.25692
G1 X63.412 Y74.066 E7.30396
G1 X62.512 Y74.254 E7.35079
G1 X61.59 Y74.387 E7.39823
G1 X60.692 Y74.458 E7.44411
G1 X59.775 Y74.473 E7.49082
G1 X58.843 Y74.428 E7.53834
G1 X57.932 Y74.327 E7.58502
G1 X57.028 Y74.167 E7.63178
G1 X56.141 Y73.953 E7.67825
G1 X55.258 Y73.678 E7.72535
G1 X54.413 Y73.354 E7.77144
G1 X53.558 Y72.964 E7.8193
G1 X52.751 Y72.531 E7.86594
G1 X51.99 Y72.059 E7.91155
G1 X51.217 Y71.508 E7.9599
G1 X50.514 Y70.937 E8.00602
G1 X49.995 Y70.475 E8.04141
G1 X49.521 Y70.475 E8.06555
G1 X49.521 Y70.012 E8.08913
G1 X48.637 Y68.97 E8.15873
G1 X48.075 Y68.208 E8.20695
G1 X47.59 Y67.457 E8.25248
G1 X47.132 Y66.634 E8.30045
G1 X46.75 Y65.833 E8.34564
G1 X46.4 Y64.96 E8.39354
G1 X46.112 Y64.087 E8.44036
G1 X45.882 Y63.207 E8.48669
G1 X45.704 Y62.287 E8.53441
G1 X45.59 Y61.401 E8.57991
G1 X45.531 Y60.475 E8.62716
G1 X45.529 Y59.553 E8.67412
G1 X45.585 Y58.634 E8.72101
G1 X45.697 Y57.747 E8.76654
G1 X45.87 Y56.843 E8.81342
G1 X46.106 Y55.93 E8.86145
G1 X46.387 Y55.07 E8.90752
G1 X46.723 Y54.227 E8.95374
G1 X47.128 Y53.375 E9.00179
G1 X47.57 Y52.576 E9.04829
G1 X48.073 Y51.792 E9.09573
G1 X48.608 Y51.064 E9.14174
G1 X49.165 Y50.4 E9.18588
G0 F1620 X49.186 Y50.374
G0 X49.521 Y50.021
G0 F4320 X49.196 Y49.891
;TYPE:WALL-OUTER
G1 F1800 X49.196 Y49.211 E9.22052
G1 X49.889 Y49.199 E9.25582
G1 X50.312 Y48.808 E9.28515
G1 X51.028 Y48.227 E9.33211
G1 X51.803 Y47.675 E9.38057
G1 X52.591 Y47.186 E9.4278
G1 X53.423 Y46.74 E9.47588
G1 X54.278 Y46.35 E9.52374
G1 X55.157 Y46.013 E9.57169
G1 X56.058 Y45.733 E9.61974
G1 X56.959 Y45.515 E9.66695
G1 X57.888 Y45.351 E9.715
G1 X58.823 Y45.247 E9.76291
G1 X59.764 Y45.202 E9.81089
G1 X60.707 Y45.217 E9.85892
G1 X61.63 Y45.29 E9.90608
G1 X62.564 Y45.425 E9.95414
G1 X63.487 Y45.618 E10.00216
G1 X64.397 Y45.87 E10.05025
G1 X65.284 Y46.177 E10.09806
G1 X66.138 Y46.535 E10.14522
G1 X66.987 Y46.955 E10.19346
G1 X67.794 Y47.421 E10.24092
G1 X68.586 Y47.948 E10.28937
G1 X69.323 Y48.509 E10.33654
G1 X70.098 Y49.179 E10.38872
G1 X70.796 Y49.195 E10.42428
G1 X70.796 Y49.87 E10.45865
G1 X71.32 Y50.471 E10.49926
G1 X71.899 Y51.206 E10.54691
G1 X72.44 Y51.989 E10.59539
G1 X72.922 Y52.795 E10.64321
G1 X73.353 Y53.629 E10.69103
G1 X73.726 Y54.478 E10.73825
G1 X74.052 Y55.371 E10.78667
G1 X74.317 Y56.272 E10.8345
G1 X74.525 Y57.188 E10.88234
G1 X74.672 Y58.103 E10.92954
G1 X74.763 Y59.038 E10.97738
G1 X74.794 Y59.977 E11.02523
G1 X74.768 Y60.923 E11.07343
G1 X74.68 Y61.85 E11.12085
G1 X74.531 Y62.791 E11.16938
G1 X74.328 Y63.694 E11.21651
G1 X74.065 Y64.596 E11.26436
G1 X73.742 Y65.487 E11.31263
G1 X73.37 Y66.339 E11.35998
G1 X72.934 Y67.186 E11.4085
G1 X72.46 Y67.982 E11.45568
G1 X71.92 Y68.766 E11.50416
G1 X71.349 Y69.495 E11.55133
G1 X70.807 Y70.102 E11.59277
G1 X70.798 Y70.789 E11.62776
G1 X70.117 Y70.801 E11.66245
G1 X69.327 Y71.488 E11.71577
G1 X68.586 Y72.052 E11.7632
G1 X67.794 Y72.579 E11.81165
G1 X66.987 Y73.045 E11.85911
G1 X66.138 Y73.465 E11.90735
G1 X65.284 Y73.823 E11.95451
G1 X64.397 Y74.13 E12.00231
G1 X63.487 Y74.382 E12.0504
G1 X62.564 Y74.575 E12.09843
G1 X61.63 Y74.71 E12.14649
G1 X60.707 Y74.783 E12.19364
G1 X59.764 Y74.798 E12.24168
G1 X58.823 Y74.753 E12.28966
G1 X57.888 Y74.649 E12.33757
G1 X56.959 Y74.485 E12.38561
G1 X56.057 Y74.267 E12.43288
G1 X55.157 Y73.987 E12.48088
G1 X54.278 Y73.65 E12.52882
G1 X53.423 Y73.26 E12.57668
G1 X52.591 Y72.814 E12.62476
G1 X51.801 Y72.324 E12.67211
G1 X51.028 Y71.773 E12.72045
G1 X50.299 Y71.181 E12.76828
G1 X49.871 Y70.8 E12.79747
G1 X49.196 Y70.8 E12.83184
G1 X49.196 Y70.131 E12.86591
G1 X48.378 Y69.167 E12.9303
G1 X47.813 Y68.401 E12.97878
G1 X47.31 Y67.622 E13.02601
G1 X46.848 Y66.792 E13.07439
G1 X46.448 Y65.955 E13.12163
G1 X46.094 Y65.071 E13.17013
G1 X45.803 Y64.189 E13.21743
G1 X45.564 Y63.272 E13.26569
G1 X45.385 Y62.349 E13.31358
G1 X45.267 Y61.431 E13.36071
G1 X45.206 Y60.481 E13.4092
G1 X45.204 Y59.554 E13.45641
G1 X45.262 Y58.604 E13.50488
G1 X45.378 Y57.686 E13.55201
G1 X45.555 Y56.762 E13.59992
G1 X45.793 Y55.841 E13.64837
G1 X46.081 Y54.961 E13.69553
G1 X46.429 Y54.088 E13.74339
G1 X46.837 Y53.229 E13.79182
G1 X47.292 Y52.408 E13.83963
G1 X47.799 Y51.617 E13.88748
G1 X48.355 Y50.86 E13.93531
G1 X48.846 Y50.274 E13.97425
G0 F1620 X48.95 Y50.15
G0 X49.196 Y49.891
G0 F4320 X49.196 Y49.691
G0 X49.471 Y49.691
G0 X49.956 Y50.209
G0 X50.211 Y50.209
;TYPE:SKIN
G1 F1800 X50.295 Y50.208 E13.97853
G1 X50.974 Y49.578 E14.0257
G1 X51.644 Y49.035 E14.06962
G1 X52.375 Y48.514 E14.11534
G1 X53.111 Y48.058 E14.15944
G1 X53.866 Y47.654 E14.20305
G1 X54.68 Y47.282 E14.24863
G1 X55.485 Y46.973 E14.29254
G1 X56.327 Y46.712 E14.33744
G1 X57.165 Y46.509 E14.38135
G1 X58.022 Y46.358 E14.42567
G1 X58.888 Y46.262 E14.47005
G1 X59.797 Y46.217 E14.5164
G1 X60.668 Y46.232 E14.56076
G1 X61.514 Y46.298 E14.60398
G1 X62.386 Y46.424 E14.64885
G1 X63.249 Y46.605 E14.69376
G1 X64.097 Y46.84 E14.73858
G1 X64.914 Y47.122 E14.7826
G1 X65.717 Y47.459 E14.82695
G1 X66.518 Y47.856 E14.87248
G1 X67.253 Y48.28 E14.91569
G1 X67.998 Y48.775 E14.96125
G1 X68.675 Y49.291 E15.0046
G1 X69.71 Y50.184 E15.07422
G1 X69.781 Y50.186 E15.07784
G1 X69.781 Y50.251 E15.08115
G1 X70.539 Y51.119 E15.13984
G1 X71.077 Y51.801 E15.18408
G1 X71.576 Y52.523 E15.22878
G1 X72.03 Y53.28 E15.27373
G1 X72.437 Y54.067 E15.31886
G1 X72.78 Y54.846 E15.36221
G1 X73.084 Y55.677 E15.40727
G1 X73.337 Y56.538 E15.45298
G1 X73.523 Y57.358 E15.4958
G1 X73.669 Y58.265 E15.54259
G1 X73.748 Y59.073 E15.58394
G1 X73.779 Y59.967 E15.6295
G1 X73.754 Y60.866 E15.6753
G1 X73.674 Y61.708 E15.71837
G1 X73.535 Y62.59 E15.76385
G1 X73.341 Y63.455 E15.809
G1 X73.103 Y64.273 E15.85239
G1 X72.805 Y65.096 E15.89696
G1 X72.454 Y65.9 E15.94164
G1 X72.047 Y66.692 E15.98699
G1 X71.616 Y67.418 E16.02999
G1 X71.112 Y68.15 E16.07526
G1 X70.56 Y68.854 E16.12082
G1 X69.798 Y69.708 E16.17911
G1 X69.797 Y69.791 E16.18334
G1 X69.73 Y69.792 E16.18675
G1 X68.689 Y70.699 E16.25707
G1 X67.998 Y71.225 E16.3013
G1 X67.258 Y71.717 E16.34655
G1 X66.518 Y72.144 E16.39006
G1 X65.717 Y72.541 E16.4356
G1 X64.915 Y72.878 E16.4799
G1 X64.097 Y73.16 E16.52397
G1 X63.248 Y73.395 E16.56883
G1 X62.386 Y73.576 E16.61369
G1 X61.514 Y73.702 E16.65856
G1 X60.668 Y73.768 E16.70178
G1 X59.797 Y73.783 E16.74615
G1 X58.888 Y73.738 E16.7925
G1 X58.033 Y73.643 E16.83631
G1 X57.158 Y73.489 E16.88156
G1 X56.331 Y73.289 E16.92489
G1 X55.481 Y73.025 E16.97022
G1 X54.676 Y72.716 E17.01414
G1 X53.859 Y72.343 E17.05988
G1 X53.1 Y71.937 E17.10372
G1 X52.378 Y71.489 E17.14699
G1 X51.638 Y70.962 E17.19326
G1 X50.949 Y70.401 E17.23851
G1 X50.258 Y69.785 E17.28566
G1 X50.211 Y69.785 E17.28805
G1 X50.211 Y69.759 E17.28937
G1 X49.184 Y68.549 E17.3702
G1 X48.631 Y67.798 E17.4177
G1 X48.176 Y67.093 E17.46044
G1 X47.747 Y66.32 E17.50546
G1 X47.377 Y65.544 E17.54924
G1 X47.048 Y64.723 E17.59429
G1 X46.774 Y63.891 E17.6389
G1 X46.555 Y63.051 E17.68311
G1 X46.386 Y62.176 E17.7285
G1 X46.276 Y61.321 E17.7724
G1 X46.221 Y60.448 E17.81695
G1 X46.219 Y59.573 E17.86152
G1 X46.271 Y58.712 E17.90545
G1 X46.379 Y57.856 E17.94939
G1 X46.544 Y56.993 E17.99414
G1 X46.765 Y56.136 E18.03921
G1 X47.033 Y55.314 E18.08324
G1 X47.357 Y54.5 E18.12786
G1 X47.743 Y53.688 E18.17365
G1 X48.157 Y52.939 E18.21724
G1 X48.642 Y52.183 E18.26298
G1 X49.156 Y51.483 E18.30721
G1 X49.692 Y50.844 E18.34969
G1 X49.914 Y50.61 E18.36612
G0 F1620 X50.211 Y50.297
G0 X50.211 Y50.209
G0 F4320 X49.956 Y50.209
G0 X48.492 Y52.059
G0 X47.568 Y53.604
G0 X46.855 Y55.235
G0 X46.355 Y56.946
G0 X46.078 Y58.689
G0 X46.027 Y60.458
G0 X46.191 Y62.192
G0 X46.589 Y63.951
G0 X47.205 Y65.634
G0 X48.018 Y67.207
G0 X49.032 Y68.67
G0 X49.928 Y69.838
G0 X50.369 Y69.673
G1 F1800 X50.21 Y69.514 E18.37757
G0 F4320 X49.895 Y69.78
G0 X48.161 Y67.54
G0 X48.508 Y67.317
G1 F1800 X52.682 Y71.492 E18.67824
G1 X52.744 Y71.554
G0 F4320 X52.538 Y71.887
G0 X53.644 Y72.516
G0 X53.839 Y72.153
G1 F1800 X47.843 Y66.157 E19.1101
G1 X47.781 Y66.095
G0 F4320 X47.426 Y65.245
G1 F1800 X54.76 Y72.579 E19.63834
G1 X54.822 Y72.641
G0 F4320 X55.56 Y72.884
G1 F1800 X47.121 Y64.445 E20.24616
G1 X47.059 Y64.383
G0 F4320 X46.891 Y63.72
G1 F1800 X56.276 Y73.105 E20.92212
G0 F4320 X56.939 Y73.273
G1 F1800 X46.715 Y63.049 E21.6585
G0 F4320 X46.595 Y62.434
G1 F1800 X57.561 Y73.4 E22.44833
G0 F4320 X58.153 Y73.497
G1 F1800 X46.502 Y61.846 E23.2875
G0 F4320 X46.43 Y61.279
G1 F1800 X58.709 Y73.558 E24.1719
G0 F4320 X59.242 Y73.597
G1 F1800 X46.397 Y60.751 E25.0971
G0 F4320 X46.377 Y60.237
G1 F1800 X59.763 Y73.623 E26.06123
G0 F4320 X60.253 Y73.617
G1 F1800 X46.376 Y59.74 E27.06073
G0 F4320 X46.394 Y59.264
G1 F1800 X60.735 Y73.604 E28.0936
G0 F4320 X61.194 Y73.568
G1 F1800 X46.422 Y58.797 E29.15753
G0 F4320 X46.474 Y58.353
G1 F1800 X61.644 Y73.523 E30.25015
G0 F4320 X62.076 Y73.461
G1 F1800 X46.529 Y57.914 E31.36993
G0 F4320 X46.606 Y57.496
G1 F1800 X62.501 Y73.39 E32.51473
G0 F4320 X62.909 Y73.304
G1 F1800 X46.686 Y57.08 E33.68324
G0 F4320 X46.785 Y56.684
G1 F1800 X63.312 Y73.212 E34.87363
G0 F4320 X63.7 Y73.104
G1 F1800 X46.886 Y56.29 E36.08467
G0 F4320 X47.002 Y55.911
G1 F1800 X64.087 Y72.996 E37.31522
G0 F4320 X64.455 Y72.87
G1 F1800 X47.123 Y55.538 E38.56356
G0 F4320 X47.255 Y55.175
G1 F1800 X64.823 Y72.742 E39.82887
G0 F4320 X65.173 Y72.597
G1 F1800 X47.397 Y54.821 E41.10919
G0 F4320 X47.543 Y54.472
G1 F1800 X65.521 Y72.451 E42.4041
G0 F4320 X65.859 Y72.293
G1 F1800 X47.702 Y54.136 E43.71186
G0 F4320 X47.861 Y53.8
G1 F1800 X66.19 Y72.129 E45.03201
G0 F4320 X66.517 Y71.962
G1 F1800 X48.035 Y53.48 E46.36318
G0 F4320 X48.211 Y53.161
G1 F1800 X66.831 Y71.781 E47.70429
G0 F4320 X67.144 Y71.599
G1 F1800 X48.397 Y52.852 E49.05455
G0 F4320 X48.59 Y52.55
G1 F1800 X67.443 Y71.403 E50.41245
G0 F4320 X67.74 Y71.205
G1 F1800 X48.786 Y52.25 E51.77765
G0 F4320 X48.995 Y51.965
G1 F1800 X68.031 Y71.001 E53.14872
G0 F4320 X68.312 Y70.787
G1 F1800 X49.205 Y51.68 E54.52491
G0 F4320 X49.425 Y51.405
G1 F1800 X68.592 Y70.572 E55.90542
G0 F4320 X68.857 Y70.342
G1 F1800 X49.65 Y51.135 E57.28881
G0 F4320 X49.881 Y50.871
G1 F1800 X69.121 Y70.111 E58.67458
G0 F4320 X69.386 Y69.881
G1 F1800 X50.122 Y50.617 E60.06207
G0 F4320 X50.363 Y50.363
G1 F1800 X69.643 Y69.643 E61.45072
G0 F4320 X69.877 Y69.382
G1 F1800 X50.617 Y50.122 E62.83793
G0 F4320 X50.874 Y49.884
G1 F1800 X70.111 Y69.121 E64.22348
G0 F4320 X70.344 Y68.859
G1 F1800 X51.134 Y49.649 E65.60708
G0 F4320 X51.408 Y49.428
G1 F1800 X70.568 Y68.588 E66.98709
G0 F4320 X70.786 Y68.311
G1 F1800 X51.681 Y49.206 E68.36313
G0 F4320 X51.968 Y48.998
G1 F1800 X71.002 Y68.032 E69.73406
G0 F4320 X71.204 Y67.739
G1 F1800 X52.256 Y48.791 E71.0988
