;FLAVOR:Marlin
;TIME:8615
;Filament used: 14.2324m
;Layer height: 0.35
;MINX:34.2
;MINY:38.7
;MINZ:0.35
;MAXX:86.665
;MAXY:82.165
;MAXZ:119
;Generated with Cura_SteamEngine mb-master-20191108
M140 S65
M105
M190 S65
M104 S205
M105
M109 S205
M82 ;absolute extrusion mode
G21;(metric values)
G90;(absolute positioning)
M82;(set extruder to absolute mode)
M107;(start with the fan off)
G28;(Home the printer)
G92 E0;(Reset the extruder to 0)
G0 Z5 E5 F500;(Move up and prime the nozzle)
G0 X-1 Z0;(Move outside the printable area)
G1 Y60 E8 F500;(Draw a priming/wiping line to the rear)
G1 X-1;(Move a little closer to the print area)
G1 Y10 E16 F500;(draw more priming/wiping)
G1 E15 F250;(Small retract)
G92 E0;(Zero the extruder)
G92 E0
G92 E0
G1 F2400 E-2.5
;LAYER_COUNT:340
;LAYER:0
M107
;MESH:sign-post.stl
G0 F4320 X35.226 Y39.625 Z0.35
;TYPE:WALL-INNER
G1 F2400 E0
G1 F1800 X35.226 Y39.675 E0.00255
G1 X35.225 Y80.2 E2.06647
G1 X35.225 Y80.375 E2.07538
G1 X35.4 Y80.375 E2.07761
G1 X84.774 Y80.375 E4.59221
G1 X84.774 Y80.325 E4.59475
G1 X84.777 Y39.8 E6.65867
G1 X84.777 Y39.625 E6.66759
G1 X84.602 Y39.625 E6.66981
G1 X35.226 Y39.625 E9.18451
G0 F4320 X84.305 Y40.097
G0 X85.125 Y80.625
G1 F1800 X84.824 Y80.625 E9.19984
G1 X84.774 Y80.625 E9.20168
G1 X35.225 Y80.625 E11.72519
G1 X34.875 Y80.625 E11.74302
G1 X34.875 Y39.375 E13.84386
G1 X35.176 Y39.375 E13.85919
G1 X35.226 Y39.375 E13.86103
G1 X84.777 Y39.375 E16.38464
G1 X85.125 Y39.375 E16.40236
G1 X85.125 Y80.105 E18.47672
G0 F1620 X85.125 Y80.625
G0 F4320 X85.475 Y80.975
G1 F1800 X34.525 Y80.975 E21.07159
G1 X34.525 Y39.025 E23.20808
G1 X85.475 Y39.025 E25.80295
G1 X85.475 Y80.455 E27.91296
G0 F1620 X85.475 Y80.975
G0 F4320 X35.575 Y80.025
G1 F1800 X35.75 Y80.025 E27.92187
G1 X84.424 Y80.025 E30.40082
G1 X84.427 Y40.15 E32.43163
G1 X84.427 Y39.975 E32.44055
G1 X84.252 Y39.975 E32.44277
G1 X35.576 Y39.975 E34.92182
G1 X35.575 Y79.85 E36.95264
G1 X35.575 Y80.025 E36.95487
G0 F4320 X35.9 Y79.7
;TYPE:WALL-OUTER
G1 F1800 X36.075 Y79.7 E36.96378
G1 X84.099 Y79.7 E39.40962
G1 X84.102 Y40.475 E41.40734
G1 X84.102 Y40.3 E41.41625
G1 X83.927 Y40.3 E41.41848
G1 X35.901 Y40.3 E43.86442
G1 X35.9 Y79.525 E45.86213
G1 X35.9 Y79.7 E45.86436
G0 F4320 X36.075 Y79.7
G0 X36.1 Y79.7
G0 X36.1 Y79.975
G0 X85.555 Y81.055
G0 X85.8 Y81.3
M104 S200
G1 F1800 X34.2 Y81.3 E48.49233
G1 X34.2 Y38.7 E50.66193
G1 X85.8 Y38.7 E53.2899
G1 X85.8 Y80.78 E55.43301
G0 F1620 X85.8 Y81.3
G0 F4320 X85.6 Y81.3
G0 X85.275 Y80.775
;MESH:NONMESH
G0 F600 X85.275 Y80.775 Z0.7
G0 F4320 X35.254 Y80.375
;TIME_ELAPSED:67.315674
;LAYER:1
M140 S60
M106 S255
;TYPE:WALL-INNER
;MESH:sign-post.stl
G1 F2400 X84.745 Y80.375 E57.95357
G1 X84.745 Y80.325 E57.95611
G1 X84.746 Y39.8 E60.02004
G1 X84.746 Y39.625 E60.02895
G1 X84.571 Y39.625 E60.03118
G1 X35.255 Y39.625 E62.54282
G1 X35.255 Y39.675 E62.54537
G1 X35.254 Y79.855 E64.59172
G0 F2160 X35.254 Y80.375
G0 F5760 X85.125 Y80.625
G1 F2400 X84.795 Y80.625 E64.60852
G1 X84.745 Y80.625 E64.61036
G1 X35.254 Y80.625 E66.41076
G1 X34.875 Y80.625 E66.43006
G1 X34.875 Y39.375 E68.53091
G1 X35.205 Y39.375 E68.54771
G1 X35.255 Y39.375 E68.54955
G1 X84.746 Y39.375 E71.07011
G1 X85.125 Y39.375 E71.08941
G1 X85.125 Y80.105 E73.16377
G0 F2160 X85.125 Y80.625
G0 F5760 X85.475 Y80.975
G1 F2400 X34.525 Y80.975 E75.75863
G1 X34.525 Y39.025 E77.89513
G1 X85.475 Y39.025 E80.48999
G1 X85.475 Y80.455 E82.6
G0 F2160 X85.475 Y80.975
G0 F5760 X35.604 Y80.025
G1 F2400 X35.779 Y80.025 E82.60892
G1 X84.395 Y80.025 E85.08491
G1 X84.396 Y40.15 E87.11573
G1 X84.396 Y39.975 E87.12464
G1 X84.221 Y39.975 E87.12687
G1 X35.605 Y39.975 E89.60286
G1 X35.604 Y79.85 E91.63368
G1 X35.604 Y80.025 E91.6359
G0 F5760 X35.929 Y79.7
;TYPE:WALL-OUTER
G1 F2025 X36.104 Y79.7 E91.64482
G1 X84.07 Y79.7 E94.0877
G1 X84.071 Y40.475 E96.08542
G1 X84.071 Y40.3 E96.09433
G1 X83.896 Y40.3 E96.09656
G1 X35.93 Y40.3 E98.53945
G1 X35.929 Y79.525 E100.53716
G1 X35.929 Y79.7 E100.53939
G0 F5760 X36.104 Y79.7
G0 X36.129 Y79.7
G0 X36.129 Y79.975
G0 X85.555 Y81.055
G0 X85.8 Y81.3
G1 F2025 X34.2 Y81.3 E103.16735
G1 X34.2 Y38.7 E105.33695
G1 X85.8 Y38.7 E107.96492
G1 X85.8 Y80.78 E110.10804
G0 F1822.5 X85.8 Y81.3
G0 F5760 X85.6 Y81.3
G0 X85.6 Y81.025
G0 X84.831 Y80.419
G0 X84.902 Y80.419
;TYPE:SKIN
G1 F1500 X84.966 Y80.354 E110.11268
G0 F5760 X84.902 Y79.924
G1 F1500 X84.966 Y79.859 E110.11733
G0 F5760 X84.902 Y79.429
G1 F1500 X84.966 Y79.364 E110.12198
G0 F5760 X84.902 Y78.934
G1 F1500 X84.966 Y78.869 E110.12662
G0 F5760 X84.902 Y78.439
G1 F1500 X84.966 Y78.375 E110.13123
G0 F5760 X84.902 Y77.944
G1 F1500 X84.966 Y77.88 E110.13584
G0 F5760 X84.902 Y77.449
G1 F1500 X84.966 Y77.385 E110.14045
G0 F5760 X84.902 Y76.954
G1 F1500 X84.966 Y76.89 E110.14506
G0 F5760 X84.902 Y76.459
G1 F1500 X84.966 Y76.395 E110.14967
G0 F5760 X84.902 Y75.964
G1 F1500 X84.966 Y75.9 E110.15428
G0 F5760 X84.902 Y75.469
G1 F1500 X84.966 Y75.405 E110.15889
G0 F5760 X84.902 Y74.974
G1 F1500 X84.966 Y74.91 E110.1635
G0 F5760 X84.902 Y74.479
G1 F1500 X84.966 Y74.415 E110.16811
G0 F5760 X84.902 Y73.984
G1 F1500 X84.966 Y73.92 E110.17272
G0 F5760 X84.902 Y73.489
G1 F1500 X84.966 Y73.425 E110.17733
G0 F5760 X84.902 Y72.994
G1 F1500 X84.966 Y72.93 E110.18194
G0 F5760 X84.902 Y72.499
G1 F1500 X84.966 Y72.435 E110.18655
G0 F5760 X84.902 Y72.004
G1 F1500 X84.966 Y71.94 E110.19116
G0 F5760 X84.902 Y71.509
G1 F1500 X84.966 Y71.445 E110.19577
G0 F5760 X84.902 Y71.014
G1 F1500 X84.966 Y70.95 E110.20037
G0 F5760 X84.902 Y70.519
G1 F1500 X84.966 Y70.455 E110.20498
G0 F5760 X84.902 Y70.024
G1 F1500 X84.966 Y69.96 E110.20959
G0 F5760 X84.902 Y69.529
G1 F1500 X84.966 Y69.465 E110.2142
G0 F5760 X84.902 Y69.034
G1 F1500 X84.966 Y68.97 E110.21881
G0 F5760 X84.902 Y68.539
G1 F1500 X84.966 Y68.475 E110.22342
G0 F5760 X84.902 Y68.044
G1 F1500 X84.966 Y67.98 E110.22803
G0 F5760 X84.902 Y67.549
G1 F1500 X84.966 Y67.485 E110.23264
G0 F5760 X84.902 Y67.054
G1 F1500 X84.966 Y66.99 E110.23725
G0 F5760 X84.902 Y66.559
G1 F1500 X84.966 Y66.495 E110.24186
G0 F5760 X84.902 Y66.064
G1 F1500 X84.966 Y66 E110.24647
G0 F5760 X84.902 Y65.57
G1 F1500 X84.966 Y65.505 E110.25112
G0 F5760 X84.902 Y65.075
G1 F1500 X84.966 Y65.01 E110.25576
G0 F5760 X84.902 Y64.58
G1 F1500 X84.966 Y64.515 E110.26041
G0 F5760 X84.902 Y64.085
G1 F1500 X84.966 Y64.02 E110.26505
G0 F5760 X84.902 Y63.59
G1 F1500 X84.966 Y63.525 E110.2697
G0 F5760 X84.902 Y63.095
G1 F1500 X84.966 Y63.03 E110.27435
G0 F5760 X84.902 Y62.6
G1 F1500 X84.966 Y62.535 E110.27899
G0 F5760 X84.902 Y62.105
G1 F1500 X84.966 Y62.04 E110.28364
G0 F5760 X84.902 Y61.61
G1 F1500 X84.966 Y61.545 E110.28828
G0 F5760 X84.902 Y61.115
G1 F1500 X84.966 Y61.05 E110.29293
G0 F5760 X84.902 Y60.62
G1 F1500 X84.966 Y60.555 E110.29757
G0 F5760 X84.902 Y60.125
G1 F1500 X84.966 Y60.06 E110.30222
G0 F5760 X84.902 Y59.63
G1 F1500 X84.966 Y59.565 E110.30687
G0 F5760 X84.902 Y59.135
G1 F1500 X84.966 Y59.07 E110.31151
G0 F5760 X84.902 Y58.64
G1 F1500 X84.966 Y58.576 E110.31612
G0 F5760 X84.902 Y58.145
G1 F1500 X84.966 Y58.081 E110.32073
G0 F5760 X84.902 Y57.65
G1 F1500 X84.966 Y57.586 E110.32534
G0 F5760 X84.902 Y57.155
G1 F1500 X84.966 Y57.091 E110.32995
G0 F5760 X84.902 Y56.66
G1 F1500 X84.966 Y56.596 E110.33456
G0 F5760 X84.902 Y56.165
G1 F1500 X84.966 Y56.101 E110.33917
G0 F5760 X84.902 Y55.67
G1 F1500 X84.966 Y55.606 E110.34378
G0 F5760 X84.902 Y55.175
G1 F1500 X84.966 Y55.111 E110.34839
G0 F5760 X84.902 Y54.68
G1 F1500 X84.966 Y54.616 E110.353
G0 F5760 X84.902 Y54.185
G1 F1500 X84.966 Y54.121 E110.35761
G0 F5760 X84.902 Y53.69
G1 F1500 X84.966 Y53.626 E110.36222
G0 F5760 X84.902 Y53.195
G1 F1500 X84.966 Y53.131 E110.36683
G0 F5760 X84.902 Y52.7
G1 F1500 X84.966 Y52.636 E110.37144
G0 F5760 X84.902 Y52.205
G1 F1500 X84.966 Y52.141 E110.37605
G0 F5760 X84.902 Y51.71
G1 F1500 X84.966 Y51.646 E110.38066
G0 F5760 X84.902 Y51.215
G1 F1500 X84.966 Y51.151 E110.38527
G0 F5760 X84.902 Y50.72
G1 F1500 X84.966 Y50.656 E110.38988
G0 F5760 X84.902 Y50.225
G1 F1500 X84.966 Y50.161 E110.39448
G0 F5760 X84.902 Y49.73
G1 F1500 X84.966 Y49.666 E110.39909
G0 F5760 X84.902 Y49.235
G1 F1500 X84.966 Y49.171 E110.4037
G0 F5760 X84.902 Y48.74
G1 F1500 X84.966 Y48.676 E110.40831
G0 F5760 X84.902 Y48.245
G1 F1500 X84.966 Y48.181 E110.41292
G0 F5760 X84.902 Y47.75
G1 F1500 X84.966 Y47.686 E110.41753
G0 F5760 X84.902 Y47.255
G1 F1500 X84.966 Y47.191 E110.42214
G0 F5760 X84.902 Y46.76
G1 F1500 X84.966 Y46.696 E110.42675
G0 F5760 X84.902 Y46.265
G1 F1500 X84.966 Y46.201 E110.43136
G0 F5760 X84.902 Y45.771
G1 F1500 X84.966 Y45.706 E110.43601
G0 F5760 X84.902 Y45.276
G1 F1500 X84.966 Y45.211 E110.44065
G0 F5760 X84.902 Y44.781
G1 F1500 X84.966 Y44.716 E110.4453
G0 F5760 X84.902 Y44.286
G1 F1500 X84.966 Y44.221 E110.44995
G0 F5760 X84.902 Y43.791
G1 F1500 X84.966 Y43.726 E110.45459
G0 F5760 X84.902 Y43.296
G1 F1500 X84.966 Y43.231 E110.45924
G0 F5760 X84.902 Y42.801
G1 F1500 X84.966 Y42.736 E110.46388
G0 F5760 X84.902 Y42.306
G1 F1500 X84.966 Y42.241 E110.46853
G0 F5760 X84.902 Y41.811
G1 F1500 X84.966 Y41.746 E110.47317
G0 F5760 X84.902 Y41.316
G1 F1500 X84.966 Y41.251 E110.47782
G0 F5760 X84.902 Y40.821
G1 F1500 X84.966 Y40.756 E110.48247
G0 F5760 X84.902 Y40.326
G1 F1500 X84.966 Y40.261 E110.48711
G0 F5760 X84.902 Y39.831
G1 F1500 X84.966 Y39.766 E110.49176
G0 F5760 X85.04 Y39.766
G0 X35.169 Y39.643
G0 X35.097 Y39.643
G1 F1500 X35.032 Y39.708 E110.49644
G0 F5760 X35.097 Y40.138
G1 F1500 X35.032 Y40.203 E110.50112
G0 F5760 X35.097 Y40.633
G1 F1500 X35.032 Y40.698 E110.5058
G0 F5760 X35.097 Y41.128
G1 F1500 X35.032 Y41.193 E110.51048
G0 F5760 X35.097 Y41.623
G1 F1500 X35.032 Y41.688 E110.51517
G0 F5760 X35.097 Y42.118
G1 F1500 X35.032 Y42.183 E110.51985
G0 F5760 X35.097 Y42.613
G1 F1500 X35.032 Y42.678 E110.52453
G0 F5760 X35.097 Y43.108
G1 F1500 X35.032 Y43.173 E110.52921
G0 F5760 X35.097 Y43.603
G1 F1500 X35.032 Y43.668 E110.53389
G0 F5760 X35.097 Y44.098
G1 F1500 X35.032 Y44.163 E110.53857
G0 F5760 X35.097 Y44.593
G1 F1500 X35.032 Y44.658 E110.54326
G0 F5760 X35.097 Y45.088
G1 F1500 X35.032 Y45.153 E110.54794
G0 F5760 X35.097 Y45.583
G1 F1500 X35.032 Y45.648 E110.55262
G0 F5760 X35.097 Y46.078
G1 F1500 X35.032 Y46.143 E110.5573
G0 F5760 X35.097 Y46.573
G1 F1500 X35.032 Y46.638 E110.56198
G0 F5760 X35.097 Y47.068
G1 F1500 X35.032 Y47.133 E110.56666
G0 F5760 X35.097 Y47.563
G1 F1500 X35.032 Y47.628 E110.57134
G0 F5760 X35.097 Y48.058
G1 F1500 X35.032 Y48.123 E110.57603
G0 F5760 X35.097 Y48.553
G1 F1500 X35.032 Y48.618 E110.58071
G0 F5760 X35.097 Y49.048
G1 F1500 X35.032 Y49.113 E110.58539
G0 F5760 X35.097 Y49.543
G1 F1500 X35.032 Y49.608 E110.59007
G0 F5760 X35.097 Y50.038
G1 F1500 X35.032 Y50.103 E110.59475
G0 F5760 X35.097 Y50.533
G1 F1500 X35.032 Y50.598 E110.59943
G0 F5760 X35.097 Y51.028
G1 F1500 X35.032 Y51.093 E110.60412
G0 F5760 X35.097 Y51.523
G1 F1500 X35.032 Y51.588 E110.6088
G0 F5760 X35.097 Y52.018
G1 F1500 X35.032 Y52.083 E110.61348
G0 F5760 X35.097 Y52.513
G1 F1500 X35.032 Y52.578 E110.61816
G0 F5760 X35.097 Y53.008
G1 F1500 X35.032 Y53.073 E110.62284
G0 F5760 X35.097 Y53.503
G1 F1500 X35.032 Y53.568 E110.62752
G0 F5760 X35.097 Y53.998
G1 F1500 X35.032 Y54.063 E110.63221
G0 F5760 X35.097 Y54.493
G1 F1500 X35.032 Y54.558 E110.63689
G0 F5760 X35.097 Y54.988
G1 F1500 X35.032 Y55.053 E110.64157
G0 F5760 X35.097 Y55.483
G1 F1500 X35.032 Y55.548 E110.64625
G0 F5760 X35.097 Y55.978
G1 F1500 X35.032 Y56.043 E110.65093
G0 F5760 X35.097 Y56.473
G1 F1500 X35.032 Y56.538 E110.65561
G0 F5760 X35.097 Y56.968
G1 F1500 X35.032 Y57.033 E110.6603
G0 F5760 X35.097 Y57.463
G1 F1500 X35.032 Y57.528 E110.66498
G0 F5760 X35.097 Y57.958
G1 F1500 X35.032 Y58.023 E110.66966
G0 F5760 X35.097 Y58.452
G1 F1500 X35.032 Y58.518 E110.67438
G0 F5760 X35.097 Y58.947
G1 F1500 X35.032 Y59.013 E110.6791
G0 F5760 X35.097 Y59.442
G1 F1500 X35.032 Y59.507 E110.68378
G0 F5760 X35.097 Y59.937
G1 F1500 X35.032 Y60.002 E110.68846
G0 F5760 X35.096 Y60.433
G1 F1500 X35.032 Y60.497 E110.69307
G0 F5760 X35.096 Y60.928
G1 F1500 X35.032 Y60.992 E110.69768
G0 F5760 X35.096 Y61.423
G1 F1500 X35.032 Y61.487 E110.70229
G0 F5760 X35.096 Y61.918
G1 F1500 X35.032 Y61.982 E110.7069
G0 F5760 X35.096 Y62.413
G1 F1500 X35.032 Y62.477 E110.71151
G0 F5760 X35.096 Y62.908
G1 F1500 X35.032 Y62.972 E110.71612
G0 F5760 X35.096 Y63.403
G1 F1500 X35.032 Y63.467 E110.72073
G0 F5760 X35.096 Y63.898
G1 F1500 X35.032 Y63.962 E110.72534
G0 F5760 X35.096 Y64.393
G1 F1500 X35.032 Y64.457 E110.72994
G0 F5760 X35.096 Y64.888
G1 F1500 X35.032 Y64.952 E110.73455
G0 F5760 X35.096 Y65.383
G1 F1500 X35.032 Y65.447 E110.73916
G0 F5760 X35.096 Y65.878
G1 F1500 X35.032 Y65.942 E110.74377
G0 F5760 X35.096 Y66.373
G1 F1500 X35.032 Y66.437 E110.74838
G0 F5760 X35.096 Y66.868
G1 F1500 X35.032 Y66.932 E110.75299
G0 F5760 X35.096 Y67.363
G1 F1500 X35.032 Y67.427 E110.7576
G0 F5760 X35.096 Y67.858
G1 F1500 X35.032 Y67.922 E110.76221
G0 F5760 X35.096 Y68.353
G1 F1500 X35.032 Y68.417 E110.76682
G0 F5760 X35.096 Y68.848
G1 F1500 X35.032 Y68.912 E110.77143
G0 F5760 X35.096 Y69.343
G1 F1500 X35.032 Y69.407 E110.77604
G0 F5760 X35.096 Y69.838
G1 F1500 X35.032 Y69.902 E110.78065
G0 F5760 X35.096 Y70.333
G1 F1500 X35.032 Y70.397 E110.78526
G0 F5760 X35.096 Y70.828
G1 F1500 X35.032 Y70.892 E110.78987
G0 F5760 X35.096 Y71.323
G1 F1500 X35.032 Y71.387 E110.79448
G0 F5760 X35.096 Y71.818
G1 F1500 X35.032 Y71.882 E110.79909
G0 F5760 X35.096 Y72.312
G1 F1500 X35.032 Y72.377 E110.80373
G0 F5760 X35.096 Y72.807
G1 F1500 X35.032 Y72.872 E110.80838
G0 F5760 X35.096 Y73.302
G1 F1500 X35.032 Y73.367 E110.81303
G0 F5760 X35.096 Y73.797
G1 F1500 X35.032 Y73.862 E110.81767
G0 F5760 X35.096 Y74.292
G1 F1500 X35.032 Y74.357 E110.82232
G0 F5760 X35.096 Y74.787
G1 F1500 X35.032 Y74.852 E110.82696
G0 F5760 X35.096 Y75.282
G1 F1500 X35.032 Y75.347 E110.83161
G0 F5760 X35.096 Y75.777
G1 F1500 X35.032 Y75.842 E110.83626
G0 F5760 X35.096 Y76.272
G1 F1500 X35.032 Y76.337 E110.8409
G0 F5760 X35.096 Y76.767
G1 F1500 X35.032 Y76.832 E110.84555
G0 F5760 X35.096 Y77.262
G1 F1500 X35.032 Y77.327 E110.85019
G0 F5760 X35.096 Y77.757
G1 F1500 X35.032 Y77.822 E110.85484
G0 F5760 X35.096 Y78.252
G1 F1500 X35.032 Y78.317 E110.85948
G0 F5760 X35.096 Y78.747
G1 F1500 X35.032 Y78.812 E110.86413
G0 F5760 X35.096 Y79.242
G1 F1500 X35.032 Y79.306 E110.86874
G0 F5760 X35.096 Y79.737
G1 F1500 X35.032 Y79.801 E110.87335
G0 F5760 X35.096 Y80.232
G1 F1500 X35.032 Y80.296 E110.87796
G0 F5760 X34.725 Y80.296
;MESH:NONMESH
G0 F600 X34.725 Y80.296 Z1.05
G0 F5760 X35.032 Y39.532
G0 X35.285 Y39.625
;TIME_ELAPSED:106.516050
;LAYER:2
;TYPE:WALL-INNER
;MESH:sign-post.stl
G1 F3000 X35.285 Y39.675 E110.88051
G1 X35.284 Y80.2 E112.94443
G1 X35.284 Y80.375 E112.95334
G1 X35.459 Y80.375 E112.95557
G1 X84.715 Y80.375 E115.46416
G1 X84.715 Y80.325 E115.4667
G1 X84.716 Y39.8 E117.53062
G1 X84.716 Y39.625 E117.53954
G1 X84.541 Y39.625 E117.54176
G1 X35.285 Y39.625 E120.05035
G0 F7200 X84.244 Y40.097
G0 X84.872 Y80.468
G0 X85.125 Y80.625
G1 F3000 X84.765 Y80.625 E120.06869
G1 X84.715 Y80.625 E120.07052
G1 X35.284 Y80.625 E122.58802
G1 X34.875 Y80.625 E122.60885
G1 X34.875 Y39.375 E124.7097
G1 X35.235 Y39.375 E124.72803
G1 X35.285 Y39.375 E124.72987
G1 X84.716 Y39.375 E127.24737
G1 X85.125 Y39.375 E127.2682
G1 X85.125 Y80.105 E129.34256
G0 F2700 X85.125 Y80.625
G0 F7200 X85.475 Y80.975
G1 F3000 X34.525 Y80.975 E131.93742
G1 X34.525 Y39.025 E134.07392
G1 X85.475 Y39.025 E136.66878
G1 X85.475 Y80.455 E138.7788
G0 F2700 X85.475 Y80.975
G0 F7200 X35.634 Y80.025
G1 F3000 X35.809 Y80.025 E138.78771
G1 X84.365 Y80.025 E141.26064
G1 X84.366 Y40.15 E143.29146
G1 X84.366 Y39.975 E143.30037
G1 X84.191 Y39.975 E143.3026
G1 X35.635 Y39.975 E145.77554
G1 X35.634 Y79.85 E147.80636
G1 X35.634 Y80.025 E147.80859
G0 F7200 X35.959 Y79.7
;TYPE:WALL-OUTER
G1 F2250 X36.134 Y79.7 E147.8175
G1 X84.04 Y79.7 E150.25733
G1 X84.041 Y40.475 E152.25504
G1 X84.041 Y40.3 E152.26396
G1 X83.866 Y40.3 E152.26618
G1 X35.96 Y40.3 E154.70602
G1 X35.959 Y79.525 E156.70373
G1 X35.959 Y79.7 E156.70596
G0 F7200 X36.134 Y79.7
G0 X36.159 Y79.7
G0 X36.159 Y79.975
G0 X85.555 Y81.055
