;FLAVOR:Marlin
;TIME:1182
;Filament used: 1.48129m
;Layer height: 0.35
;MINX:44.704
;MINY:44.702
;MINZ:0.35
;MAXX:75.296
;MAXY:75.298
;MAXZ:29.75
;Generated with Cura_SteamEngine mb-master-20191108
M140 S65
M105
M190 S65
M104 S205
M105
M109 S205
M82 ;absolute extrusion mode
G21;(metric values)
G90;(absolute positioning)
M82;(set extruder to absolute mode)
M107;(start with the fan off)
G28;(Home the printer)
G92 E0;(Reset the extruder to 0)
G0 Z5 E5 F500;(Move up and prime the nozzle)
G0 X-1 Z0;(Move outside the printable area)
G1 Y60 E8 F500;(Draw a priming/wiping line to the rear)
G1 X-1;(Move a little closer to the print area)
G1 Y10 E16 F500;(draw more priming/wiping)
G1 E15 F250;(Small retract)
G92 E0;(Zero the extruder)
G92 E0
G92 E0
G1 F2400 E-2.5
;LAYER_COUNT:85
;LAYER:0
M107
;MESH:sign-post.stl
G0 F4320 X61.611 Y74.535 Z0.35
;TYPE:WALL-INNER
G1 F2400 E0
G1 F1800 X60.699 Y74.607 E0.04659
G1 X59.779 Y74.623 E0.09345
G1 X58.826 Y74.576 E0.14205
G1 X57.916 Y74.475 E0.18868
G1 X56.984 Y74.311 E0.23688
G1 X56.097 Y74.097 E0.28335
G1 X55.229 Y73.827 E0.32964
G1 X54.35 Y73.49 E0.37759
G1 X53.485 Y73.096 E0.426
G1 X52.681 Y72.664 E0.47248
G1 X51.903 Y72.182 E0.51909
G1 X51.12 Y71.623 E0.56809
G1 X50.423 Y71.056 E0.61385
G1 X49.728 Y70.415 E0.662
G1 X49.111 Y69.767 E0.70757
G1 X48.511 Y69.053 E0.75507
G1 X47.95 Y68.291 E0.80326
G1 X47.458 Y67.53 E0.84941
G1 X46.996 Y66.698 E0.89788
G1 X46.607 Y65.88 E0.94401
G1 X46.255 Y65.003 E0.99214
G1 X45.973 Y64.142 E1.03828
G1 X45.733 Y63.221 E1.08676
G1 X45.553 Y62.294 E1.13485
G1 X45.439 Y61.404 E1.18055
G1 X45.381 Y60.481 E1.22765
G1 X45.379 Y59.53 E1.27608
G1 X45.435 Y58.616 E1.32272
G1 X45.548 Y57.728 E1.36831
G1 X45.725 Y56.804 E1.41622
G1 X45.963 Y55.885 E1.46457
G1 X46.247 Y55.015 E1.51118
G1 X46.596 Y54.142 E1.55906
G1 X46.994 Y53.304 E1.60631
G1 X47.451 Y52.481 E1.65426
G1 X47.94 Y51.721 E1.70028
G1 X48.492 Y50.968 E1.74783
G1 X49.076 Y50.273 E1.79407
G1 X49.74 Y49.574 E1.84317
G1 X50.423 Y48.944 E1.89049
G1 X51.123 Y48.374 E1.93647
G1 X51.905 Y47.817 E1.98536
G1 X52.681 Y47.336 E2.03186
G1 X53.485 Y46.904 E2.07834
G1 X54.35 Y46.51 E2.12675
G1 X55.229 Y46.173 E2.1747
G1 X56.098 Y45.903 E2.22104
G1 X56.984 Y45.689 E2.26746
G1 X57.916 Y45.525 E2.31566
G1 X58.826 Y45.424 E2.36229
G1 X59.779 Y45.377 E2.41088
G1 X60.699 Y45.393 E2.45775
G1 X61.611 Y45.465 E2.50434
G1 X62.532 Y45.598 E2.55173
G1 X63.454 Y45.791 E2.59971
G1 X64.339 Y46.035 E2.64646
G1 X65.212 Y46.337 E2.69351
G1 X66.073 Y46.698 E2.74106
G1 X66.905 Y47.11 E2.78834
G1 X67.695 Y47.566 E2.8348
G1 X68.474 Y48.085 E2.88247
G1 X69.226 Y48.656 E2.93056
G1 X69.918 Y49.255 E2.97717
G1 X70.58 Y49.907 E3.02449
G1 X71.187 Y50.585 E3.07084
G1 X71.765 Y51.319 E3.11842
G1 X72.296 Y52.09 E3.1661
G1 X72.761 Y52.865 E3.21213
G1 X73.199 Y53.71 E3.2606
G1 X73.569 Y54.556 E3.30763
G1 X73.884 Y55.42 E3.35447
G1 X74.155 Y56.342 E3.40341
G1 X74.351 Y57.215 E3.44898
G1 X74.502 Y58.153 E3.49737
G1 X74.588 Y59.035 E3.5425
G1 X74.62 Y59.982 E3.59076
G1 X74.591 Y60.92 E3.63855
G1 X74.505 Y61.829 E3.68505
G1 X74.357 Y62.763 E3.73321
G1 X74.155 Y63.662 E3.78014
G1 X73.899 Y64.539 E3.82667
G1 X73.578 Y65.423 E3.87457
G1 X73.207 Y66.274 E3.92185
G1 X72.786 Y67.092 E3.9687
G1 X72.307 Y67.893 E4.01624
G1 X71.784 Y68.656 E4.06335
G1 X71.201 Y69.398 E4.11141
G1 X70.583 Y70.09 E4.15866
G1 X69.925 Y70.738 E4.20569
G1 X69.226 Y71.344 E4.25281
G1 X68.474 Y71.915 E4.3009
G1 X67.697 Y72.433 E4.34846
G1 X66.905 Y72.89 E4.39503
G1 X66.073 Y73.302 E4.44231
G1 X65.213 Y73.663 E4.48981
G1 X64.339 Y73.965 E4.53691
G1 X63.454 Y74.209 E4.58366
G1 X62.532 Y74.402 E4.63164
G1 X62.125 Y74.461 E4.65258
G0 F1620 X61.611 Y74.535
G0 F4320 X64.29 Y73.828
G0 X66.017 Y73.167
G0 X67.615 Y72.312
G0 X69.132 Y71.234
G0 X70.481 Y69.985
G0 X71.093 Y69.3
G0 X72.187 Y67.809
G0 X73.073 Y66.217
G0 X73.759 Y64.499
G0 X74.213 Y62.741
G0 X74.445 Y60.915
G0 X74.442 Y59.039
G0 X74.209 Y57.249
G0 X73.747 Y55.471
G0 X73.071 Y53.778
G0 X72.17 Y52.164
G0 X71.079 Y50.683
G0 X69.815 Y49.358
G0 X68.394 Y48.207
G0 X66.841 Y47.241
G0 X65.323 Y46.548
G0 X60.717 Y45.043
G1 F1800 X61.642 Y45.116 E4.69984
G1 X62.604 Y45.255 E4.74934
G1 X63.526 Y45.448 E4.79732
G1 X64.45 Y45.703 E4.84613
G1 X65.337 Y46.01 E4.89394
G1 X66.22 Y46.38 E4.9427
G1 X67.067 Y46.799 E4.99082
G1 X67.877 Y47.267 E5.03847
G1 X68.686 Y47.806 E5.08798
G1 X69.438 Y48.377 E5.13607
G1 X70.153 Y48.997 E5.18426
G1 X70.841 Y49.674 E5.23342
G1 X71.462 Y50.368 E5.28085
G1 X72.045 Y51.108 E5.32883
G1 X72.589 Y51.898 E5.37768
G1 X73.072 Y52.704 E5.42554
G1 X73.515 Y53.559 E5.47458
G1 X73.894 Y54.426 E5.52277
G1 X74.217 Y55.312 E5.5708
G1 X74.491 Y56.243 E5.62023
G1 X74.697 Y57.159 E5.66804
G1 X74.848 Y58.097 E5.71643
G1 X74.938 Y59.023 E5.76381
G1 X74.97 Y59.982 E5.81268
G1 X74.941 Y60.932 E5.86109
G1 X74.851 Y61.884 E5.90979
G1 X74.701 Y62.832 E5.95867
G1 X74.497 Y63.741 E6.00612
G1 X74.232 Y64.646 E6.05414
G1 X73.899 Y65.563 E6.10383
G1 X73.526 Y66.418 E6.15134
G1 X73.091 Y67.264 E6.19979
G1 X72.596 Y68.091 E6.24887
G1 X72.072 Y68.855 E6.29606
G1 X71.467 Y69.625 E6.34593
G1 X70.835 Y70.333 E6.39426
G1 X70.169 Y70.989 E6.44187
G1 X69.438 Y71.623 E6.49115
G1 X68.686 Y72.194 E6.53924
G1 X67.879 Y72.732 E6.58864
G1 X67.067 Y73.201 E6.6364
G1 X66.22 Y73.62 E6.68452
G1 X65.338 Y73.99 E6.73324
G1 X64.45 Y74.297 E6.78109
G1 X63.526 Y74.552 E6.82991
G1 X62.604 Y74.745 E6.87788
G1 X61.642 Y74.884 E6.92738
G1 X60.717 Y74.957 E6.97464
G1 X59.768 Y74.973 E7.02298
G1 X58.802 Y74.926 E7.07224
G1 X57.864 Y74.822 E7.1203
G1 X56.923 Y74.656 E7.16896
G1 X56.003 Y74.434 E7.21716
G1 X55.11 Y74.156 E7.2648
G1 X54.21 Y73.811 E7.31389
G1 X53.336 Y73.413 E7.3628
G1 X52.501 Y72.964 E7.41108
G1 X51.713 Y72.476 E7.45829
G1 X50.914 Y71.906 E7.50827
G1 X50.195 Y71.321 E7.55548
G1 X49.485 Y70.666 E7.60468
G1 X48.845 Y69.994 E7.65194
G1 X48.237 Y69.271 E7.70005
G1 X47.66 Y68.487 E7.74963
G1 X47.158 Y67.71 E7.79674
G1 X46.69 Y66.868 E7.8458
G1 X46.285 Y66.017 E7.8938
G1 X45.924 Y65.118 E7.94314
G1 X45.637 Y64.243 E7.99004
G1 X45.39 Y63.295 E8.03993
G1 X45.209 Y62.361 E8.08839
G1 X45.091 Y61.441 E8.13563
G1 X45.031 Y60.487 E8.18431
G1 X45.029 Y59.531 E8.233
G1 X45.087 Y58.581 E8.28147
G1 X45.204 Y57.662 E8.32865
G1 X45.383 Y56.728 E8.37709
G1 X45.627 Y55.784 E8.42674
G1 X45.914 Y54.906 E8.47379
G1 X46.271 Y54.012 E8.52282
G1 X46.685 Y53.14 E8.57198
G1 X47.145 Y52.311 E8.62026
G1 X47.658 Y51.514 E8.66854
G1 X48.218 Y50.751 E8.71674
G1 X48.817 Y50.037 E8.7642
G1 X49.486 Y49.333 E8.81366
G1 X50.195 Y48.679 E8.86279
G1 X50.914 Y48.094 E8.91
G1 X51.715 Y47.523 E8.9601
G1 X52.501 Y47.036 E9.00719
G1 X53.336 Y46.587 E9.05547
G1 X54.21 Y46.189 E9.10438
G1 X55.11 Y45.844 E9.15347
G1 X56.004 Y45.566 E9.20115
G1 X56.923 Y45.344 E9.2493
G1 X57.864 Y45.178 E9.29797
G1 X58.802 Y45.074 E9.34603
G1 X59.768 Y45.027 E9.39529
G1 X60.197 Y45.035 E9.41714
G0 F1620 X60.717 Y45.043
G0 F4320 X65.154 Y46.471
G0 X66.841 Y47.241
G0 X68.394 Y48.207
G0 X69.815 Y49.358
G0 X71.079 Y50.683
G0 X72.17 Y52.164
G0 X73.071 Y53.778
G0 X73.747 Y55.471
G0 X74.209 Y57.249
G0 X74.442 Y59.039
G0 X74.445 Y60.915
G0 X74.213 Y62.741
G0 X73.759 Y64.499
G0 X73.073 Y66.217
G0 X72.187 Y67.809
G0 X71.093 Y69.3
G0 X70.375 Y70.055
G0 X67.089 Y73.246
G0 X67.223 Y73.486
;TYPE:WALL-OUTER
G1 F1800 X66.346 Y73.92 E9.46698
G1 X65.463 Y74.29 E9.51574
G1 X64.545 Y74.608 E9.56522
G1 X63.604 Y74.868 E9.61494
G1 X62.651 Y75.067 E9.66452
G1 X61.685 Y75.207 E9.71423
G1 X60.731 Y75.282 E9.76297
G1 X59.757 Y75.298 E9.81258
G1 X58.783 Y75.251 E9.86224
G1 X57.817 Y75.144 E9.91174
G1 X56.857 Y74.974 E9.9614
G1 X55.924 Y74.749 E10.01027
G1 X54.994 Y74.46 E10.05987
G1 X54.085 Y74.112 E10.10945
G1 X53.201 Y73.709 E10.15892
G1 X52.341 Y73.247 E10.20864
G1 X51.524 Y72.741 E10.25759
G1 X50.725 Y72.171 E10.30757
G1 X49.982 Y71.567 E10.35634
G1 X49.259 Y70.9 E10.40644
G1 X48.598 Y70.206 E10.45525
G1 X47.978 Y69.468 E10.50434
G1 X47.398 Y68.68 E10.55417
G1 X46.878 Y67.875 E10.60298
G1 X46.406 Y67.026 E10.65245
G1 X45.983 Y66.139 E10.7025
G1 X45.622 Y65.239 E10.75189
G1 X45.323 Y64.329 E10.80067
G1 X45.075 Y63.377 E10.85077
G1 X44.89 Y62.423 E10.90026
G1 X44.768 Y61.472 E10.9491
G1 X44.706 Y60.491 E10.99916
G1 X44.704 Y59.532 E11.048
G1 X44.764 Y58.551 E11.09805
G1 X44.885 Y57.601 E11.14683
G1 X45.068 Y56.647 E11.1963
G1 X45.314 Y55.695 E11.24638
G1 X45.612 Y54.785 E11.29515
G1 X45.972 Y53.884 E11.34456
G1 X46.394 Y52.994 E11.39473
G1 X46.865 Y52.146 E11.44413
G1 X47.39 Y51.33 E11.49355
G1 X47.965 Y50.547 E11.54302
G1 X48.581 Y49.813 E11.59182
G1 X49.25 Y49.109 E11.64128
G1 X49.982 Y48.433 E11.69203
G1 X50.725 Y47.829 E11.7408
G1 X51.526 Y47.258 E11.7909
G1 X52.341 Y46.753 E11.83973
G1 X53.201 Y46.291 E11.88945
G1 X54.085 Y45.888 E11.93893
G1 X54.994 Y45.54 E11.9885
G1 X55.925 Y45.251 E12.03814
G1 X56.857 Y45.026 E12.08697
G1 X57.817 Y44.856 E12.13663
G1 X58.783 Y44.749 E12.18613
G1 X59.757 Y44.702 E12.23579
G1 X60.731 Y44.718 E12.2854
G1 X61.685 Y44.793 E12.33414
G1 X62.651 Y44.933 E12.38385
G1 X63.604 Y45.132 E12.43343
G1 X64.545 Y45.392 E12.48315
G1 X65.463 Y45.71 E12.53263
G1 X66.346 Y46.08 E12.58139
G1 X67.223 Y46.514 E12.63123
G1 X68.057 Y46.996 E12.68029
G1 X68.876 Y47.541 E12.73039
G1 X69.643 Y48.124 E12.77945
G1 X70.373 Y48.757 E12.82866
G1 X71.074 Y49.447 E12.87876
G1 X71.704 Y50.151 E12.92687
G1 X72.313 Y50.924 E12.97699
G1 X72.863 Y51.723 E13.02639
G1 X73.356 Y52.545 E13.07521
G1 X73.808 Y53.419 E13.12532
G1 X74.192 Y54.296 E13.17408
G1 X74.529 Y55.22 E13.22417
G1 X74.803 Y56.151 E13.2736
G1 X75.017 Y57.099 E13.3231
G1 X75.169 Y58.045 E13.37189
G1 X75.263 Y59.012 E13.42137
G1 X75.295 Y59.982 E13.4708
G1 X75.265 Y60.962 E13.52074
G1 X75.175 Y61.919 E13.56969
G1 X75.021 Y62.89 E13.61976
G1 X74.811 Y63.825 E13.66857
G1 X74.538 Y64.757 E13.71803
G1 X74.204 Y65.678 E13.76792
G1 X73.82 Y66.558 E13.81682
G1 X73.375 Y67.422 E13.86632
G1 X72.87 Y68.266 E13.91641
G1 X72.328 Y69.056 E13.9652
G1 X71.721 Y69.829 E14.01526
G1 X71.075 Y70.552 E14.06464
G1 X70.382 Y71.235 E14.11419
G1 X69.643 Y71.876 E14.16402
G1 X68.876 Y72.459 E14.21308
G1 X68.057 Y73.004 E14.26319
G1 X67.673 Y73.226 E14.28578
G0 F1620 X67.223 Y73.486
G0 F4320 X67.044 Y73.574
G0 X66.923 Y73.328
G0 X66.754 Y72.585
;TYPE:SKIN
G1 F1800 X65.925 Y72.996 E14.3329
G1 X65.094 Y73.345 E14.3788
G1 X64.242 Y73.639 E14.42471
G1 X63.361 Y73.881 E14.47124
G1 X62.478 Y74.067 E14.5172
G1 X61.566 Y74.199 E14.56413
G1 X60.693 Y74.267 E14.60872
G1 X59.79 Y74.283 E14.65472
G1 X58.847 Y74.236 E14.70281
G1 X57.964 Y74.138 E14.74805
G1 X57.053 Y73.978 E14.79516
G1 X56.193 Y73.77 E14.84022
G1 X55.333 Y73.503 E14.88608
G1 X54.48 Y73.176 E14.93261
G1 X53.636 Y72.791 E14.97986
G1 X52.856 Y72.373 E15.02493
G1 X52.087 Y71.896 E15.07101
G1 X51.328 Y71.355 E15.11848
G1 X50.646 Y70.799 E15.1633
G1 X49.967 Y70.172 E15.21037
G1 X49.358 Y69.532 E15.25536
G1 X48.778 Y68.842 E15.30127
G1 X48.23 Y68.097 E15.34837
G1 X47.744 Y67.345 E15.39397
G1 X47.298 Y66.542 E15.44075
G1 X46.914 Y65.734 E15.48631
G1 X46.574 Y64.887 E15.5328
G1 X46.299 Y64.046 E15.57786
G1 X46.065 Y63.146 E15.62522
G1 X45.891 Y62.249 E15.67176
G1 X45.777 Y61.361 E15.71735
G1 X45.721 Y60.46 E15.76333
G1 X45.719 Y59.551 E15.80962
G1 X45.773 Y58.659 E15.85514
G1 X45.886 Y57.771 E15.90073
G1 X46.057 Y56.878 E15.94703
G1 X46.286 Y55.99 E15.99374
G1 X46.566 Y55.131 E16.03975
G1 X46.903 Y54.288 E16.08599
G1 X47.296 Y53.46 E16.13267
G1 X47.737 Y52.665 E16.17897
G1 X48.22 Y51.914 E16.22445
G1 X48.759 Y51.179 E16.27087
G1 X49.323 Y50.508 E16.31551
G1 X49.979 Y49.817 E16.36403
G1 X50.646 Y49.201 E16.41027
G1 X51.329 Y48.645 E16.45513
G1 X52.098 Y48.097 E16.50322
G1 X52.86 Y47.625 E16.54887
G1 X53.636 Y47.209 E16.59371
G1 X54.482 Y46.823 E16.64107
G1 X55.333 Y46.497 E16.68748
G1 X56.194 Y46.23 E16.73339
G1 X57.054 Y46.021 E16.77847
G1 X57.964 Y45.862 E16.82552
G1 X58.847 Y45.764 E16.87076
G1 X59.79 Y45.717 E16.91885
G1 X60.693 Y45.733 E16.96485
G1 X61.566 Y45.801 E17.00944
G1 X62.478 Y45.933 E17.05637
G1 X63.363 Y46.119 E17.10243
G1 X64.242 Y46.361 E17.14886
G1 X65.093 Y46.655 E17.19472
G1 X65.925 Y47.004 E17.24067
G1 X66.754 Y47.415 E17.28779
G1 X67.516 Y47.855 E17.33261
G1 X68.277 Y48.362 E17.37918
G1 X69.003 Y48.913 E17.4256
G1 X69.679 Y49.498 E17.47113
G1 X70.341 Y50.15 E17.51845
G1 X70.927 Y50.804 E17.56317
G1 X71.485 Y51.512 E17.60908
G1 X72.01 Y52.274 E17.65621
G1 X72.46 Y53.022 E17.70067
G1 X72.893 Y53.857 E17.74857
G1 X73.25 Y54.673 E17.79393
G1 X73.561 Y55.526 E17.84017
G1 X73.823 Y56.416 E17.88742
G1 X74.015 Y57.269 E17.93195
G1 X74.166 Y58.207 E17.98034
G1 X74.248 Y59.047 E18.02332
G1 X74.28 Y59.972 E18.07046
G1 X74.251 Y60.908 E18.11816
G1 X74.169 Y61.776 E18.16256
G1 X74.025 Y62.689 E18.20963
G1 X73.824 Y63.585 E18.2564
G1 X73.576 Y64.434 E18.30145
G1 X73.267 Y65.287 E18.34765
G1 X72.904 Y66.118 E18.39384
G1 X72.488 Y66.927 E18.44017
G1 X72.016 Y67.716 E18.48699
G1 X71.516 Y68.446 E18.53205
G1 X70.941 Y69.178 E18.57946
G1 X70.337 Y69.854 E18.62563
G1 X69.687 Y70.494 E18.67209
G1 X69.005 Y71.086 E18.71808
G1 X68.285 Y71.632 E18.7641
G1 X67.514 Y72.146 E18.8113
G1 X67.204 Y72.325 E18.82953
G0 F1620 X66.754 Y72.585
G0 F4320 X66.881 Y72.806
G0 X64.29 Y73.828
G0 X62.504 Y74.259
G0 X60.697 Y74.461
G0 X58.836 Y74.43
G0 X57.018 Y74.17
G0 X55.274 Y73.688
G0 X53.556 Y72.968
G0 X51.203 Y71.577
G0 X51.443 Y71.242
G1 F1800 X48.779 Y68.578 E19.0214
G1 X48.717 Y68.516
G0 F4320 X48.395 Y68.752
G0 X47.418 Y67.281
G0 X47.778 Y67.082
G1 F1800 X52.929 Y72.233 E19.3924
G1 X52.991 Y72.295
G0 F4320 X52.808 Y72.635
G0 X53.78 Y73.137
G0 X53.952 Y72.761
G1 F1800 X47.235 Y66.044 E19.8762
G1 X47.173 Y65.982
G0 F4320 X46.857 Y65.171
G1 F1800 X54.826 Y73.14 E20.45017
G1 X54.888 Y73.202
G0 F4320 X55.602 Y73.421
G1 F1800 X46.578 Y64.397 E21.10012
G1 X46.516 Y64.335
G0 F4320 X46.368 Y63.692
G1 F1800 X56.311 Y73.635 E21.81627
G0 F4320 X56.965 Y73.794
G1 F1800 X46.202 Y63.031 E22.59148
G0 F4320 X46.083 Y62.417
G1 F1800 X57.576 Y73.91 E23.41927
G0 F4320 X58.162 Y74.001
G1 F1800 X45.995 Y61.835 E24.29556
G0 F4320 X45.928 Y61.272
G1 F1800 X58.718 Y74.062 E25.21677
G0 F4320 X59.247 Y74.097
G1 F1800 X45.896 Y60.745 E26.17841
G0 F4320 X45.877 Y60.232
G1 F1800 X59.769 Y74.123 E27.17895
G0 F4320 X60.257 Y74.116
G1 F1800 X45.876 Y59.735 E28.21475
G0 F4320 X45.894 Y59.258
G1 F1800 X60.74 Y74.104 E29.28404
G0 F4320 X61.2 Y74.069
G1 F1800 X45.922 Y58.791 E30.38444
G0 F4320 X45.971 Y58.345
G1 F1800 X61.652 Y74.027 E31.5139
G0 F4320 X62.085 Y73.964
G1 F1800 X46.026 Y57.906 E32.67052
G0 F4320 X46.099 Y57.484
G1 F1800 X62.513 Y73.898 E33.85275
G0 F4320 X62.922 Y73.812
G1 F1800 X46.179 Y57.068 E35.0587
G0 F4320 X46.272 Y56.666
G1 F1800 X63.331 Y73.725 E36.28738
G0 F4320 X63.719 Y73.619
G1 F1800 X46.374 Y56.273 E37.5367
G0 F4320 X46.483 Y55.888
G1 F1800 X64.107 Y73.512 E38.80607
G0 F4320 X64.48 Y73.389
G1 F1800 X46.604 Y55.514 E40.09356
G0 F4320 X46.728 Y55.143
G1 F1800 X64.848 Y73.262 E41.39862
G0 F4320 X65.206 Y73.126
G1 F1800 X46.869 Y54.789 E42.71935
G0 F4320 X47.011 Y54.435
G1 F1800 X65.555 Y72.979 E44.05499
G0 F4320 X65.9 Y72.83
G1 F1800 X47.166 Y54.095 E45.40434
G0 F4320 X47.325 Y53.76
G1 F1800 X66.232 Y72.667 E46.76613
G0 F4320 X66.564 Y72.503
G1 F1800 X47.49 Y53.43 E48.1399
G0 F4320 X47.667 Y53.112
G1 F1800 X66.883 Y72.327 E49.5239
G0 F4320 X67.196 Y72.146
G1 F1800 X47.844 Y52.794 E50.91774
G0 F4320 X48.035 Y52.49
G1 F1800 X67.506 Y71.96 E52.32011
G0 F4320 X67.803 Y71.762
G1 F1800 X48.228 Y52.188 E53.72996
G0 F4320 X48.428 Y51.893
G1 F1800 X68.1 Y71.564 E55.14681
G0 F4320 X68.387 Y71.356
G1 F1800 X48.637 Y51.607 E56.56927
G0 F4320 X48.846 Y51.321
G1 F1800 X68.668 Y71.143 E57.99696
G0 F4320 X68.947 Y70.927
G1 F1800 X49.071 Y51.05 E59.42857
G0 F4320 X49.297 Y50.782
G1 F1800 X69.212 Y70.697 E60.86295
G0 F4320 X69.476 Y70.466
G1 F1800 X49.528 Y50.518 E62.29972
G0 F4320 X49.769 Y50.264
G1 F1800 X69.732 Y70.227 E63.73756
G0 F4320 X69.981 Y69.981
G1 F1800 X50.01 Y50.01 E65.17597
G0 F4320 X50.263 Y49.768
G1 F1800 X70.231 Y69.736 E66.61418
G0 F4320 X70.465 Y69.475
G1 F1800 X50.52 Y49.53 E68.05072
G0 F4320 X50.779 Y49.294
G1 F1800 X70.698 Y69.213 E69.48539
