;FLAVOR:Marlin
;TIME:886
;Filament used: 1.06458m
;Layer height: 0.35
;MINX:45.704
;MINY:45.702
;MINZ:0.35
;MAXX:74.296
;MAXY:74.298
;MAXZ:19.95
;Generated with Cura_SteamEngine mb-master-20191108
M140 S65
M105
M190 S65
M104 S205
M105
M109 S205
M82 ;absolute extrusion mode
G21;(metric values)
G90;(absolute positioning)
M82;(set extruder to absolute mode)
M107;(start with the fan off)
G28;(Home the printer)
G92 E0;(Reset the extruder to 0)
G0 Z5 E5 F500;(Move up and prime the nozzle)
G0 X-1 Z0;(Move outside the printable area)
G1 Y60 E8 F500;(Draw a priming/wiping line to the rear)
G1 X-1;(Move a little closer to the print area)
G1 Y10 E16 F500;(draw more priming/wiping)
G1 E15 F250;(Small retract)
G92 E0;(Zero the extruder)
G92 E0
G92 E0
G1 F2400 E-2.5
;LAYER_COUNT:57
;LAYER:0
M107
;MESH:sign-post.stl
G0 F4320 X61.506 Y73.541 Z0.35
;TYPE:WALL-INNER
G1 F2400 E0
G1 F1800 X60.65 Y73.609 E0.04373
G1 X59.795 Y73.623 E0.08728
G1 X58.906 Y73.579 E0.13262
G1 X58.053 Y73.484 E0.17633
G1 X57.196 Y73.334 E0.22064
G1 X56.363 Y73.133 E0.26428
G1 X55.55 Y72.88 E0.30764
G1 X54.732 Y72.566 E0.35227
G1 X53.934 Y72.202 E0.39694
G1 X53.194 Y71.805 E0.43971
G1 X52.454 Y71.346 E0.48406
G1 X51.739 Y70.837 E0.52876
G1 X51.071 Y70.293 E0.57263
G1 X50.438 Y69.709 E0.61649
G1 X49.853 Y69.095 E0.65969
G1 X49.307 Y68.445 E0.70292
G1 X48.769 Y67.716 E0.74906
G1 X48.327 Y67.029 E0.79067
G1 X47.882 Y66.232 E0.83716
G1 X47.533 Y65.498 E0.87855
G1 X47.195 Y64.658 E0.92466
G1 X46.931 Y63.856 E0.96767
G1 X46.712 Y63.018 E1.01178
G1 X46.541 Y62.141 E1.05728
G1 X46.436 Y61.317 E1.09959
G1 X46.381 Y60.451 E1.14378
G1 X46.379 Y59.567 E1.18881
G1 X46.432 Y58.711 E1.23248
G1 X46.534 Y57.892 E1.27452
G1 X46.7 Y57.03 E1.31923
G1 X46.922 Y56.171 E1.36441
G1 X47.19 Y55.349 E1.40844
G1 X47.506 Y54.558 E1.45183
G1 X47.882 Y53.768 E1.49638
G1 X48.295 Y53.021 E1.53986
G1 X48.78 Y52.265 E1.5856
G1 X49.276 Y51.591 E1.62822
G1 X49.841 Y50.917 E1.67301
G1 X50.414 Y50.316 E1.7153
G1 X51.077 Y49.702 E1.76133
G1 X51.741 Y49.162 E1.80491
G1 X52.454 Y48.654 E1.8495
G1 X53.183 Y48.201 E1.89321
G1 X53.945 Y47.793 E1.93723
G1 X54.733 Y47.433 E1.98136
G1 X55.544 Y47.122 E2.02559
G1 X56.362 Y46.868 E2.06922
G1 X57.199 Y46.665 E2.11308
G1 X58.053 Y46.516 E2.15723
G1 X58.906 Y46.421 E2.20094
G1 X59.795 Y46.377 E2.24627
G1 X60.65 Y46.391 E2.28983
G1 X61.506 Y46.459 E2.33356
G1 X62.351 Y46.58 E2.37703
G1 X63.222 Y46.763 E2.42236
G1 X64.043 Y46.99 E2.46574
G1 X64.85 Y47.269 E2.50923
G1 X65.672 Y47.614 E2.55463
G1 X66.434 Y47.992 E2.59795
G1 X67.186 Y48.426 E2.64217
G1 X67.881 Y48.889 E2.6847
G1 X68.588 Y49.427 E2.72995
G1 X69.256 Y50.005 E2.77494
G1 X69.847 Y50.587 E2.81718
G1 X70.418 Y51.225 E2.86079
G1 X70.949 Y51.899 E2.90449
G1 X71.459 Y52.638 E2.95022
G1 X71.885 Y53.347 E2.99234
G1 X72.303 Y54.155 E3.03868
G1 X72.633 Y54.905 E3.08041
G1 X72.929 Y55.717 E3.12442
G1 X73.186 Y56.59 E3.17077
G1 X73.371 Y57.411 E3.21363
G1 X73.506 Y58.24 E3.25641
G1 X73.59 Y59.113 E3.30108
G1 X73.619 Y59.977 E3.34511
G1 X73.594 Y60.854 E3.38979
G1 X73.514 Y61.707 E3.43342
G1 X73.379 Y62.559 E3.47736
G1 X73.191 Y63.399 E3.5212
G1 X72.944 Y64.242 E3.56593
G1 X72.658 Y65.032 E3.60872
G1 X72.305 Y65.842 E3.65372
G1 X71.914 Y66.603 E3.6973
G1 X71.468 Y67.349 E3.74156
G1 X70.982 Y68.059 E3.78538
G1 X70.436 Y68.754 E3.8304
G1 X69.876 Y69.382 E3.87325
G1 X69.249 Y70.002 E3.91816
G1 X68.588 Y70.573 E3.96264
G1 X67.882 Y71.11 E4.00782
G1 X67.186 Y71.574 E4.05042
G1 X66.434 Y72.008 E4.09464
G1 X65.672 Y72.386 E4.13796
G1 X64.85 Y72.731 E4.18336
G1 X64.043 Y73.01 E4.22685
G1 X63.222 Y73.237 E4.27023
G1 X62.351 Y73.42 E4.31556
G1 X62.021 Y73.468 E4.33254
G0 F1620 X61.506 Y73.541
G0 F4320 X63.993 Y72.873
G0 X65.616 Y72.251
G0 X67.104 Y71.453
G0 X68.493 Y70.463
G0 X69.775 Y69.277
G0 X70.861 Y67.978
G0 X71.783 Y66.537
G0 X72.525 Y64.972
G0 X73.051 Y63.356
G0 X73.37 Y61.682
G0 X73.474 Y59.972
G0 X73.362 Y58.265
G0 X73.044 Y56.621
G0 X72.496 Y54.954
G0 X71.76 Y53.423
G0 X70.829 Y51.981
G0 X69.745 Y50.692
G0 X68.492 Y49.536
G0 X67.104 Y48.547
G0 X65.616 Y47.749
G0 X64.697 Y47.397
G0 X60.668 Y46.041
G1 F1800 X61.536 Y46.11 E4.37689
G1 X62.423 Y46.237 E4.42253
G1 X63.294 Y46.42 E4.46785
G1 X64.154 Y46.658 E4.5133
G1 X64.975 Y46.942 E4.55754
G1 X65.813 Y47.293 E4.60382
G1 X66.602 Y47.685 E4.64869
G1 X67.368 Y48.127 E4.69373
G1 X68.093 Y48.61 E4.73809
G1 X68.807 Y49.153 E4.78378
G1 X69.491 Y49.745 E4.82985
G1 X70.099 Y50.344 E4.87332
G1 X70.693 Y51.008 E4.91869
G1 X71.229 Y51.688 E4.96279
G1 X71.752 Y52.446 E5.00969
G1 X72.196 Y53.186 E5.05364
G1 X72.614 Y53.994 E5.09998
G1 X72.962 Y54.785 E5.14399
G1 X73.262 Y55.609 E5.18865
G1 X73.522 Y56.491 E5.23548
G1 X73.714 Y57.343 E5.27996
G1 X73.853 Y58.197 E5.32402
G1 X73.94 Y59.101 E5.37028
G1 X73.969 Y59.977 E5.41492
G1 X73.944 Y60.866 E5.46021
G1 X73.86 Y61.762 E5.50604
G1 X73.723 Y62.625 E5.55055
G1 X73.531 Y63.486 E5.59547
G1 X73.279 Y64.345 E5.64107
G1 X72.979 Y65.172 E5.68587
G1 X72.624 Y65.985 E5.73105
G1 X72.219 Y66.774 E5.77622
G1 X71.757 Y67.547 E5.82208
G1 X71.27 Y68.258 E5.86597
G1 X70.702 Y68.981 E5.9128
G1 X70.128 Y69.625 E5.95674
G1 X69.484 Y70.261 E6.00283
G1 X68.807 Y70.847 E6.04844
G1 X68.093 Y71.39 E6.09412
G1 X67.368 Y71.873 E6.13849
G1 X66.602 Y72.315 E6.18353
G1 X65.813 Y72.707 E6.2284
G1 X64.975 Y73.058 E6.27467
G1 X64.154 Y73.342 E6.31891
G1 X63.294 Y73.58 E6.36436
G1 X62.423 Y73.763 E6.40969
G1 X61.536 Y73.89 E6.45532
G1 X60.668 Y73.959 E6.49967
G1 X59.784 Y73.973 E6.5447
G1 X58.882 Y73.929 E6.59069
G1 X58.003 Y73.831 E6.63574
G1 X57.131 Y73.678 E6.68082
G1 X56.269 Y73.47 E6.72599
G1 X55.426 Y73.208 E6.77094
G1 X54.606 Y72.893 E6.81568
G1 X53.78 Y72.516 E6.86192
G1 X53.012 Y72.104 E6.90631
G1 X52.26 Y71.637 E6.95139
G1 X51.52 Y71.11 E6.99766
G1 X50.85 Y70.565 E7.04165
G1 X50.187 Y69.953 E7.0876
G1 X49.594 Y69.331 E7.13137
G1 X49.027 Y68.656 E7.17627
G1 X48.487 Y67.924 E7.22259
G1 X48.021 Y67.2 E7.26644
G1 X47.576 Y66.403 E7.31293
G1 X47.208 Y65.629 E7.35658
G1 X46.87 Y64.789 E7.4027
G1 X46.592 Y63.945 E7.44795
G1 X46.37 Y63.096 E7.49265
G1 X46.197 Y62.208 E7.53872
G1 X46.088 Y61.352 E7.58267
G1 X46.031 Y60.458 E7.62829
G1 X46.029 Y59.568 E7.67362
G1 X46.084 Y58.679 E7.71898
G1 X46.19 Y57.826 E7.76276
G1 X46.358 Y56.954 E7.80799
G1 X46.586 Y56.071 E7.85443
G1 X46.857 Y55.24 E7.89895
G1 X47.181 Y54.428 E7.94347
G1 X47.572 Y53.604 E7.98993
G1 X48 Y52.832 E8.03488
G1 X48.485 Y52.076 E8.08063
G1 X49.002 Y51.373 E8.12507
G1 X49.573 Y50.692 E8.17033
G1 X50.176 Y50.059 E8.21486
G1 X50.849 Y49.435 E8.2616
G1 X51.52 Y48.89 E8.30562
G1 X52.26 Y48.363 E8.35189
G1 X53.013 Y47.895 E8.39704
G1 X53.78 Y47.484 E8.44136
G1 X54.608 Y47.106 E8.48772
G1 X55.426 Y46.792 E8.53234
G1 X56.268 Y46.531 E8.57724
G1 X57.134 Y46.321 E8.62262
G1 X58.003 Y46.169 E8.66755
G1 X58.882 Y46.071 E8.7126
G1 X59.784 Y46.027 E8.75859
G1 X60.148 Y46.033 E8.77713
G0 F1620 X60.668 Y46.041
G0 F4320 X60.683 Y45.716
;TYPE:WALL-OUTER
G1 F1800 X61.576 Y45.787 E8.82275
G1 X62.475 Y45.916 E8.86901
G1 X63.369 Y46.104 E8.91554
G1 X64.249 Y46.347 E8.96203
G1 X65.094 Y46.64 E9.00758
G1 X65.943 Y46.995 E9.05445
G1 X66.751 Y47.396 E9.10039
G1 X67.541 Y47.852 E9.14684
G1 X68.29 Y48.351 E9.19268
G1 X69.012 Y48.9 E9.23887
G1 X69.704 Y49.499 E9.28549
G1 X70.341 Y50.127 E9.33104
G1 X70.935 Y50.791 E9.37642
G1 X71.497 Y51.503 E9.42262
G1 X72.02 Y52.261 E9.46952
G1 X72.48 Y53.027 E9.51502
G1 X72.903 Y53.845 E9.56192
G1 X73.263 Y54.663 E9.60744
G1 X73.574 Y55.517 E9.65373
G1 X73.834 Y56.399 E9.70056
G1 X74.034 Y57.283 E9.74672
G1 X74.177 Y58.166 E9.79228
G1 X74.264 Y59.07 E9.83853
G1 X74.294 Y59.977 E9.88475
G1 X74.268 Y60.896 E9.93157
G1 X74.184 Y61.797 E9.97766
G1 X74.043 Y62.683 E10.02335
G1 X73.845 Y63.569 E10.06959
G1 X73.59 Y64.44 E10.11581
G1 X73.277 Y65.302 E10.16251
G1 X72.918 Y66.125 E10.20824
G1 X72.503 Y66.932 E10.25446
G1 X72.032 Y67.721 E10.30126
G1 X71.526 Y68.459 E10.34683
G1 X70.958 Y69.182 E10.39366
G1 X70.361 Y69.851 E10.43932
G1 X69.697 Y70.507 E10.48686
G1 X69.012 Y71.1 E10.533
G1 X68.29 Y71.649 E10.5792
G1 X67.541 Y72.148 E10.62503
G1 X66.751 Y72.604 E10.67149
G1 X65.943 Y73.005 E10.71743
G1 X65.094 Y73.36 E10.7643
G1 X64.249 Y73.653 E10.80985
G1 X63.369 Y73.896 E10.85634
G1 X62.475 Y74.084 E10.90287
G1 X61.576 Y74.213 E10.94912
G1 X60.683 Y74.284 E10.99475
G1 X59.773 Y74.298 E11.0411
G1 X58.862 Y74.254 E11.08755
G1 X57.959 Y74.153 E11.13382
G1 X57.062 Y73.996 E11.1802
G1 X56.19 Y73.785 E11.22589
G1 X55.321 Y73.515 E11.27224
G1 X54.471 Y73.189 E11.3186
G1 X53.645 Y72.812 E11.36485
G1 X52.851 Y72.386 E11.41074
G1 X52.071 Y71.902 E11.45749
G1 X51.331 Y71.375 E11.50376
G1 X50.637 Y70.811 E11.5493
G1 X49.961 Y70.187 E11.59616
G1 X49.347 Y69.543 E11.64147
G1 X48.768 Y68.853 E11.68735
G1 X48.225 Y68.117 E11.73393
G1 X47.741 Y67.365 E11.77948
G1 X47.292 Y66.561 E11.82638
G1 X46.906 Y65.751 E11.87207
G1 X46.564 Y64.9 E11.91878
G1 X46.283 Y64.047 E11.96452
G1 X46.052 Y63.161 E12.01115
G1 X45.878 Y62.27 E12.05739
G1 X45.765 Y61.382 E12.10298
G1 X45.706 Y60.464 E12.14983
G1 X45.704 Y59.569 E12.19541
G1 X45.76 Y58.651 E12.24225
G1 X45.871 Y57.764 E12.28778
G1 X46.043 Y56.873 E12.334
G1 X46.273 Y55.982 E12.38086
G1 X46.551 Y55.131 E12.42646
G1 X46.887 Y54.289 E12.47263
G1 X47.281 Y53.458 E12.51947
G1 X47.722 Y52.664 E12.56572
G1 X48.211 Y51.901 E12.61188
G1 X48.749 Y51.169 E12.65814
G1 X49.324 Y50.483 E12.70373
G1 X49.949 Y49.826 E12.74991
G1 X50.637 Y49.189 E12.79767
G1 X51.331 Y48.625 E12.84321
G1 X52.071 Y48.098 E12.88948
G1 X52.852 Y47.613 E12.9363
G1 X53.645 Y47.188 E12.98212
G1 X54.473 Y46.81 E13.02848
G1 X55.321 Y46.485 E13.07473
G1 X56.191 Y46.215 E13.12112
G1 X57.062 Y46.004 E13.16677
G1 X57.959 Y45.847 E13.21315
G1 X58.862 Y45.746 E13.25942
G1 X59.773 Y45.702 E13.30587
G1 X60.163 Y45.708 E13.32574
G0 F1620 X60.683 Y45.716
G0 F4320 X60.882 Y45.731
G0 X60.861 Y46.004
G0 X60.644 Y46.731
;TYPE:SKIN
G1 F1800 X61.463 Y46.795 E13.36758
G1 X62.293 Y46.914 E13.41028
G1 X63.131 Y47.091 E13.4539
G1 X63.945 Y47.316 E13.49691
G1 X64.731 Y47.587 E13.53925
G1 X65.524 Y47.92 E13.58306
G1 X66.283 Y48.297 E13.62622
G1 X67.007 Y48.715 E13.6688
G1 X67.684 Y49.166 E13.71023
G1 X68.365 Y49.684 E13.7538
G1 X69.017 Y50.248 E13.79771
G1 X69.608 Y50.83 E13.83995
G1 X70.158 Y51.444 E13.88193
G1 X70.669 Y52.092 E13.92396
G1 X71.173 Y52.822 E13.96914
G1 X71.588 Y53.513 E14.01019
G1 X71.996 Y54.301 E14.05539
G1 X72.314 Y55.022 E14.09552
G1 X72.606 Y55.823 E14.13894
G1 X72.854 Y56.664 E14.1836
G1 X73.035 Y57.466 E14.22547
G1 X73.17 Y58.295 E14.26825
G1 X73.25 Y59.125 E14.31071
G1 X73.279 Y59.967 E14.35362
G1 X73.254 Y60.844 E14.3983
G1 X73.178 Y61.654 E14.43974
G1 X73.047 Y62.485 E14.48258
G1 X72.86 Y63.322 E14.52626
G1 X72.624 Y64.126 E14.56894
G1 X72.335 Y64.924 E14.61216
G1 X72.002 Y65.687 E14.65456
G1 X71.616 Y66.438 E14.69757
G1 X71.177 Y67.172 E14.74112
G1 X70.714 Y67.849 E14.7829
G1 X70.17 Y68.542 E14.82777
G1 X69.624 Y69.154 E14.86954
G1 X69.02 Y69.751 E14.91279
G1 X68.374 Y70.309 E14.95626
G1 X67.693 Y70.827 E14.99984
G1 X67.009 Y71.283 E15.04171
G1 X66.273 Y71.708 E15.08499
G1 X65.524 Y72.08 E15.12758
G1 X64.731 Y72.413 E15.17139
G1 X63.945 Y72.684 E15.21373
G1 X63.131 Y72.909 E15.25674
G1 X62.293 Y73.086 E15.30036
G1 X61.463 Y73.205 E15.34307
G1 X60.644 Y73.269 E15.3849
G1 X59.806 Y73.283 E15.42759
G1 X58.927 Y73.239 E15.47241
G1 X58.1 Y73.147 E15.51479
G1 X57.264 Y73.001 E15.55801
G1 X56.459 Y72.806 E15.6002
G1 X55.654 Y72.556 E15.64313
G1 X54.87 Y72.255 E15.6859
G1 X54.081 Y71.895 E15.73007
G1 X53.369 Y71.514 E15.77119
G1 X52.641 Y71.063 E15.81481
G1 X51.951 Y70.571 E15.85797
G1 X51.286 Y70.029 E15.90166
G1 X50.669 Y69.459 E15.94444
G1 X50.099 Y68.86 E15.98655
G1 X49.574 Y68.234 E16.02816
G1 X49.043 Y67.514 E16.07373
G1 X48.613 Y66.845 E16.11423
G1 X48.184 Y66.076 E16.15908
G1 X47.84 Y65.352 E16.1999
G1 X47.518 Y64.551 E16.24387
G1 X47.254 Y63.749 E16.28687
G1 X47.044 Y62.943 E16.32929
G1 X46.879 Y62.094 E16.37334
G1 X46.774 Y61.274 E16.41544
G1 X46.721 Y60.43 E16.45851
G1 X46.719 Y59.588 E16.50139
G1 X46.77 Y58.753 E16.544
G1 X46.872 Y57.934 E16.58603
G1 X47.032 Y57.104 E16.62908
G1 X47.245 Y56.276 E16.67262
G1 X47.502 Y55.485 E16.71498
G1 X47.818 Y54.694 E16.75836
G1 X48.184 Y53.924 E16.80178
G1 X48.587 Y53.195 E16.84421
G1 X49.054 Y52.467 E16.88826
G1 X49.55 Y51.793 E16.93087
G1 X50.087 Y51.152 E16.97346
G1 X50.653 Y50.558 E17.01525
G1 X51.291 Y49.966 E17.05958
G1 X51.947 Y49.433 E17.10262
G1 X52.648 Y48.934 E17.14645
G1 X53.353 Y48.496 E17.18872
G1 X54.101 Y48.096 E17.23192
G1 X54.875 Y47.742 E17.27526
G1 X55.648 Y47.446 E17.31742
G1 X56.458 Y47.195 E17.36061
G1 X57.268 Y46.998 E17.40306
G1 X58.1 Y46.853 E17.44608
G1 X58.927 Y46.761 E17.48846
G1 X59.806 Y46.717 E17.53328
G1 X60.124 Y46.723 E17.54948
G0 F1620 X60.644 Y46.731
G0 F4320 X60.664 Y46.478
G0 X63.193 Y46.906
G0 X64.792 Y47.403
G0 X66.37 Y48.123
G0 X67.801 Y49.011
G0 X69.153 Y50.108
G0 X70.977 Y52.09
G0 X70.637 Y52.323
G1 F1800 X67.656 Y49.342 E17.76418
G1 X67.594 Y49.28
G0 F4320 X67.815 Y48.948
G0 X66.525 Y48.143
G0 X66.318 Y48.499
G1 F1800 X71.495 Y53.676 E18.13706
G1 X71.557 Y53.738
G0 F4320 X71.979 Y54.655
G1 F1800 X65.335 Y48.011 E18.6156
G1 X65.273 Y47.949
G0 F4320 X64.502 Y47.673
G1 F1800 X72.316 Y55.487 E19.1784
G1 X72.378 Y55.549
G0 F4320 X72.561 Y56.227
G1 F1800 X63.764 Y47.429 E19.81204
G1 X63.702 Y47.367
G0 F4320 X63.08 Y47.241
G1 F1800 X72.747 Y56.908 E20.50831
G0 F4320 X72.888 Y57.544
G1 F1800 X62.452 Y47.108 E21.25997
G0 F4320 X61.859 Y47.009
G1 F1800 X72.984 Y58.135 E22.06129
G0 F4320 X73.051 Y58.696
G1 F1800 X61.292 Y46.938 E22.9082
G0 F4320 X60.756 Y46.897
G1 F1800 X73.096 Y59.237 E23.79699
G0 F4320 X73.114 Y59.749
G1 F1800 X60.246 Y46.881 E24.72381
G0 F4320 X59.746 Y46.877
G1 F1800 X73.113 Y60.244 E25.68657
G0 F4320 X73.099 Y60.725
G1 F1800 X59.275 Y46.9 E26.68229
G0 F4320 X58.811 Y46.932
G1 F1800 X73.064 Y61.185 E27.70886
G0 F4320 X73.021 Y61.637
G1 F1800 X58.366 Y46.981 E28.76443
G0 F4320 X57.931 Y47.041
G1 F1800 X72.954 Y62.064 E29.84647
G0 F4320 X72.885 Y62.49
G1 F1800 X57.508 Y47.114 E30.95396
G0 F4320 X57.099 Y47.2
G1 F1800 X72.794 Y62.895 E32.0844
G0 F4320 X72.703 Y63.298
G1 F1800 X56.702 Y47.297 E33.23688
G0 F4320 X56.313 Y47.404
G1 F1800 X72.59 Y63.681 E34.40923
G0 F4320 X72.478 Y64.063
G1 F1800 X55.935 Y47.521 E35.60071
G0 F4320 X55.565 Y47.645
G1 F1800 X72.347 Y64.428 E36.80948
G0 F4320 X72.216 Y64.791
G1 F1800 X55.207 Y47.782 E38.03455
G0 F4320 X54.853 Y47.924
G1 F1800 X72.069 Y65.14 E39.27454
G0 F4320 X71.919 Y65.484
G1 F1800 X54.514 Y48.079 E40.52814
G0 F4320 X54.174 Y48.234
G1 F1800 X71.757 Y65.817 E41.79456
G0 F4320 X71.589 Y66.144
G1 F1800 X53.851 Y48.407 E43.07211
G0 F4320 X53.528 Y48.578
G1 F1800 X71.416 Y66.466 E44.3605
G0 F4320 X71.23 Y66.775
G1 F1800 X53.218 Y48.763 E45.65782
G0 F4320 X52.913 Y48.953
G1 F1800 X71.045 Y67.085 E46.96378
G0 F4320 X70.845 Y67.38
G1 F1800 X52.614 Y49.149 E48.27688
G0 F4320 X52.325 Y49.356
G1 F1800 X70.644 Y67.674 E49.59627
G0 F4320 X70.43 Y67.955
G1 F1800 X52.036 Y49.561 E50.92111
G0 F4320 X51.763 Y49.783
G1 F1800 X70.212 Y68.232 E52.2499
G0 F4320 X69.991 Y68.506
G1 F1800 X51.49 Y50.005 E53.58244
G0 F4320 X51.227 Y50.237
G1 F1800 X69.757 Y68.767 E54.91707
G0 F4320 X69.524 Y69.029
G1 F1800 X50.971 Y50.476 E56.25336
G0 F4320 X50.716 Y50.716
G1 F1800 X69.275 Y69.275 E57.59007
G0 F4320 X69.026 Y69.521
G1 F1800 X50.475 Y50.97 E58.92621
G0 F4320 X50.234 Y51.224
G1 F1800 X68.768 Y69.758 E60.26113
G0 F4320 X68.503 Y69.988
G1 F1800 X50.006 Y51.491 E61.59338
G0 F4320 X49.78 Y51.76
G1 F1800 X68.235 Y70.215 E62.92261
G0 F4320 X67.955 Y70.429
G1 F1800 X49.563 Y52.038 E64.24726
G0 F4320 X49.353 Y52.323
G1 F1800 X67.673 Y70.643 E65.56677
G0 F4320 X67.38 Y70.845
G1 F1800 X49.146 Y52.611 E66.88008
G0 F4320 X48.953 Y52.913
G1 F1800 X67.083 Y71.043 E68.1859
G0 F4320 X66.778 Y71.233
G1 F1800 X48.759 Y53.214 E69.48372
G0 F4320 X48.581 Y53.53
G1 F1800 X66.464 Y71.414 E70.77178
G0 F4320 X66.148 Y71.593
G1 F1800 X48.404 Y53.849 E72.0498
G0 F4320 X48.236 Y54.176
G1 F1800 X65.817 Y71.757 E73.31608
G0 F4320 X65.486 Y71.921
G1 F1800 X48.077 Y54.512 E74.56997
G0 F4320 X47.923 Y54.853
