;FLAVOR:Marlin
;TIME:6088
;Filament used: 8.01614m
;Layer height: 0.35
;MINX:35.2
;MINY:37.7
;MINZ:0.35
;MAXX:84.8
;MAXY:82.3
;MAXZ:59.85
;Generated with Cura_SteamEngine mb-master-20191108
M140 S65
M105
M190 S65
M104 S205
M105
M109 S205
M82 ;absolute extrusion mode
G21;(metric values)
G90;(absolute positioning)
M82;(set extruder to absolute mode)
M107;(start with the fan off)
G28;(Home the printer)
G92 E0;(Reset the extruder to 0)
G0 Z5 E5 F500;(Move up and prime the nozzle)
G0 X-1 Z0;(Move outside the printable area)
G1 Y60 E8 F500;(Draw a priming/wiping line to the rear)
G1 X-1;(Move a little closer to the print area)
G1 Y10 E16 F500;(draw more priming/wiping)
G1 E15 F250;(Small retract)
G92 E0;(Zero the extruder)
G92 E0
G92 E0
G1 F2400 E-2.5
;LAYER_COUNT:171
;LAYER:0
M107
;MESH:sign-post-cup.stl
G0 F4320 X35.544 Y81.975 Z0.35
;TYPE:WALL-INNER
G1 F2400 E0
G1 F1800 X35.525 Y81.975 E0.00097
G1 X35.525 Y38.025 E2.23932
G1 X35.545 Y38.025 E2.24034
G1 X35.544 Y81.975 E2.36505
G0 F4320 X84.475 Y81.975
G1 F1800 X84.455 Y81.975 E2.36607
G1 X84.458 Y38.025 E4.60442
G1 X84.475 Y38.025 E4.60529
G1 X84.475 Y81.975 E4.7236
G0 F4320 X84.8 Y82.3
;TYPE:WALL-OUTER
G1 F1800 X35.2 Y82.3 E7.24971
G1 X35.2 Y37.7 E9.52117
G1 X84.8 Y37.7 E12.04728
G1 X84.8 Y81.78 E14.29225
G0 F1620 X84.8 Y82.3
G0 F4320 X84.6 Y82.3
G0 X84.6 Y82.025
G0 X35.666 Y81.903
G0 X35.869 Y81.7
G1 F1800 X36.044 Y81.7 E14.30116
G1 X84.13 Y81.7 E16.75016
G1 X84.133 Y38.475 E18.9516
G1 X84.133 Y38.3 E18.96051
G1 X83.958 Y38.3 E18.96274
G1 X35.87 Y38.3 E21.41184
G1 X35.869 Y81.525 E23.61327
G1 X35.869 Y81.7 E23.6155
G0 F4320 X36.044 Y81.7
G0 X36.069 Y81.7
G0 X35.829 Y82
;TYPE:SKIN
G1 F1800 X84.17 Y82 E25.40923
G0 F4320 X84.336 Y38.097
G0 X84.173 Y38
M104 S200
G1 F1800 X35.83 Y38 E27.20304
;MESH:NONMESH
G0 F600 X35.83 Y38 Z0.7
G0 F4320 X35.565 Y81.975
;TIME_ELAPSED:51.558029
;LAYER:1
M140 S60
M106 S255
;TYPE:WALL-INNER
;MESH:sign-post-cup.stl
G1 F2400 X35.525 Y81.975 E27.20508
G1 X35.525 Y38.025 E29.44343
G1 X35.566 Y38.025 E29.44552
G1 X35.565 Y81.975 E29.70453
G0 F5760 X84.475 Y81.975
G1 F2400 X84.434 Y81.975 E29.70662
G1 X84.435 Y38.025 E31.94497
G1 X84.475 Y38.025 E31.94701
G1 X84.475 Y81.975 E32.20602
G0 F5760 X84.8 Y82.3
;TYPE:WALL-OUTER
G1 F2025 X35.2 Y82.3 E34.73213
G1 X35.2 Y37.7 E37.00359
G1 X84.8 Y37.7 E39.52969
G1 X84.8 Y81.78 E41.77467
G0 F1822.5 X84.8 Y82.3
G0 F5760 X84.6 Y82.3
G0 X84.6 Y82.025
G0 X35.687 Y81.903
G0 X35.89 Y81.7
G1 F2025 X36.065 Y81.7 E41.78358
G1 X84.109 Y81.7 E44.23044
G1 X84.11 Y38.475 E46.43187
G1 X84.11 Y38.3 E46.44079
G1 X83.935 Y38.3 E46.44301
G1 X35.891 Y38.3 E48.88988
G1 X35.89 Y81.525 E51.09131
G1 X35.89 Y81.7 E51.09353
G0 F5760 X36.065 Y81.7
G0 X36.09 Y81.7
G0 X35.85 Y82
;TYPE:SKIN
G1 F1500 X84.149 Y82 E52.88571
G0 F5760 X84.313 Y38.097
G0 X84.15 Y38
G1 F1500 X35.851 Y38 E54.67788
;MESH:NONMESH
G0 F600 X35.851 Y38 Z1.05
G0 F5760 X35.586 Y81.975
;TIME_ELAPSED:73.775532
;LAYER:2
;TYPE:WALL-INNER
;MESH:sign-post-cup.stl
G1 F3000 X35.525 Y81.975 E54.68099
G1 X35.525 Y38.025 E56.91935
G1 X35.587 Y38.025 E56.9225
G1 X35.586 Y81.975 E57.31581
G0 F7200 X84.475 Y81.975
G1 F3000 X84.413 Y81.975 E57.31897
G1 X84.414 Y38.025 E59.55733
G1 X84.475 Y38.025 E59.56043
G1 X84.475 Y81.975 E59.95375
G0 F7200 X84.8 Y82.3
;TYPE:WALL-OUTER
G1 F2250 X35.2 Y82.3 E62.47985
G1 X35.2 Y37.7 E64.75131
G1 X84.8 Y37.7 E67.27742
G1 X84.8 Y81.78 E69.52239
G0 F2025 X84.8 Y82.3
G0 F7200 X84.6 Y82.3
G0 X84.6 Y82.025
G0 X35.708 Y81.903
G0 X35.911 Y81.7
G1 F2250 X36.086 Y81.7 E69.53131
G1 X84.088 Y81.7 E71.97603
G1 X84.089 Y38.475 E74.17746
G1 X84.089 Y38.3 E74.18637
G1 X83.914 Y38.3 E74.1886
G1 X35.912 Y38.3 E76.63332
G1 X35.911 Y81.525 E78.83475
G1 X35.911 Y81.7 E78.83698
G0 F7200 X36.086 Y81.7
G0 X36.111 Y81.7
G0 X35.871 Y82
;TYPE:SKIN
G1 F1200 X84.128 Y82 E80.6276
G0 F7200 X84.292 Y38.097
G0 X84.129 Y38
G1 F1200 X35.872 Y38 E82.41822
;MESH:NONMESH
G0 F600 X35.872 Y38 Z1.4
G0 F7200 X35.607 Y81.975
;TIME_ELAPSED:94.788876
;LAYER:3
;TYPE:WALL-INNER
;MESH:sign-post-cup.stl
G1 F3000 X35.525 Y81.975 E82.42239
G1 X35.525 Y38.025 E84.66075
G1 X35.608 Y38.025 E84.66497
G1 X35.607 Y81.975 E85.19259
G0 F7200 X84.475 Y81.975
G1 F3000 X84.392 Y81.975 E85.19681
G1 X84.393 Y38.025 E87.43517
G1 X84.475 Y38.025 E87.43934
G1 X84.475 Y81.975 E87.96696
G0 F7200 X84.8 Y82.3
;TYPE:WALL-OUTER
G1 F2250 X35.2 Y82.3 E90.49306
G1 X35.2 Y37.7 E92.76452
G1 X84.8 Y37.7 E95.29063
G1 X84.8 Y81.78 E97.53561
G0 F2025 X84.8 Y82.3
G0 F7200 X84.6 Y82.3
G0 X84.6 Y82.025
G0 X35.729 Y81.903
G0 X35.932 Y81.7
G1 F2250 X36.107 Y81.7 E97.54452
G1 X84.067 Y81.7 E99.9871
G1 X84.068 Y38.475 E102.18853
G1 X84.068 Y38.3 E102.19745
G1 X83.893 Y38.3 E102.19967
G1 X35.933 Y38.3 E104.64226
G1 X35.932 Y81.525 E106.84369
G1 X35.932 Y81.7 E106.84592
G0 F7200 X36.107 Y81.7
G0 X36.132 Y81.7
G0 X35.892 Y82
;TYPE:SKIN
G1 F1200 X84.107 Y82 E108.63497
G0 F7200 X84.271 Y38.097
G0 X84.108 Y38
G1 F1200 X35.893 Y38 E110.42403
;MESH:NONMESH
G0 F600 X35.893 Y38 Z1.75
G0 F7200 X35.627 Y81.975
;TIME_ELAPSED:115.798887
;LAYER:4
;TYPE:WALL-INNER
;MESH:sign-post-cup.stl
G1 F3000 X35.525 Y81.975 E110.42923
G1 X35.525 Y38.025 E112.66758
G1 X35.628 Y38.025 E112.67283
G1 X35.627 Y81.975 E113.32835
G0 F7200 X84.475 Y81.975
G1 F3000 X84.372 Y81.975 E113.33359
G1 X84.373 Y38.025 E115.57195
G1 X84.475 Y38.025 E115.57714
G1 X84.475 Y81.975 E116.23266
G0 F7200 X84.8 Y82.3
;TYPE:WALL-OUTER
G1 F2250 X35.2 Y82.3 E118.75877
G1 X35.2 Y37.7 E121.03023
G1 X84.8 Y37.7 E123.55633
G1 X84.8 Y81.78 E125.80131
G0 F2025 X84.8 Y82.3
G0 F7200 X84.6 Y82.3
G0 X84.6 Y82.025
G0 X35.749 Y81.903
G0 X35.952 Y81.7
G1 F2250 X36.127 Y81.7 E125.81022
G1 X84.047 Y81.7 E128.25077
G1 X84.048 Y38.475 E130.4522
G1 X84.048 Y38.3 E130.46111
G1 X83.873 Y38.3 E130.46334
G1 X35.953 Y38.3 E132.90389
G1 X35.952 Y81.525 E135.10532
G1 X35.952 Y81.7 E135.10755
G0 F7200 X36.127 Y81.7
G0 X36.152 Y81.7
G0 X35.912 Y82
;TYPE:SKIN
G1 F1200 X84.087 Y82 E136.89512
G0 F7200 X84.251 Y38.097
G0 X84.088 Y38
G1 F1200 X35.913 Y38 E138.68269
;MESH:NONMESH
G0 F600 X35.913 Y38 Z2.1
G0 F7200 X35.648 Y81.975
;TIME_ELAPSED:136.805649
;LAYER:5
;TYPE:WALL-INNER
;MESH:sign-post-cup.stl
G1 F3000 X35.525 Y81.975 E138.68896
G1 X35.525 Y38.025 E140.92731
G1 X35.649 Y38.025 E140.93363
G1 X35.648 Y81.975 E141.72345
G0 F7200 X84.475 Y81.975
G1 F3000 X84.351 Y81.975 E141.72976
G1 X84.352 Y38.025 E143.96812
G1 X84.475 Y38.025 E143.97438
G1 X84.475 Y81.975 E144.7642
G0 F7200 X84.8 Y82.3
;TYPE:WALL-OUTER
G1 F2250 X35.2 Y82.3 E147.29031
G1 X35.2 Y37.7 E149.56177
G1 X84.8 Y37.7 E152.08788
G1 X84.8 Y81.78 E154.33285
G0 F2025 X84.8 Y82.3
G0 F7200 X84.6 Y82.3
G0 X84.6 Y82.025
G0 X35.77 Y81.903
G0 X35.973 Y81.7
G1 F2250 X36.148 Y81.7 E154.34176
G1 X84.026 Y81.7 E156.78017
G1 X84.027 Y38.475 E158.9816
G1 X84.027 Y38.3 E158.99051
G1 X83.852 Y38.3 E158.99274
G1 X35.974 Y38.3 E161.43115
G1 X35.973 Y81.525 E163.63258
G1 X35.973 Y81.7 E163.63481
G0 F7200 X36.148 Y81.7
G0 X36.173 Y81.7
G0 X35.933 Y82
;TYPE:SKIN
G1 F1200 X84.066 Y82 E165.42082
G0 F7200 X84.23 Y38.097
G0 X84.067 Y38
G1 F1200 X35.934 Y38 E167.20684
;MESH:NONMESH
G0 F600 X35.934 Y38 Z2.45
G0 F7200 X35.669 Y81.975
;TIME_ELAPSED:157.810039
;LAYER:6
;TYPE:WALL-INNER
;MESH:sign-post-cup.stl
G1 F3000 X35.525 Y81.975 E167.21417
G1 X35.525 Y38.025 E169.45253
G1 X35.67 Y38.025 E169.45991
G1 X35.669 Y81.975 E170.38403
G0 F7200 X84.475 Y81.975
G1 F3000 X84.33 Y81.975 E170.39142
G1 X84.331 Y38.025 E172.62977
G1 X84.475 Y38.025 E172.63711
G1 X84.475 Y81.975 E173.56123
G0 F7200 X84.8 Y82.3
;TYPE:WALL-OUTER
G1 F2250 X35.2 Y82.3 E176.08734
G1 X35.2 Y37.7 E178.3588
G1 X84.8 Y37.7 E180.8849
G1 X84.8 Y81.78 E183.12988
G0 F2025 X84.8 Y82.3
G0 F7200 X84.6 Y82.3
G0 X84.6 Y82.025
G0 X35.791 Y81.903
G0 X35.994 Y81.7
G1 F2250 X36.169 Y81.7 E183.13879
G1 X84.005 Y81.7 E185.57506
G1 X84.006 Y38.475 E187.77649
G1 X84.006 Y38.3 E187.7854
G1 X83.831 Y38.3 E187.78763
G1 X35.995 Y38.3 E190.2239
G1 X35.994 Y81.525 E192.42533
G1 X35.994 Y81.7 E192.42756
G0 F7200 X36.169 Y81.7
G0 X36.194 Y81.7
G0 X35.954 Y82
;TYPE:SKIN
G1 F1200 X84.045 Y82 E194.21201
G0 F7200 X84.209 Y38.097
G0 X84.046 Y38
G1 F1200 X35.955 Y38 E195.99647
;MESH:NONMESH
G0 F600 X35.955 Y38 Z2.8
G0 F7200 X35.69 Y81.975
;TIME_ELAPSED:178.812885
;LAYER:7
;TYPE:WALL-INNER
;MESH:sign-post-cup.stl
G1 F3000 X35.525 Y81.975 E196.00487
G1 X35.525 Y38.025 E198.24323
G1 X35.691 Y38.025 E198.25168
G1 X35.69 Y81.975 E199.31011
G0 F7200 X84.475 Y81.975
G1 F3000 X84.309 Y81.975 E199.31856
G1 X84.31 Y38.025 E201.55692
G1 X84.475 Y38.025 E201.56532
G1 X84.475 Y81.975 E202.62374
G0 F7200 X84.8 Y82.3
;TYPE:WALL-OUTER
G1 F2250 X35.2 Y82.3 E205.14985
G1 X35.2 Y37.7 E207.42131
G1 X84.8 Y37.7 E209.94742
G1 X84.8 Y81.78 E212.19239
G0 F2025 X84.8 Y82.3
G0 F7200 X84.6 Y82.3
G0 X84.6 Y82.025
G0 X35.812 Y81.903
G0 X36.015 Y81.7
G1 F2250 X36.19 Y81.7 E212.2013
G1 X83.984 Y81.7 E214.63543
G1 X83.985 Y38.475 E216.83686
G1 X83.985 Y38.3 E216.84578
G1 X83.81 Y38.3 E216.848
G1 X36.016 Y38.3 E219.28213
G1 X36.015 Y81.525 E221.48356
G1 X36.015 Y81.7 E221.48579
G0 F7200 X36.19 Y81.7
G0 X36.215 Y81.7
G0 X35.975 Y82
;TYPE:SKIN
G1 F1200 X84.024 Y82 E223.26869
G0 F7200 X84.188 Y38.097
G0 X84.025 Y38
G1 F1200 X35.976 Y38 E225.05159
;MESH:NONMESH
G0 F600 X35.976 Y38 Z3.15
G0 F7200 X35.71 Y81.975
;TIME_ELAPSED:199.814021
;LAYER:8
;TYPE:WALL-INNER
;MESH:sign-post-cup.stl
G1 F3000 X35.525 Y81.975 E225.06101
G1 X35.525 Y38.025 E227.29937
G1 X35.711 Y38.025 E227.30884
G1 X35.71 Y81.975 E228.49517
G0 F7200 X84.475 Y81.975
G1 F3000 X84.289 Y81.975 E228.50464
G1 X84.29 Y38.025 E230.74299
G1 X84.475 Y38.025 E230.75242
G1 X84.475 Y81.975 E231.93875
G0 F7200 X84.8 Y82.3
;TYPE:WALL-OUTER
G1 F2250 X35.2 Y82.3 E234.46485
G1 X35.2 Y37.7 E236.73631
G1 X84.8 Y37.7 E239.26242
G1 X84.8 Y81.78 E241.50739
G0 F2025 X84.8 Y82.3
G0 F7200 X84.6 Y82.3
G0 X84.6 Y82.025
G0 X35.832 Y81.903
G0 X36.035 Y81.7
G1 F2250 X36.21 Y81.7 E241.51631
G1 X83.964 Y81.7 E243.9484
G1 X83.965 Y38.475 E246.14983
G1 X83.965 Y38.3 E246.15874
G1 X83.79 Y38.3 E246.16097
G1 X36.036 Y38.3 E248.59306
G1 X36.035 Y81.525 E250.79449
G1 X36.035 Y81.7 E250.79672
G0 F7200 X36.21 Y81.7
G0 X36.235 Y81.7
G0 X35.995 Y82
;TYPE:SKIN
G1 F1200 X84.004 Y82 E252.57814
G0 F7200 X84.168 Y38.097
G0 X84.005 Y38
G1 F1200 X35.996 Y38 E254.35955
;MESH:NONMESH
G0 F600 X35.996 Y38 Z3.5
G0 F7200 X35.731 Y81.975
;TIME_ELAPSED:220.813386
;LAYER:9
;TYPE:WALL-INNER
;MESH:sign-post-cup.stl
G1 F3000 X35.525 Y81.975 E254.37004
G1 X35.525 Y38.025 E256.6084
G1 X35.732 Y38.025 E256.61894
G1 X35.731 Y81.975 E257.93957
G0 F7200 X84.475 Y81.975
G1 F3000 X84.268 Y81.975 E257.95011
G1 X84.269 Y38.025 E260.18847
G1 X84.475 Y38.025 E260.19896
G1 X84.475 Y81.975 E261.51959
G0 F7200 X84.8 Y82.3
;TYPE:WALL-OUTER
G1 F2250 X35.2 Y82.3 E264.04569
G1 X35.2 Y37.7 E266.31715
G1 X84.8 Y37.7 E268.84326
G1 X84.8 Y81.78 E271.08824
G0 F2025 X84.8 Y82.3
G0 F7200 X84.6 Y82.3
G0 X84.6 Y82.025
G0 X35.853 Y81.903
G0 X36.056 Y81.7
G1 F2250 X36.231 Y81.7 E271.09715
G1 X83.943 Y81.7 E273.5271
G1 X83.944 Y38.475 E275.72853
G1 X83.944 Y38.3 E275.73745
G1 X83.769 Y38.3 E275.73967
G1 X36.057 Y38.3 E278.16963
G1 X36.056 Y81.525 E280.37106
G1 X36.056 Y81.7 E280.37329
G0 F7200 X36.231 Y81.7
G0 X36.256 Y81.7
G0 X36.016 Y82
;TYPE:SKIN
G1 F1200 X83.983 Y82 E282.15314
G0 F7200 X84.147 Y38.097
G0 X83.984 Y38
G1 F1200 X36.017 Y38 E283.933
;MESH:NONMESH
G0 F600 X36.017 Y38 Z3.85
G0 F7200 X35.752 Y81.975
;TIME_ELAPSED:241.810757
;LAYER:10
;TYPE:WALL-INNER
;MESH:sign-post-cup.stl
G1 F3000 X35.525 Y81.975 E283.94456
G1 X35.525 Y38.025 E286.18291
G1 X35.753 Y38.025 E286.19452
G1 X35.752 Y81.975 E287.64946
G0 F7200 X84.475 Y81.975
G1 F3000 X84.247 Y81.975 E287.66107
G1 X84.248 Y38.025 E289.89942
G1 X84.475 Y38.025 E289.91098
G1 X84.475 Y81.975 E291.36591
G0 F7200 X84.8 Y82.3
;TYPE:WALL-OUTER
G1 F2250 X35.2 Y82.3 E293.89202
G1 X35.2 Y37.7 E296.16348
G1 X84.8 Y37.7 E298.68959
G1 X84.8 Y81.78 E300.93456
G0 F2025 X84.8 Y82.3
G0 F7200 X84.6 Y82.3
G0 X84.6 Y82.025
G0 X35.874 Y81.903
G0 X36.077 Y81.7
G1 F2250 X36.252 Y81.7 E300.94348
G1 X83.922 Y81.7 E303.37129
G1 X83.923 Y38.475 E305.57272
G1 X83.923 Y38.3 E305.58163
G1 X83.748 Y38.3 E305.58386
G1 X36.078 Y38.3 E308.01168
G1 X36.077 Y81.525 E310.21311
G1 X36.077 Y81.7 E310.21533
G0 F7200 X36.252 Y81.7
G0 X36.277 Y81.7
G0 X36.037 Y82
;TYPE:SKIN
G1 F1200 X83.962 Y82 E311.99363
G0 F7200 X84.126 Y38.097
G0 X83.963 Y38
G1 F1200 X36.038 Y38 E313.77193
;MESH:NONMESH
G0 F600 X36.038 Y38 Z4.2
G0 F7200 X35.773 Y81.975
;TIME_ELAPSED:262.806004
;LAYER:11
;TYPE:WALL-INNER
;MESH:sign-post-cup.stl
G1 F3000 X35.525 Y81.975 E313.78456
G1 X35.525 Y38.025 E316.02291
G1 X35.774 Y38.025 E316.0356
G1 X35.773 Y81.975 E317.62483
G0 F7200 X84.475 Y81.975
G1 F3000 X84.226 Y81.975 E317.63751
G1 X84.227 Y38.025 E319.87587
G1 X84.475 Y38.025 E319.8885
G1 X84.475 Y81.975 E321.47773
G0 F7200 X84.8 Y82.3
;TYPE:WALL-OUTER
G1 F2250 X35.2 Y82.3 E324.00384
G1 X35.2 Y37.7 E326.27529
G1 X84.8 Y37.7 E328.8014
G1 X84.8 Y81.78 E331.04638
G0 F2025 X84.8 Y82.3
G0 F7200 X84.6 Y82.3
G0 X84.6 Y82.025
G0 X35.895 Y81.903
G0 X36.098 Y81.7
G1 F2250 X36.273 Y81.7 E331.05529
G1 X83.901 Y81.7 E333.48096
G1 X83.902 Y38.475 E335.6824
G1 X83.902 Y38.3 E335.69131
G1 X83.727 Y38.3 E335.69354
G1 X36.099 Y38.3 E338.11921
G1 X36.098 Y81.525 E340.32064
G1 X36.098 Y81.7 E340.32287
G0 F7200 X36.273 Y81.7
G0 X36.298 Y81.7
G0 X36.058 Y82
;TYPE:SKIN
G1 F1200 X83.941 Y82 E342.09961
G0 F7200 X84.105 Y38.097
G0 X83.942 Y38
G1 F1200 X36.059 Y38 E343.87635
;MESH:NONMESH
G0 F600 X36.059 Y38 Z4.55
G0 F7200 X35.794 Y81.975
;TIME_ELAPSED:283.799010
;LAYER:12
;TYPE:WALL-INNER
;MESH:sign-post-cup.stl
G1 F3000 X35.525 Y81.975 E343.89005
G1 X35.525 Y38.025 E346.1284
G1 X35.795 Y38.025 E346.14215
G1 X35.794 Y81.975 E347.86569
G0 F7200 X84.475 Y81.975
G1 F3000 X84.205 Y81.975 E347.87944
G1 X84.206 Y38.025 E350.11779
G1 X84.475 Y38.025 E350.13149
G1 X84.475 Y81.975 E351.85503
G0 F7200 X84.8 Y82.3
;TYPE:WALL-OUTER
G1 F2250 X35.2 Y82.3 E354.38113
G1 X35.2 Y37.7 E356.65259
G1 X84.8 Y37.7 E359.1787
G1 X84.8 Y81.78 E361.42368
G0 F2025 X84.8 Y82.3
G0 F7200 X84.6 Y82.3
G0 X84.6 Y82.025
G0 X35.916 Y81.903
G0 X36.119 Y81.7
G1 F2250 X36.294 Y81.7 E361.43259
G1 X83.88 Y81.7 E363.85612
G1 X83.881 Y38.475 E366.05756
G1 X83.881 Y38.3 E366.06647
G1 X83.706 Y38.3 E366.0687
G1 X36.12 Y38.3 E368.49223
G1 X36.119 Y81.525 E370.69366
G1 X36.119 Y81.7 E370.69589
G0 F7200 X36.294 Y81.7
G0 X36.319 Y81.7
G0 X36.079 Y82
;TYPE:SKIN
G1 F1200 X83.92 Y82 E372.47107
G0 F7200 X84.084 Y38.097
G0 X83.921 Y38
G1 F1200 X36.08 Y38 E374.24625
;MESH:NONMESH
G0 F600 X36.08 Y38 Z4.9
G0 F7200 X35.814 Y81.975
;TIME_ELAPSED:304.789667
;LAYER:13
;TYPE:WALL-INNER
;MESH:sign-post-cup.stl
G1 F3000 X35.525 Y81.975 E374.26097
G1 X35.525 Y38.025 E376.49933
G1 X35.815 Y38.025 E376.5141
G1 X35.814 Y81.975 E378.36553
G0 F7200 X84.475 Y81.975
G1 F3000 X84.185 Y81.975 E378.3803
G1 X84.186 Y38.025 E380.61866
G1 X84.475 Y38.025 E380.63338
G1 X84.475 Y81.975 E382.48482
G0 F7200 X84.8 Y82.3
;TYPE:WALL-OUTER
G1 F2250 X35.2 Y82.3 E385.01092
G1 X35.2 Y37.7 E387.28238
G1 X84.8 Y37.7 E389.80849
G1 X84.8 Y81.78 E392.05347
G0 F2025 X84.8 Y82.3
G0 F7200 X84.6 Y82.3
G0 X84.6 Y82.025
G0 X35.936 Y81.903
G0 X36.139 Y81.7
G1 F2250 X36.314 Y81.7 E392.06238
G1 X83.86 Y81.7 E394.48388
G1 X83.861 Y38.475 E396.68531
G1 X83.861 Y38.3 E396.69422
G1 X83.686 Y38.3 E396.69645
G1 X36.14 Y38.3 E399.11795
G1 X36.139 Y81.525 E401.31938
G1 X36.139 Y81.7 E401.32161
G0 F7200 X36.314 Y81.7
G0 X36.339 Y81.7
G0 X36.099 Y82
;TYPE:SKIN
G1 F1200 X83.9 Y82 E403.0953
G0 F7200 X84.064 Y38.097
G0 X83.901 Y38
G1 F1200 X36.1 Y38 E404.869
;MESH:NONMESH
G0 F600 X36.1 Y38 Z5.25
G0 F7200 X35.835 Y81.975
;TIME_ELAPSED:325.777989
;LAYER:14
;TYPE:WALL-INNER
;MESH:sign-post-cup.stl
G1 F3000 X35.525 Y81.975 E404.88479
G1 X35.525 Y38.025 E407.12314
G1 X35.836 Y38.025 E407.13898
G1 X35.835 Y81.975 E409.12472
G0 F7200 X84.475 Y81.975
G1 F3000 X84.164 Y81.975 E409.14056
G1 X84.165 Y38.025 E411.37892
G1 X84.475 Y38.025 E411.3947
G1 X84.475 Y81.975 E413.38045
G0 F7200 X84.8 Y82.3
;TYPE:WALL-OUTER
G1 F2250 X35.2 Y82.3 E415.90655
