;FLAVOR:Marlin
;TIME:927
;Filament used: 1.1224m
;Layer height: 0.35
;MINX:45.204
;MINY:45.202
;MINZ:0.35
;MAXX:74.796
;MAXY:74.798
;MAXZ:19.95
;Generated with Cura_SteamEngine mb-master-20191108
M140 S65
M105
M190 S65
M104 S205
M105
M109 S205
M82 ;absolute extrusion mode
G21;(metric values)
G90;(absolute positioning)
M82;(set extruder to absolute mode)
M107;(start with the fan off)
G28;(Home the printer)
G92 E0;(Reset the extruder to 0)
G0 Z5 E5 F500;(Move up and prime the nozzle)
G0 X-1 Z0;(Move outside the printable area)
G1 Y60 E8 F500;(Draw a priming/wiping line to the rear)
G1 X-1;(Move a little closer to the print area)
G1 Y10 E16 F500;(draw more priming/wiping)
G1 E15 F250;(Small retract)
G92 E0;(Zero the extruder)
G92 E0
G92 E0
G1 F2400 E-2.5
;LAYER_COUNT:57
;LAYER:0
M107
;MESH:sign-post.stl
G0 F4320 X60.674 Y45.892 Z0.35
;TYPE:WALL-INNER
G1 F2400 E0
G1 F1800 X61.559 Y45.962 E0.04521
G1 X62.44 Y46.089 E0.09055
G1 X63.34 Y46.277 E0.13737
G1 X64.195 Y46.514 E0.18256
G1 X65.033 Y46.804 E0.22772
G1 X65.865 Y47.153 E0.27367
G1 X66.669 Y47.551 E0.31936
G1 X67.432 Y47.991 E0.36422
G1 X68.195 Y48.498 E0.41088
G1 X68.889 Y49.027 E0.45532
G1 X69.589 Y49.632 E0.50244
G1 X70.218 Y50.252 E0.54742
G1 X70.801 Y50.903 E0.59193
G1 X71.356 Y51.608 E0.63762
G1 X71.868 Y52.348 E0.68345
G1 X72.327 Y53.114 E0.72893
G1 X72.744 Y53.921 E0.77519
G1 X73.099 Y54.729 E0.82014
G1 X73.407 Y55.571 E0.8658
G1 X73.669 Y56.463 E0.91315
G1 X73.859 Y57.304 E0.95706
G1 X74.005 Y58.211 E1.00385
G1 X74.088 Y59.061 E1.04735
G1 X74.119 Y59.976 E1.09398
G1 X74.093 Y60.882 E1.14014
G1 X74.01 Y61.76 E1.18505
G1 X73.867 Y62.664 E1.23166
G1 X73.672 Y63.532 E1.27697
G1 X73.426 Y64.378 E1.32184
G1 X73.116 Y65.232 E1.36812
G1 X72.757 Y66.057 E1.41394
G1 X72.352 Y66.845 E1.45906
G1 X71.896 Y67.611 E1.50446
G1 X71.38 Y68.36 E1.55078
G1 X70.82 Y69.074 E1.597
G1 X70.231 Y69.735 E1.64209
G1 X69.595 Y70.363 E1.68761
G1 X68.893 Y70.97 E1.73487
G1 X68.195 Y71.502 E1.77957
G1 X67.434 Y72.008 E1.82611
G1 X66.669 Y72.449 E1.87109
G1 X65.865 Y72.847 E1.91678
G1 X65.034 Y73.196 E1.96268
G1 X64.195 Y73.486 E2.00789
G1 X63.34 Y73.723 E2.05308
G1 X62.44 Y73.911 E2.0999
G1 X61.559 Y74.038 E2.14523
G1 X60.674 Y74.108 E2.19045
G1 X59.786 Y74.123 E2.23568
G1 X58.867 Y74.078 E2.28254
G1 X57.985 Y73.98 E2.32774
G1 X57.089 Y73.822 E2.37407
G1 X56.235 Y73.616 E2.41882
G1 X55.377 Y73.349 E2.46458
G1 X54.538 Y73.027 E2.51035
G1 X53.712 Y72.65 E2.55659
G1 X52.925 Y72.228 E2.60207
G1 X52.191 Y71.772 E2.64608
G1 X51.436 Y71.235 E2.69327
G1 X50.757 Y70.683 E2.73783
G1 X50.075 Y70.052 E2.78515
G1 X49.48 Y69.429 E2.82903
G1 X48.914 Y68.755 E2.87385
G1 X48.357 Y68 E2.92164
G1 X47.89 Y67.277 E2.96547
G1 X47.445 Y66.476 E3.01214
G1 X47.07 Y65.69 E3.05649
G1 X46.725 Y64.83 E3.10369
G1 X46.451 Y63.998 E3.1483
G1 X46.223 Y63.126 E3.1942
G1 X46.048 Y62.221 E3.24115
G1 X45.938 Y61.364 E3.28515
G1 X45.881 Y60.469 E3.33082
G1 X45.879 Y59.552 E3.37753
G1 X45.933 Y58.669 E3.42258
G1 X46.041 Y57.813 E3.46652
G1 X46.212 Y56.919 E3.51288
G1 X46.442 Y56.031 E3.5596
G1 X46.72 Y55.179 E3.60524
G1 X47.045 Y54.364 E3.64993
G1 X47.441 Y53.532 E3.69686
G1 X47.865 Y52.765 E3.74149
G1 X48.368 Y51.981 E3.78893
G1 X48.882 Y51.282 E3.83312
G1 X49.458 Y50.595 E3.87878
G1 X50.069 Y49.954 E3.92388
G1 X50.749 Y49.324 E3.97109
G1 X51.438 Y48.764 E4.01631
G1 X52.182 Y48.234 E4.06283
G1 X52.932 Y47.769 E4.10777
G1 X53.719 Y47.347 E4.15325
G1 X54.538 Y46.973 E4.19911
G1 X55.381 Y46.649 E4.24511
G1 X56.231 Y46.385 E4.29044
G1 X57.089 Y46.178 E4.33539
G1 X57.985 Y46.02 E4.38172
G1 X58.867 Y45.922 E4.42692
G1 X59.786 Y45.877 E4.47378
G1 X60.154 Y45.884 E4.49253
G0 F1620 X60.674 Y45.892
G0 F4320 X60.692 Y45.542
G1 F1800 X61.59 Y45.613 E4.5384
G1 X62.512 Y45.746 E4.58585
G1 X63.412 Y45.934 E4.63267
G1 X64.302 Y46.181 E4.67971
G1 X65.158 Y46.477 E4.72584
G1 X66.012 Y46.835 E4.773
G1 X66.831 Y47.24 E4.81953
G1 X67.614 Y47.692 E4.86558
G1 X68.396 Y48.212 E4.91341
G1 X69.118 Y48.762 E4.95963
G1 X69.824 Y49.372 E5.00715
G1 X70.47 Y50.009 E5.05336
G1 X71.076 Y50.686 E5.09963
G1 X71.636 Y51.397 E5.14573
G1 X72.161 Y52.156 E5.19273
G1 X72.638 Y52.953 E5.24003
G1 X73.055 Y53.76 E5.2863
G1 X73.428 Y54.609 E5.33352
G1 X73.74 Y55.463 E5.37983
G1 X74.005 Y56.364 E5.42766
G1 X74.205 Y57.248 E5.47382
G1 X74.351 Y58.155 E5.52061
G1 X74.438 Y59.049 E5.56636
G1 X74.469 Y59.976 E5.61359
G1 X74.443 Y60.895 E5.66042
G1 X74.356 Y61.815 E5.70748
G1 X74.211 Y62.733 E5.75481
G1 X74.014 Y63.611 E5.80064
G1 X73.759 Y64.485 E5.84701
G1 X73.437 Y65.372 E5.89507
G1 X73.076 Y66.2 E5.94107
G1 X72.653 Y67.024 E5.98824
G1 X72.192 Y67.798 E6.03413
G1 X71.656 Y68.576 E6.08224
G1 X71.095 Y69.292 E6.12857
G1 X70.483 Y69.978 E6.17539
G1 X69.83 Y70.622 E6.2221
G1 X69.122 Y71.235 E6.26979
G1 X68.396 Y71.788 E6.31627
G1 X67.616 Y72.307 E6.36399
G1 X66.831 Y72.76 E6.41015
G1 X66.012 Y73.165 E6.45668
G1 X65.159 Y73.523 E6.50379
G1 X64.302 Y73.819 E6.54997
G1 X63.412 Y74.066 E6.59701
G1 X62.512 Y74.254 E6.64384
G1 X61.59 Y74.387 E6.69128
G1 X60.692 Y74.458 E6.73716
G1 X59.775 Y74.473 E6.78387
G1 X58.843 Y74.428 E6.83139
G1 X57.932 Y74.327 E6.87807
G1 X57.028 Y74.167 E6.92483
G1 X56.141 Y73.953 E6.9713
G1 X55.258 Y73.678 E7.0184
G1 X54.413 Y73.354 E7.06449
G1 X53.558 Y72.964 E7.11235
G1 X52.751 Y72.531 E7.15899
G1 X51.99 Y72.059 E7.2046
G1 X51.217 Y71.508 E7.25295
G1 X50.53 Y70.95 E7.29802
G1 X49.831 Y70.304 E7.3465
G1 X49.221 Y69.665 E7.39149
G1 X48.634 Y68.966 E7.43798
G1 X48.075 Y68.208 E7.48594
G1 X47.59 Y67.457 E7.53147
G1 X47.132 Y66.634 E7.57944
G1 X46.75 Y65.833 E7.62464
G1 X46.4 Y64.96 E7.67254
G1 X46.112 Y64.087 E7.71936
G1 X45.882 Y63.207 E7.76568
G1 X45.704 Y62.287 E7.81341
G1 X45.59 Y61.401 E7.8589
G1 X45.531 Y60.475 E7.90616
G1 X45.529 Y59.553 E7.95311
G1 X45.585 Y58.634 E8.00001
G1 X45.697 Y57.747 E8.04554
G1 X45.87 Y56.843 E8.09241
G1 X46.106 Y55.93 E8.14044
G1 X46.387 Y55.07 E8.18652
G1 X46.723 Y54.227 E8.23274
G1 X47.128 Y53.375 E8.28078
G1 X47.57 Y52.576 E8.32729
G1 X48.073 Y51.792 E8.37473
G1 X48.608 Y51.064 E8.42074
G1 X49.199 Y50.359 E8.46759
G1 X49.825 Y49.703 E8.51377
G1 X50.521 Y49.057 E8.56214
G1 X51.217 Y48.492 E8.60779
G1 X51.992 Y47.94 E8.65625
G1 X52.752 Y47.469 E8.70179
G1 X53.558 Y47.036 E8.74839
G1 X54.413 Y46.646 E8.79625
G1 X55.262 Y46.32 E8.84256
G1 X56.137 Y46.048 E8.88923
G1 X57.028 Y45.833 E8.93591
G1 X57.932 Y45.673 E8.98267
G1 X58.843 Y45.572 E9.02935
G1 X59.775 Y45.527 E9.07687
G1 X60.172 Y45.534 E9.09709
G0 F1620 X60.692 Y45.542
G0 F4320 X60.707 Y45.217
;TYPE:WALL-OUTER
G1 F1800 X61.63 Y45.29 E9.14425
G1 X62.564 Y45.425 E9.19231
G1 X63.487 Y45.618 E9.24033
G1 X64.397 Y45.87 E9.28842
G1 X65.284 Y46.177 E9.33623
G1 X66.138 Y46.535 E9.38339
G1 X66.987 Y46.955 E9.43163
G1 X67.794 Y47.421 E9.47909
G1 X68.586 Y47.948 E9.52754
G1 X69.323 Y48.509 E9.57471
G1 X70.043 Y49.132 E9.6232
G1 X70.703 Y49.782 E9.67038
G1 X71.318 Y50.469 E9.71734
G1 X71.899 Y51.206 E9.76514
G1 X72.44 Y51.989 E9.81361
G1 X72.922 Y52.795 E9.86144
G1 X73.353 Y53.629 E9.90925
G1 X73.726 Y54.478 E9.95648
G1 X74.052 Y55.371 E10.00489
G1 X74.317 Y56.272 E10.05272
G1 X74.525 Y57.188 E10.10056
G1 X74.672 Y58.103 E10.14776
G1 X74.763 Y59.038 E10.19561
G1 X74.794 Y59.976 E10.2434
G1 X74.767 Y60.925 E10.29176
G1 X74.68 Y61.85 E10.33907
G1 X74.531 Y62.791 E10.3876
G1 X74.328 Y63.694 E10.43473
G1 X74.065 Y64.596 E10.48258
G1 X73.742 Y65.487 E10.53085
G1 X73.37 Y66.34 E10.57825
G1 X72.941 Y67.175 E10.62606
G1 X72.46 Y67.982 E10.6739
G1 X71.92 Y68.766 E10.72239
G1 X71.349 Y69.495 E10.76955
G1 X70.716 Y70.204 E10.81796
G1 X70.043 Y70.868 E10.86611
G1 X69.327 Y71.488 E10.91434
G1 X68.586 Y72.052 E10.96177
G1 X67.794 Y72.579 E11.01022
G1 X66.987 Y73.045 E11.05768
G1 X66.138 Y73.465 E11.10592
G1 X65.284 Y73.823 E11.15308
G1 X64.397 Y74.13 E11.20088
G1 X63.487 Y74.382 E11.24897
G1 X62.564 Y74.575 E11.297
G1 X61.63 Y74.71 E11.34506
G1 X60.707 Y74.783 E11.39222
G1 X59.764 Y74.798 E11.44025
G1 X58.823 Y74.753 E11.48823
G1 X57.888 Y74.649 E11.53614
G1 X56.959 Y74.485 E11.58419
G1 X56.057 Y74.267 E11.63145
G1 X55.157 Y73.987 E11.67945
G1 X54.278 Y73.65 E11.7274
G1 X53.423 Y73.26 E11.77526
G1 X52.591 Y72.814 E11.82333
G1 X51.801 Y72.324 E11.87068
G1 X51.028 Y71.773 E11.91903
G1 X50.309 Y71.189 E11.9662
G1 X49.61 Y70.543 E12.01468
G1 X48.974 Y69.877 E12.06158
G1 X48.375 Y69.163 E12.10904
G1 X47.813 Y68.401 E12.15727
G1 X47.31 Y67.622 E12.20449
G1 X46.848 Y66.792 E12.25287
G1 X46.448 Y65.955 E12.30012
G1 X46.094 Y65.071 E12.34861
G1 X45.803 Y64.189 E12.39591
G1 X45.564 Y63.272 E12.44418
G1 X45.385 Y62.349 E12.49206
G1 X45.267 Y61.431 E12.5392
G1 X45.206 Y60.481 E12.58768
G1 X45.204 Y59.554 E12.63489
G1 X45.262 Y58.604 E12.68337
G1 X45.378 Y57.686 E12.73049
G1 X45.555 Y56.762 E12.77841
G1 X45.793 Y55.841 E12.82685
G1 X46.081 Y54.961 E12.87401
G1 X46.429 Y54.088 E12.92187
G1 X46.837 Y53.229 E12.97031
G1 X47.292 Y52.408 E13.01811
G1 X47.799 Y51.617 E13.06596
G1 X48.355 Y50.86 E13.1138
G1 X48.95 Y50.15 E13.16098
G1 X49.598 Y49.47 E13.20882
G1 X50.309 Y48.811 E13.25819
G1 X51.028 Y48.227 E13.30536
G1 X51.803 Y47.675 E13.35382
G1 X52.591 Y47.186 E13.40105
G1 X53.423 Y46.74 E13.44913
G1 X54.278 Y46.35 E13.49699
G1 X55.157 Y46.013 E13.54494
G1 X56.058 Y45.733 E13.59299
G1 X56.959 Y45.515 E13.6402
G1 X57.888 Y45.351 E13.68825
G1 X58.823 Y45.247 E13.73616
G1 X59.764 Y45.202 E13.78414
G1 X60.187 Y45.209 E13.80569
G0 F1620 X60.707 Y45.217
G0 F4320 X60.906 Y45.232
G0 X60.885 Y45.505
G0 X60.668 Y46.232
;TYPE:SKIN
G1 F1800 X61.514 Y46.298 E13.8489
G1 X62.386 Y46.424 E13.89377
G1 X63.249 Y46.605 E13.93868
G1 X64.097 Y46.84 E13.9835
G1 X64.914 Y47.122 E14.02752
G1 X65.717 Y47.459 E14.07187
G1 X66.518 Y47.856 E14.1174
G1 X67.253 Y48.28 E14.16061
G1 X67.998 Y48.775 E14.20617
G1 X68.675 Y49.291 E14.24952
G1 X69.35 Y49.875 E14.29498
G1 X69.979 Y50.495 E14.33996
G1 X70.533 Y51.113 E14.38223
G1 X71.076 Y51.802 E14.42691
G1 X71.582 Y52.533 E14.47219
G1 X72.03 Y53.28 E14.51655
G1 X72.437 Y54.067 E14.56167
G1 X72.78 Y54.846 E14.60502
G1 X73.084 Y55.677 E14.65009
G1 X73.337 Y56.538 E14.69579
G1 X73.523 Y57.358 E14.73862
G1 X73.669 Y58.265 E14.7854
G1 X73.748 Y59.073 E14.82675
G1 X73.779 Y59.966 E14.87226
G1 X73.753 Y60.87 E14.91832
G1 X73.674 Y61.707 E14.96114
G1 X73.535 Y62.59 E15.00666
G1 X73.341 Y63.455 E15.05181
G1 X73.103 Y64.273 E15.0952
G1 X72.805 Y65.096 E15.13977
G1 X72.454 Y65.902 E15.18455
G1 X72.054 Y66.681 E15.22915
G1 X71.611 Y67.425 E15.27325
G1 X71.112 Y68.15 E15.31807
G1 X70.554 Y68.862 E15.36414
G1 X69.986 Y69.499 E15.40761
G1 X69.364 Y70.113 E15.45212
G1 X68.679 Y70.706 E15.49826
G1 X67.998 Y71.225 E15.54187
G1 X67.258 Y71.717 E15.58713
G1 X66.518 Y72.144 E15.63064
G1 X65.717 Y72.541 E15.67617
G1 X64.915 Y72.878 E15.72048
G1 X64.097 Y73.16 E15.76454
G1 X63.248 Y73.395 E15.80941
G1 X62.386 Y73.576 E15.85427
G1 X61.514 Y73.702 E15.89914
G1 X60.668 Y73.768 E15.94236
G1 X59.797 Y73.783 E15.98672
G1 X58.888 Y73.738 E16.03307
G1 X58.033 Y73.643 E16.07689
G1 X57.158 Y73.489 E16.12213
G1 X56.331 Y73.289 E16.16547
G1 X55.481 Y73.025 E16.2108
G1 X54.676 Y72.716 E16.25471
G1 X53.859 Y72.343 E16.30045
G1 X53.1 Y71.937 E16.34429
G1 X52.378 Y71.489 E16.38757
G1 X51.638 Y70.962 E16.43384
G1 X50.971 Y70.419 E16.47764
G1 X50.314 Y69.81 E16.52326
G1 X49.726 Y69.194 E16.56663
G1 X49.181 Y68.544 E16.60984
G1 X48.631 Y67.798 E16.65704
G1 X48.176 Y67.093 E16.69977
G1 X47.747 Y66.32 E16.7448
G1 X47.377 Y65.544 E16.78858
G1 X47.048 Y64.723 E16.83363
G1 X46.774 Y63.891 E16.87824
G1 X46.555 Y63.051 E16.92245
G1 X46.386 Y62.176 E16.96784
G1 X46.276 Y61.321 E17.01174
G1 X46.221 Y60.448 E17.05629
G1 X46.219 Y59.573 E17.10085
G1 X46.271 Y58.712 E17.14478
G1 X46.379 Y57.856 E17.18873
G1 X46.544 Y56.993 E17.23347
G1 X46.765 Y56.136 E17.27855
G1 X47.033 Y55.314 E17.32258
G1 X47.357 Y54.5 E17.3672
G1 X47.743 Y53.688 E17.41299
G1 X48.157 Y52.939 E17.45658
G1 X48.642 Y52.183 E17.50232
G1 X49.156 Y51.484 E17.54651
G1 X49.704 Y50.83 E17.58996
G1 X50.308 Y50.196 E17.63456
G1 X50.963 Y49.588 E17.68008
G1 X51.644 Y49.035 E17.72476
G1 X52.375 Y48.514 E17.77047
G1 X53.111 Y48.058 E17.81457
G1 X53.866 Y47.654 E17.85818
G1 X54.68 Y47.282 E17.90376
G1 X55.485 Y46.973 E17.94767
G1 X56.327 Y46.712 E17.99257
G1 X57.165 Y46.509 E18.03648
G1 X58.022 Y46.358 E18.0808
G1 X58.888 Y46.262 E18.12518
G1 X59.797 Y46.217 E18.17153
G1 X60.148 Y46.224 E18.18941
G0 F1620 X60.668 Y46.232
G0 F4320 X60.688 Y45.979
G0 X63.311 Y46.42
G0 X64.978 Y46.939
G0 X66.605 Y47.682
G0 X68.11 Y48.616
G0 X69.486 Y49.735
G0 X70.463 Y50.76
G0 X71.836 Y52.462
G0 X71.482 Y52.673
G1 F1800 X67.329 Y48.52 E18.48853
G1 X67.267 Y48.458
G0 F4320 X67.486 Y48.129
G0 X66.36 Y47.494
G0 X66.177 Y47.863
G1 F1800 X72.131 Y53.817 E18.91737
G1 X72.193 Y53.879
G0 F4320 X72.563 Y54.744
G1 F1800 X65.255 Y47.436 E19.44373
G1 X65.193 Y47.374
G0 F4320 X64.452 Y47.128
G1 F1800 X72.868 Y55.543 E20.04986
G1 X72.93 Y55.605
G0 F4320 X73.091 Y56.262
G1 F1800 X63.732 Y46.903 E20.72394
G0 F4320 X63.06 Y46.726
G1 F1800 X73.264 Y56.929 E21.45885
G0 F4320 X73.395 Y57.556
G1 F1800 X62.433 Y46.594 E22.2484
G0 F4320 X61.849 Y46.504
G1 F1800 X73.49 Y58.146 E23.08688
G0 F4320 X73.554 Y58.705
G1 F1800 X61.287 Y46.437 E23.97045
G0 F4320 X60.75 Y46.396
G1 F1800 X73.596 Y59.242 E24.89569
G0 F4320 X73.614 Y59.754
G1 F1800 X60.241 Y46.381 E25.85888
G0 F4320 X59.742 Y46.377
G1 F1800 X73.613 Y60.249 E26.85798
G0 F4320 X73.599 Y60.73
G1 F1800 X59.27 Y46.401 E27.89003
G0 F4320 X58.804 Y46.43
G1 F1800 X73.565 Y61.19 E28.95316
G0 F4320 X73.522 Y61.643
G1 F1800 X58.358 Y46.478 E30.04539
G0 F4320 X57.919 Y46.535
G1 F1800 X73.457 Y62.072 E31.16448
G0 F4320 X73.389 Y62.5
G1 F1800 X57.499 Y46.609 E32.309
G0 F4320 X57.084 Y46.69
G1 F1800 X73.302 Y62.907 E33.47707
G0 F4320 X73.211 Y63.312
G1 F1800 X56.685 Y46.786 E34.66736
G0 F4320 X56.292 Y46.887
G1 F1800 X73.105 Y63.701 E35.87836
G0 F4320 X72.993 Y64.084
G1 F1800 X55.913 Y47.004 E37.10855
G0 F4320 X55.536 Y47.121
G1 F1800 X72.869 Y64.454 E38.35696
G0 F4320 X72.737 Y64.818
G1 F1800 X55.178 Y47.258 E39.62169
G0 F4320 X54.82 Y47.395
G1 F1800 X72.599 Y65.174 E40.90223
G0 F4320 X72.448 Y65.519
G1 F1800 X54.476 Y47.547 E42.19667
G0 F4320 X54.136 Y47.702
G1 F1800 X72.296 Y65.862 E43.50465
G0 F4320 X72.129 Y66.189
G1 F1800 X53.804 Y47.864 E44.82451
G0 F4320 X53.482 Y48.037
G1 F1800 X71.961 Y66.516 E46.15547
G0 F4320 X71.781 Y66.832
G1 F1800 X53.161 Y48.211 E47.49661
G0 F4320 X52.855 Y48.4
G1 F1800 X71.596 Y67.141 E48.84644
G0 F4320 X71.405 Y67.445
G1 F1800 X52.55 Y48.59 E50.20448
G0 F4320 X52.256 Y48.791
G1 F1800 X71.204 Y67.739 E51.56921
G0 F4320 X71.002 Y68.032
G1 F1800 X51.968 Y48.998 E52.94014
G0 F4320 X51.681 Y49.206
G1 F1800 X70.786 Y68.311 E54.31619
G0 F4320 X70.569 Y68.589
G1 F1800 X51.408 Y49.428 E55.69626
G0 F4320 X51.135 Y49.65
G1 F1800 X70.345 Y68.86 E57.07987
G0 F4320 X70.112 Y69.122
G1 F1800 X50.873 Y49.883 E58.46556
G0 F4320 X50.617 Y50.122
G1 F1800 X69.878 Y69.383 E59.85284
G0 F4320 X69.628 Y69.628
G1 F1800 X50.363 Y50.363 E61.24041
G0 F4320 X50.122 Y50.617
G1 F1800 X69.379 Y69.874 E62.6274
G0 F4320 X69.122 Y70.112
G1 F1800 X49.88 Y50.87 E64.01331
G0 F4320 X49.65 Y51.135
G1 F1800 X68.857 Y70.342 E65.3967
G0 F4320 X68.592 Y70.572
G1 F1800 X49.425 Y51.405 E66.77721
G0 F4320 X49.205 Y51.68
G1 F1800 X68.312 Y70.787 E68.1534
G0 F4320 X68.031 Y71.001
G1 F1800 X48.995 Y51.965 E69.52447
G0 F4320 X48.786 Y52.25
G1 F1800 X67.74 Y71.205 E70.88968
G0 F4320 X67.443 Y71.403
G1 F1800 X48.59 Y52.55 E72.24757
G0 F4320 X48.397 Y52.852
G1 F1800 X67.144 Y71.599 E73.59783
G0 F4320 X66.831 Y71.781
G1 F1800 X48.211 Y53.161 E74.93894
G0 F4320 X48.035 Y53.48
G1 F1800 X66.517 Y71.962 E76.27011
G0 F4320 X66.19 Y72.129
G1 F1800 X47.861 Y53.8 E77.59026
G0 F4320 X47.702 Y54.136
G1 F1800 X65.859 Y72.293 E78.89803
G0 F4320 X65.521 Y72.451
G1 F1800 X47.543 Y54.472 E80.19293
G0 F4320 X47.397 Y54.821
G1 F1800 X65.173 Y72.597 E81.47326
G0 F4320 X64.823 Y72.742
G1 F1800 X47.255 Y55.175 E82.73856
G0 F4320 X47.123 Y55.538
G1 F1800 X64.455 Y72.87 E83.9869
G0 F4320 X64.087 Y72.996
G1 F1800 X47.002 Y55.911 E85.21745
G0 F4320 X46.886 Y56.29
G1 F1800 X63.7 Y73.104 E86.42849
